(G-CODE GENERATED BY FLATCAM v8.994 - www.flatcam.org - Version Date: 2020/11/7)

(Name: rp2040-literal-bare-minimum-B_Cu.gbr_ncc_cnc)
(Type: G-code from Geometry)
(Units: MM)

(Created on Sunday, 27 July 2025 at 16:38)

(This preprocessor is the default preprocessor used by FlatCAM.)
(It is made to work with MACH3 compatible motion controllers.)

(TOOL DIAMETER: 0.19 mm)
(Feedrate_XY: 120.0 mm/min)
(Feedrate_Z: 60.0 mm/min)
(Feedrate rapids 1500.0 mm/min)

(Z_Cut: -0.05 mm)
(Z_Move: 2.0 mm)
(Z Start: None mm)
(Z End: 15.0 mm)
(X,Y End: None mm)
(Steps per circle: 64)
(Preprocessor Geometry: default)

(X range:    8.0750 ...   46.1280  mm)
(Y range:    1.5060 ...   21.2675  mm)

(Spindle Speed: 15000.0 RPM)
G21
G90
G94

G01 F120.00

M5
G00 Z15.0000
G00 X0.0000 Y0.0000
T1 M6    
(MSG, Change to Tool Dia = 0.1900)
M0
G00 Z15.0000

M03 S15000.0
G01 F120.00
G00 X8.6206 Y5.4910
G01 F60.00
G01 Z-0.0500
G01 F120.00
G01 X8.5763 Y5.4790
G01 X8.5422 Y5.4710
G01 X8.5177 Y5.4658
G01 X8.4522 Y5.5693
G01 X8.4858 Y5.5755
G01 X8.5172 Y5.5822
G01 X8.5486 Y5.5896
G01 X8.5797 Y5.5978
G01 X8.6106 Y5.6068
G01 X8.6412 Y5.6165
G01 X8.6717 Y5.6270
G01 X8.7018 Y5.6382
G01 X8.7317 Y5.6501
G01 X8.7637 Y5.6639
G00 Z2.0000
G00 X8.7006 Y5.7608
G01 F60.00
G01 Z-0.0500
G01 F120.00
G01 X8.6608 Y5.7445
G01 X8.6333 Y5.7343
G01 X8.6055 Y5.7247
G01 X8.5775 Y5.7159
G01 X8.5493 Y5.7077
G01 X8.5209 Y5.7002
G01 X8.4923 Y5.6934
G01 X8.4635 Y5.6873
G01 X8.4346 Y5.6820
G01 X8.4056 Y5.6773
G01 X8.3860 Y5.6746
G01 X8.3305 Y5.7831
G01 X8.3626 Y5.7865
G01 X8.3889 Y5.7901
G01 X8.4152 Y5.7943
G01 X8.4413 Y5.7991
G01 X8.4673 Y5.8046
G01 X8.4932 Y5.8108
G01 X8.5189 Y5.8176
G01 X8.5444 Y5.8250
G01 X8.5697 Y5.8330
G01 X8.5949 Y5.8416
G01 X8.6198 Y5.8509
G01 X8.6414 Y5.8596
G00 Z2.0000
G00 X8.5910 Y5.9622
G01 F60.00
G01 Z-0.0500
G01 F120.00
G01 X8.5565 Y5.9490
G01 X8.5340 Y5.9412
G01 X8.5113 Y5.9341
G01 X8.4885 Y5.9274
G01 X8.4655 Y5.9214
G01 X8.4423 Y5.9159
G01 X8.4190 Y5.9110
G01 X8.3957 Y5.9066
G01 X8.3722 Y5.9028
G01 X8.3486 Y5.8996
G01 X8.3250 Y5.8970
G01 X8.3013 Y5.8950
G01 X8.2773 Y5.8935
G01 X8.2316 Y6.0064
G01 X8.2720 Y6.0074
G01 X8.2929 Y6.0087
G01 X8.3138 Y6.0105
G01 X8.3347 Y6.0128
G01 X8.3555 Y6.0156
G01 X8.3762 Y6.0189
G01 X8.3968 Y6.0228
G01 X8.4173 Y6.0271
G01 X8.4378 Y6.0320
G01 X8.4580 Y6.0373
G01 X8.4782 Y6.0432
G01 X8.4982 Y6.0495
G01 X8.5180 Y6.0563
G01 X8.5426 Y6.0656
G00 Z2.0000
G00 X8.5042 Y6.1730
G01 F60.00
G01 Z-0.0500
G01 F120.00
G01 X8.4796 Y6.1637
G01 X8.4624 Y6.1577
G01 X8.4276 Y6.1472
G01 X8.3924 Y6.1383
G01 X8.3567 Y6.1312
G01 X8.3387 Y6.1284
G01 X8.3026 Y6.1239
G01 X8.2664 Y6.1212
G01 X8.2300 Y6.1203
G01 X8.2118 Y6.1206
G01 X8.1913 Y6.1214
G01 X8.1555 Y6.2388
G01 X8.1839 Y6.2360
G01 X8.1992 Y6.2351
G01 X8.2300 Y6.2343
G01 X8.2454 Y6.2345
G01 X8.2761 Y6.2360
G01 X8.2915 Y6.2374
G01 X8.3220 Y6.2411
G01 X8.3523 Y6.2464
G01 X8.3824 Y6.2531
G01 X8.3972 Y6.2570
G01 X8.4267 Y6.2660
G01 X8.4412 Y6.2710
G01 X8.4683 Y6.2814
G00 Z2.0000
G00 X8.4403 Y6.3934
G01 F60.00
G01 Z-0.0500
G01 F120.00
G01 X8.4263 Y6.3874
G01 X8.4028 Y6.3783
G01 X8.3909 Y6.3742
G01 X8.3668 Y6.3669
G01 X8.3547 Y6.3637
G01 X8.3301 Y6.3582
G01 X8.3053 Y6.3539
G01 X8.2928 Y6.3522
G01 X8.2803 Y6.3508
G01 X8.2552 Y6.3490
G01 X8.2300 Y6.3483
G01 X8.2048 Y6.3490
G01 X8.1797 Y6.3508
G01 X8.1672 Y6.3522
G01 X8.1423 Y6.3559
G01 X8.1282 Y6.3586
G01 X8.1025 Y6.4833
G01 X8.1236 Y6.4768
G01 X8.1426 Y6.4720
G01 X8.1618 Y6.4682
G01 X8.1812 Y6.4653
G01 X8.2007 Y6.4634
G01 X8.2202 Y6.4625
G01 X8.2398 Y6.4625
G01 X8.2594 Y6.4634
G01 X8.2788 Y6.4653
G01 X8.2982 Y6.4682
G01 X8.3174 Y6.4720
G01 X8.3364 Y6.4768
G01 X8.3552 Y6.4825
G01 X8.3736 Y6.4891
G01 X8.3917 Y6.4966
G01 X8.4170 Y6.5089
G00 Z2.0000
G00 X8.3988 Y6.6317
G01 F60.00
G01 Z-0.0500
G01 F120.00
G01 X8.3941 Y6.6283
G01 X8.3883 Y6.6244
G01 X8.3825 Y6.6206
G01 X8.3644 Y6.6100
G01 X8.3455 Y6.6008
G01 X8.3260 Y6.5930
G01 X8.3060 Y6.5867
G01 X8.2856 Y6.5818
G01 X8.2649 Y6.5785
G01 X8.2440 Y6.5767
G01 X8.2230 Y6.5764
G01 X8.2021 Y6.5777
G01 X8.1813 Y6.5805
G01 X8.1608 Y6.5849
G01 X8.1406 Y6.5907
G01 X8.1209 Y6.5980
G01 X8.1019 Y6.6068
G01 X8.0957 Y6.6100
G01 X8.0895 Y6.6134
G01 X8.0877 Y6.6144
G01 X8.0750 Y6.7274
G01 X8.0750 Y6.9976
G01 X8.1052 Y7.2660
G01 X8.1654 Y7.5293
G01 X8.2546 Y7.7843
G01 X8.3718 Y8.0277
G01 X8.5155 Y8.2564
G01 X8.5522 Y8.3024
G01 X8.7764 Y8.0782
G01 X8.7368 Y8.0245
G01 X8.6313 Y7.8480
G01 X8.5445 Y7.6642
G01 X8.4767 Y7.4751
G01 X8.4746 Y7.4684
G01 X8.4253 Y7.2712
G01 X8.3951 Y7.0678
G01 X8.3850 Y6.8625
G01 X8.3949 Y6.6595
G01 X8.4245 Y6.4584
G01 X8.4263 Y6.4492
G01 X8.4752 Y6.2544
G01 X8.5436 Y6.0629
G01 X8.5464 Y6.0565
G01 X8.6335 Y5.8729
G01 X8.7368 Y5.7005
G01 X8.7764 Y5.6468
G01 X8.5522 Y5.4226
G01 X8.5155 Y5.4686
G01 X8.3718 Y5.6973
G01 X8.2546 Y5.9407
G01 X8.1654 Y6.1957
G01 X8.1052 Y6.4590
G01 X8.0750 Y6.7274
G01 X8.0750 Y6.7892
G01 X8.0754 Y6.7882
G01 X8.0773 Y6.7845
G01 X8.0812 Y6.7770
G01 X8.0878 Y6.7663
G01 X8.0978 Y6.7529
G01 X8.1062 Y6.7434
G01 X8.1183 Y6.7319
G01 X8.1281 Y6.7240
G01 X8.1385 Y6.7169
G01 X8.1531 Y6.7086
G01 X8.1646 Y6.7034
G01 X8.1804 Y6.6977
G01 X8.1925 Y6.6945
G01 X8.2091 Y6.6916
G01 X8.2216 Y6.6905
G01 X8.2384 Y6.6905
G01 X8.2509 Y6.6916
G01 X8.2675 Y6.6945
G01 X8.2796 Y6.6977
G01 X8.2876 Y6.7003
G01 X8.2993 Y6.7050
G01 X8.3069 Y6.7086
G01 X8.3179 Y6.7147
G01 X8.3250 Y6.7192
G01 X8.3352 Y6.7265
G01 X8.3417 Y6.7319
G01 X8.3479 Y6.7375
G01 X8.3567 Y6.7465
G01 X8.3648 Y6.7561
G01 X8.3698 Y6.7629
G01 X8.3745 Y6.7698
G01 X8.3808 Y6.7807
G01 X8.3881 Y6.7963
G01 X8.2870 Y6.8613
G01 X8.2862 Y6.8516
G01 X8.2837 Y6.8421
G01 X8.2796 Y6.8332
G01 X8.2741 Y6.8252
G01 X8.2672 Y6.8182
G01 X8.2593 Y6.8124
G01 X8.2505 Y6.8082
G01 X8.2411 Y6.8054
G01 X8.2314 Y6.8044
G01 X8.2216 Y6.8050
G01 X8.2121 Y6.8072
G01 X8.2031 Y6.8111
G01 X8.1949 Y6.8164
G01 X8.1878 Y6.8231
G01 X8.1819 Y6.8308
G01 X8.1773 Y6.8395
G01 X8.1755 Y6.8448
G01 X8.1741 Y6.8502
G01 X8.1733 Y6.8557
G01 X8.1730 Y6.8613
G01 X8.1733 Y6.8669
G01 X8.1741 Y6.8725
G01 X8.1755 Y6.8779
G01 X8.1773 Y6.8831
G01 X8.1797 Y6.8882
G01 X8.1826 Y6.8930
G01 X8.1859 Y6.8975
G01 X8.1897 Y6.9016
G01 X8.1938 Y6.9054
G01 X8.1983 Y6.9087
G01 X8.2031 Y6.9116
G01 X8.2082 Y6.9140
G01 X8.2148 Y6.9163
G01 X8.2216 Y6.9177
G01 X8.2286 Y6.9183
G01 X8.2356 Y6.9181
G01 X8.2425 Y6.9169
G01 X8.2492 Y6.9150
G01 X8.2556 Y6.9122
G01 X8.2617 Y6.9087
G01 X8.2672 Y6.9045
G01 X8.2722 Y6.8996
G01 X8.2766 Y6.8942
G01 X8.2803 Y6.8882
G01 X8.2832 Y6.8818
G01 X8.2853 Y6.8752
G01 X8.2866 Y6.8683
G01 X8.2870 Y6.8613
G01 X8.3880 Y6.9267
G01 X8.3827 Y6.9382
G01 X8.3745 Y6.9528
G01 X8.3648 Y6.9665
G01 X8.3539 Y6.9792
G01 X8.3417 Y6.9908
G01 X8.3285 Y7.0011
G01 X8.3143 Y7.0101
G01 X8.2993 Y7.0177
G01 X8.2836 Y7.0237
G01 X8.2675 Y7.0282
G01 X8.2509 Y7.0310
G01 X8.2342 Y7.0323
G01 X8.2174 Y7.0319
G01 X8.2008 Y7.0298
G01 X8.1844 Y7.0261
G01 X8.1685 Y7.0209
G01 X8.1531 Y7.0141
G01 X8.1385 Y7.0058
G01 X8.1248 Y6.9961
G01 X8.1121 Y6.9852
G01 X8.1005 Y6.9730
G01 X8.0902 Y6.9598
G01 X8.0812 Y6.9456
G01 X8.0750 Y6.9335
G01 X8.0875 Y7.1081
G01 X8.0895 Y7.1093
G01 X8.0957 Y7.1127
G01 X8.1019 Y7.1159
G01 X8.1209 Y7.1246
G01 X8.1406 Y7.1319
G01 X8.1608 Y7.1378
G01 X8.1813 Y7.1421
G01 X8.2021 Y7.1450
G01 X8.2230 Y7.1462
G01 X8.2440 Y7.1460
G01 X8.2649 Y7.1442
G01 X8.2856 Y7.1409
G01 X8.3060 Y7.1360
G01 X8.3260 Y7.1297
G01 X8.3455 Y7.1219
G01 X8.3644 Y7.1127
G01 X8.3825 Y7.1021
G01 X8.3984 Y7.0912
G00 Z2.0000
G00 X8.4166 Y7.2140
G01 F60.00
G01 Z-0.0500
G01 F120.00
G01 X8.3917 Y7.2261
G01 X8.3736 Y7.2336
G01 X8.3552 Y7.2402
G01 X8.3364 Y7.2459
G01 X8.3174 Y7.2506
G01 X8.2982 Y7.2545
G01 X8.2788 Y7.2573
G01 X8.2594 Y7.2593
G01 X8.2398 Y7.2602
G01 X8.2202 Y7.2602
G01 X8.2007 Y7.2593
G01 X8.1812 Y7.2573
G01 X8.1618 Y7.2545
G01 X8.1426 Y7.2506
G01 X8.1236 Y7.2459
G01 X8.1022 Y7.2393
G01 X8.1276 Y7.3640
G01 X8.1423 Y7.3668
G01 X8.1672 Y7.3705
G01 X8.1923 Y7.3729
G01 X8.2048 Y7.3737
G01 X8.2300 Y7.3743
G01 X8.2426 Y7.3742
G01 X8.2677 Y7.3729
G01 X8.2803 Y7.3719
G01 X8.2928 Y7.3705
G01 X8.3177 Y7.3668
G01 X8.3424 Y7.3619
G01 X8.3668 Y7.3558
G01 X8.3789 Y7.3522
G01 X8.4028 Y7.3443
G01 X8.4263 Y7.3353
G01 X8.4397 Y7.3295
G00 Z2.0000
G00 X8.4678 Y7.4415
G01 F60.00
G01 Z-0.0500
G01 F120.00
G01 X8.4412 Y7.4517
G01 X8.4267 Y7.4567
G01 X8.3972 Y7.4656
G01 X8.3824 Y7.4695
G01 X8.3523 Y7.4763
G01 X8.3220 Y7.4815
G01 X8.3068 Y7.4836
G01 X8.2915 Y7.4853
G01 X8.2608 Y7.4876
G01 X8.2300 Y7.4883
G01 X8.1992 Y7.4876
G01 X8.1839 Y7.4866
G01 X8.1550 Y7.4838
G01 X8.1905 Y7.6012
G01 X8.2118 Y7.6021
G01 X8.2300 Y7.6023
G01 X8.2664 Y7.6014
G01 X8.3026 Y7.5988
G01 X8.3207 Y7.5968
G01 X8.3567 Y7.5914
G01 X8.3924 Y7.5843
G01 X8.4276 Y7.5755
G01 X8.4624 Y7.5649
G01 X8.4796 Y7.5590
G01 X8.5035 Y7.5500
G00 Z2.0000
G00 X8.5419 Y7.6574
G01 F60.00
G01 Z-0.0500
G01 F120.00
G01 X8.5180 Y7.6664
G01 X8.4982 Y7.6732
G01 X8.4782 Y7.6795
G01 X8.4580 Y7.6854
G01 X8.4378 Y7.6907
G01 X8.4173 Y7.6956
G01 X8.3968 Y7.6999
G01 X8.3762 Y7.7037
G01 X8.3555 Y7.7071
G01 X8.3347 Y7.7099
G01 X8.3138 Y7.7122
G01 X8.2929 Y7.7140
G01 X8.2720 Y7.7153
G01 X8.2510 Y7.7161
G01 X8.2308 Y7.7163
G01 X8.2762 Y7.8292
G01 X8.3013 Y7.8277
G01 X8.3250 Y7.8257
G01 X8.3486 Y7.8230
G01 X8.3722 Y7.8198
G01 X8.3957 Y7.8161
G01 X8.4190 Y7.8117
G01 X8.4423 Y7.8068
G01 X8.4655 Y7.8013
G01 X8.4885 Y7.7952
G01 X8.5113 Y7.7886
G01 X8.5340 Y7.7814
G01 X8.5565 Y7.7737
G01 X8.5901 Y7.7609
G00 Z2.0000
G00 X8.6403 Y7.8635
G01 F60.00
G01 Z-0.0500
G01 F120.00
G01 X8.6198 Y7.8718
G01 X8.5949 Y7.8810
G01 X8.5697 Y7.8897
G01 X8.5444 Y7.8977
G01 X8.5189 Y7.9051
G01 X8.4932 Y7.9119
G01 X8.4673 Y7.9180
G01 X8.4413 Y7.9235
G01 X8.4152 Y7.9284
G01 X8.3889 Y7.9326
G01 X8.3626 Y7.9362
G01 X8.3294 Y7.9397
G01 X8.3847 Y8.0482
G01 X8.4056 Y8.0454
G01 X8.4346 Y8.0407
G01 X8.4635 Y8.0353
G01 X8.4923 Y8.0292
G01 X8.5209 Y8.0225
G01 X8.5493 Y8.0150
G01 X8.5775 Y8.0068
G01 X8.6055 Y7.9979
G01 X8.6333 Y7.9884
G01 X8.6608 Y7.9781
G01 X8.6995 Y7.9623
G00 Z2.0000
G00 X8.7624 Y8.0594
G01 F60.00
G01 Z-0.0500
G01 F120.00
G01 X8.7317 Y8.0725
G01 X8.7018 Y8.0845
G01 X8.6717 Y8.0957
G01 X8.6412 Y8.1062
G01 X8.6106 Y8.1159
G01 X8.5797 Y8.1248
G01 X8.5486 Y8.1330
G01 X8.5172 Y8.1405
G01 X8.4858 Y8.1471
G01 X8.4509 Y8.1536
G01 X8.5161 Y8.2572
G01 X8.5422 Y8.2517
G01 X8.5763 Y8.2436
G01 X8.6101 Y8.2347
G01 X8.6239 Y8.2307
G00 Z2.0000
G00 X9.2643 Y8.5661
G01 F60.00
G01 Z-0.0500
G01 F120.00
G01 X9.0401 Y8.7903
G01 X9.0861 Y8.8270
G01 X9.3148 Y8.9707
G01 X9.5582 Y9.0879
G01 X9.8132 Y9.1771
G01 X10.0765 Y9.2373
G01 X10.3449 Y9.2675
G01 X10.6151 Y9.2675
G01 X10.8835 Y9.2373
G01 X11.1468 Y9.1771
G01 X11.4018 Y9.0879
G01 X11.6452 Y8.9707
G01 X11.8739 Y8.8270
G01 X11.9199 Y8.7903
G01 X11.6957 Y8.5661
G01 X11.6420 Y8.6057
G01 X11.4655 Y8.7112
G01 X11.2817 Y8.7980
G01 X11.0926 Y8.8658
G01 X11.0859 Y8.8679
G01 X10.8887 Y8.9172
G01 X10.6853 Y8.9474
G01 X10.4800 Y8.9575
G01 X10.2770 Y8.9476
G01 X10.0759 Y8.9180
G01 X10.0667 Y8.9162
G01 X9.8719 Y8.8673
G01 X9.6804 Y8.7989
G01 X9.6740 Y8.7961
G01 X9.4904 Y8.7090
G01 X9.3180 Y8.6057
G01 X9.2643 Y8.5661
G00 Z2.0000
G00 X9.2709 Y8.5711
G01 F60.00
G01 Z-0.0500
G01 F120.00
G01 X9.2613 Y8.5819
G01 X9.2453 Y8.6014
G01 X9.2303 Y8.6216
G01 X9.2232 Y8.6320
G01 X9.2097 Y8.6533
G01 X9.1973 Y8.6752
G01 X9.1860 Y8.6977
G01 X9.1807 Y8.7091
G01 X9.1711 Y8.7324
G01 X9.1667 Y8.7442
G01 X9.1588 Y8.7681
G01 X9.1553 Y8.7802
G01 X9.1492 Y8.8046
G01 X9.1466 Y8.8169
G01 X9.1423 Y8.8417
G01 X9.1399 Y8.8608
G01 X9.2510 Y8.9306
G01 X9.2509 Y8.9072
G01 X9.2518 Y8.8877
G01 X9.2537 Y8.8682
G01 X9.2566 Y8.8488
G01 X9.2604 Y8.8296
G01 X9.2652 Y8.8106
G01 X9.2709 Y8.7918
G01 X9.2775 Y8.7734
G01 X9.2850 Y8.7553
G01 X9.2933 Y8.7376
G01 X9.3026 Y8.7203
G01 X9.3126 Y8.7035
G01 X9.3235 Y8.6873
G01 X9.3352 Y8.6715
G01 X9.3476 Y8.6564
G01 X9.3672 Y8.6352
G00 Z2.0000
G00 X9.4693 Y8.6964
G01 F60.00
G01 Z-0.0500
G01 F120.00
G01 X9.4532 Y8.7106
G01 X9.4386 Y8.7256
G01 X9.4251 Y8.7417
G01 X9.4128 Y8.7587
G01 X9.4018 Y8.7765
G01 X9.3921 Y8.7952
G01 X9.3838 Y8.8144
G01 X9.3770 Y8.8343
G01 X9.3717 Y8.8546
G01 X9.3678 Y8.8752
G01 X9.3655 Y8.8960
G01 X9.3647 Y8.9170
G01 X9.3655 Y8.9380
G01 X9.3678 Y8.9588
G01 X9.3717 Y8.9794
G01 X9.3774 Y9.0008
G01 X9.5905 Y8.7566
G01 X9.5766 Y8.7624
G01 X9.5654 Y8.7682
G01 X9.5547 Y8.7748
G01 X9.5445 Y8.7822
G01 X9.5349 Y8.7903
G01 X9.5259 Y8.7991
G01 X9.5175 Y8.8085
G01 X9.5099 Y8.8185
G01 X9.5031 Y8.8291
G01 X9.4952 Y8.8439
G01 X9.4902 Y8.8555
G01 X9.4861 Y8.8674
G01 X9.4829 Y8.8795
G01 X9.4820 Y8.8836
G01 X9.4813 Y8.8878
G01 X9.4806 Y8.8919
G01 X9.4792 Y8.9044
G01 X9.4787 Y8.9170
G01 X9.4792 Y8.9296
G01 X9.4813 Y8.9462
G01 X9.4839 Y8.9586
G01 X9.4874 Y8.9706
G01 X9.4917 Y8.9824
G01 X9.4970 Y8.9939
G01 X9.5031 Y9.0049
G01 X9.5099 Y9.0155
G01 X9.5175 Y9.0255
G01 X9.5259 Y9.0349
G01 X9.5349 Y9.0437
G01 X9.5445 Y9.0518
G01 X9.5547 Y9.0592
G01 X9.5691 Y9.0678
G01 X9.5804 Y9.0733
G01 X9.5921 Y9.0780
G01 X9.6001 Y9.0806
G01 X9.6123 Y9.0838
G01 X9.6288 Y9.0867
G01 X9.6455 Y9.0880
G01 X9.6581 Y9.0878
G01 X9.6665 Y9.0872
G01 X9.6790 Y9.0855
G01 X9.6872 Y9.0838
G01 X9.7034 Y9.0794
G01 X9.7152 Y9.0750
G01 X9.7228 Y9.0716
G01 X9.7376 Y9.0637
G01 X9.7482 Y9.0568
G01 X9.7549 Y9.0518
G01 X9.7676 Y9.0408
G01 X9.7764 Y9.0318
G01 X9.7819 Y9.0255
G01 X9.7919 Y9.0120
G01 X9.7964 Y9.0049
G01 X9.8025 Y8.9939
G01 X9.8093 Y8.9785
G01 X9.8145 Y8.9626
G01 X9.8166 Y8.9545
G01 X9.8189 Y8.9421
G01 X9.8203 Y8.9296
G01 X9.8207 Y8.9170
G01 X9.8207 Y8.9170
G01 X9.8207 Y8.9170
G01 X9.8207 Y8.9128
G01 X9.8203 Y8.9044
G01 X9.8189 Y8.8919
G01 X9.8166 Y8.8795
G01 X9.8134 Y8.8674
G01 X9.8093 Y8.8555
G01 X9.8039 Y8.8431
G01 X9.7067 Y8.9170
G01 X9.7063 Y8.9100
G01 X9.7047 Y8.9018
G01 X9.7024 Y8.8952
G01 X9.6993 Y8.8889
G01 X9.6947 Y8.8819
G01 X9.6900 Y8.8767
G01 X9.6848 Y8.8721
G01 X9.6778 Y8.8674
G01 X9.6715 Y8.8643
G01 X9.6649 Y8.8621
G01 X9.6567 Y8.8604
G01 X9.6497 Y8.8600
G01 X9.6428 Y8.8604
G01 X9.6345 Y8.8621
G01 X9.6279 Y8.8643
G01 X9.6216 Y8.8674
G01 X9.6147 Y8.8721
G01 X9.6075 Y8.8787
G01 X9.6016 Y8.8865
G01 X9.5976 Y8.8939
G01 X9.5948 Y8.9018
G01 X9.5930 Y8.9114
G01 X9.5929 Y8.9212
G01 X9.5944 Y8.9309
G01 X9.5971 Y8.9388
G01 X9.6016 Y8.9475
G01 X9.6075 Y8.9553
G01 X9.6136 Y8.9611
G01 X9.6216 Y8.9666
G01 X9.6292 Y8.9702
G01 X9.6372 Y8.9726
G01 X9.6469 Y8.9739
G01 X9.6525 Y8.9739
G01 X9.6595 Y8.9732
G01 X9.6649 Y8.9719
G01 X9.6702 Y8.9702
G01 X9.6754 Y8.9679
G01 X9.6802 Y8.9652
G01 X9.6848 Y8.9619
G01 X9.6890 Y8.9583
G01 X9.6929 Y8.9542
G01 X9.6963 Y8.9498
G01 X9.6993 Y8.9451
G01 X9.7018 Y8.9401
G01 X9.7039 Y8.9349
G01 X9.7053 Y8.9295
G01 X9.7065 Y8.9226
G01 X9.7067 Y8.9170
G01 X9.9347 Y8.9170
G01 X9.9344 Y8.9030
G01 X9.9326 Y8.8826
G01 X9.9347 Y8.9170
G01 X9.9346 Y8.9240
G01 X9.9334 Y8.9449
G01 X9.9305 Y8.9657
G01 X9.9262 Y8.9863
G01 X9.9203 Y9.0064
G01 X9.9130 Y9.0261
G01 X9.9043 Y9.0451
G01 X9.8942 Y9.0635
G01 X9.8827 Y9.0811
G01 X9.8700 Y9.0978
G01 X9.8561 Y9.1135
G01 X9.8411 Y9.1282
G01 X9.8251 Y9.1417
G01 X9.8081 Y9.1540
G01 X9.7963 Y9.1615
G01 X9.7856 Y9.1675
G01 X9.9276 Y9.2033
G01 X9.9454 Y9.1850
G01 X9.9582 Y9.1701
G01 X9.9702 Y9.1547
G01 X9.9815 Y9.1387
G01 X9.9920 Y9.1221
G01 X10.0016 Y9.1051
G01 X10.0104 Y9.0876
G01 X10.0184 Y9.0697
G01 X10.0254 Y9.0514
G01 X10.0316 Y9.0328
G01 X10.0368 Y9.0140
G01 X10.0411 Y8.9948
G01 X10.0444 Y8.9755
G01 X10.0468 Y8.9561
G01 X10.0483 Y8.9366
G01 X10.0487 Y8.9117
G00 Z2.0000
G00 X10.1625 Y8.9309
G01 F60.00
G01 Z-0.0500
G01 F120.00
G01 X10.1613 Y8.9547
G01 X10.1589 Y8.9798
G01 X10.1572 Y8.9923
G01 X10.1529 Y9.0171
G01 X10.1474 Y9.0417
G01 X10.1441 Y9.0538
G01 X10.1406 Y9.0659
G01 X10.1327 Y9.0898
G01 X10.1284 Y9.1016
G01 X10.1187 Y9.1249
G01 X10.1080 Y9.1477
G01 X10.1022 Y9.1588
G01 X10.0897 Y9.1807
G01 X10.0831 Y9.1915
G01 X10.0692 Y9.2124
G01 X10.0545 Y9.2322
G01 X10.1815 Y9.2491
G01 X10.1953 Y9.2261
G01 X10.2027 Y9.2126
G01 X10.2165 Y9.1851
G01 X10.2229 Y9.1711
G01 X10.2290 Y9.1569
G01 X10.2401 Y9.1282
G01 X10.2497 Y9.0990
G01 X10.2579 Y9.0694
G01 X10.2647 Y9.0393
G01 X10.2675 Y9.0242
G01 X10.2699 Y9.0090
G01 X10.2737 Y8.9785
G01 X10.2760 Y8.9475
G00 Z2.0000
G00 X10.3898 Y8.9532
G01 F60.00
G01 Z-0.0500
G01 F120.00
G01 X10.3872 Y8.9896
G01 X10.3827 Y9.0257
G01 X10.3765 Y9.0616
G01 X10.3727 Y9.0794
G01 X10.3639 Y9.1146
G01 X10.3533 Y9.1494
G01 X10.3411 Y9.1837
G01 X10.3272 Y9.2173
G01 X10.3196 Y9.2338
G01 X10.3050 Y9.2630
G01 X10.4295 Y9.2675
G01 X10.4396 Y9.2442
G01 X10.4474 Y9.2247
G01 X10.4548 Y9.2050
G01 X10.4616 Y9.1852
G01 X10.4679 Y9.1652
G01 X10.4738 Y9.1450
G01 X10.4791 Y9.1248
G01 X10.4840 Y9.1043
G01 X10.4883 Y9.0838
G01 X10.4921 Y9.0632
G01 X10.4955 Y9.0425
G01 X10.4983 Y9.0217
G01 X10.5006 Y9.0008
G01 X10.5024 Y8.9799
G01 X10.5038 Y8.9564
G00 Z2.0000
G00 X10.6181 Y8.9508
G01 F60.00
G01 Z-0.0500
G01 F120.00
G01 X10.6161 Y8.9883
G01 X10.6141 Y9.0120
G01 X10.6114 Y9.0356
G01 X10.6082 Y9.0592
G01 X10.6045 Y9.0827
G01 X10.6001 Y9.1060
G01 X10.5952 Y9.1293
G01 X10.5897 Y9.1525
G01 X10.5836 Y9.1754
G01 X10.5770 Y9.1983
G01 X10.5698 Y9.2210
G01 X10.5621 Y9.2434
G01 X10.5531 Y9.2675
G01 X10.6768 Y9.2605
G01 X10.6861 Y9.2314
G01 X10.6935 Y9.2059
G01 X10.7003 Y9.1802
G01 X10.7064 Y9.1543
G01 X10.7119 Y9.1283
G01 X10.7168 Y9.1022
G01 X10.7210 Y9.0759
G01 X10.7246 Y9.0496
G01 X10.7275 Y9.0232
G01 X10.7298 Y8.9967
G01 X10.7314 Y8.9701
G01 X10.7324 Y8.9405
G00 Z2.0000
G00 X10.8467 Y8.9236
G01 F60.00
G01 Z-0.0500
G01 F120.00
G01 X10.8464 Y8.9464
G01 X10.8453 Y8.9757
G01 X10.8435 Y9.0051
G01 X10.8410 Y9.0343
G01 X10.8377 Y9.0635
G01 X10.8338 Y9.0926
G01 X10.8291 Y9.1216
G01 X10.8237 Y9.1505
G01 X10.8176 Y9.1793
G01 X10.8109 Y9.2079
G01 X10.8004 Y9.2466
G01 X10.9232 Y9.2282
G01 X10.9289 Y9.2042
G01 X10.9355 Y9.1728
G01 X10.9414 Y9.1411
G01 X10.9465 Y9.1094
G01 X10.9509 Y9.0775
G01 X10.9544 Y9.0455
G01 X10.9572 Y9.0134
G01 X10.9592 Y8.9813
G01 X10.9603 Y8.9492
G01 X10.9607 Y8.9170
G01 X10.9605 Y8.8994
G01 X11.0747 Y8.9170
G01 X11.0743 Y8.9520
G01 X11.0730 Y8.9869
G01 X11.0709 Y9.0218
G01 X11.0679 Y9.0567
G01 X11.0640 Y9.0914
G01 X11.0593 Y9.1261
G01 X11.0538 Y9.1606
G01 X11.0463 Y9.2001
G01 X11.1677 Y9.1698
G01 X11.1721 Y9.1428
G01 X11.1772 Y9.1054
G01 X11.1813 Y9.0679
G01 X11.1846 Y9.0302
G01 X11.1869 Y8.9925
G01 X11.1883 Y8.9548
G01 X11.1887 Y8.9170
G01 X11.1883 Y8.8792
G01 X11.1863 Y8.8323
G00 Z2.0000
G00 X11.0739 Y8.8710
G01 F60.00
G01 Z-0.0500
G01 F120.00
G01 X11.0747 Y8.9170
G01 X11.3027 Y8.9170
G01 X11.3022 Y8.8764
G01 X11.3007 Y8.8359
G01 X11.2978 Y8.7905
G00 Z2.0000
G00 X11.4076 Y8.7386
G01 F60.00
G01 Z-0.0500
G01 F120.00
G01 X11.4119 Y8.7870
G01 X11.4146 Y8.8303
G01 X11.4162 Y8.8736
G01 X11.4167 Y8.9170
G01 X11.4167 Y8.9170
G01 X11.4167 Y8.9170
G01 X11.4162 Y8.9604
G01 X11.4146 Y9.0037
G01 X11.4119 Y9.0470
G01 X11.4087 Y9.0846
G01 X11.2892 Y9.1273
G01 X11.2948 Y9.0790
G01 X11.2983 Y9.0386
G01 X11.3007 Y8.9981
G01 X11.3022 Y8.9576
G01 X11.3027 Y8.9170
G01 X11.5307 Y8.9170
G01 X11.5302 Y8.8708
G01 X11.5285 Y8.8247
G01 X11.5256 Y8.7786
G01 X11.5217 Y8.7326
G01 X11.5158 Y8.6813
G00 Z2.0000
G00 X11.6221 Y8.6177
G01 F60.00
G01 Z-0.0500
G01 F120.00
G01 X11.6297 Y8.6728
G01 X11.6351 Y8.7215
G01 X11.6393 Y8.7702
G01 X11.6423 Y8.8191
G01 X11.6441 Y8.8680
G01 X11.6447 Y8.9170
G01 X11.6441 Y8.9660
G01 X11.6439 Y8.9713
G01 X11.5307 Y8.9170
G01 X11.5302 Y8.9632
G01 X11.5285 Y9.0093
G01 X11.5274 Y9.0275
G01 X11.7585 Y8.8995
G01 X11.7581 Y8.8652
G01 X11.7562 Y8.8135
G01 X11.7530 Y8.7619
G01 X11.7486 Y8.7103
G01 X11.7429 Y8.6588
G01 X11.7357 Y8.6061
G01 X11.8652 Y8.7356
G01 X11.8667 Y8.7535
G01 X11.8701 Y8.8079
G01 X11.8708 Y8.8289
G00 Z2.0000
G00 X12.1836 Y8.0782
G01 F60.00
G01 Z-0.0500
G01 F120.00
G01 X12.2232 Y8.0245
G01 X12.3265 Y7.8521
G01 X12.4136 Y7.6685
G01 X12.4164 Y7.6621
G01 X12.4848 Y7.4706
G01 X12.5337 Y7.2758
G01 X12.5355 Y7.2666
G01 X12.5651 Y7.0655
G01 X12.5750 Y6.8625
G01 X12.5649 Y6.6572
G01 X12.5347 Y6.4538
G01 X12.4854 Y6.2566
G01 X12.4833 Y6.2499
G01 X12.4155 Y6.0608
G01 X12.3287 Y5.8770
G01 X12.2232 Y5.7005
G01 X12.1836 Y5.6468
G01 X12.4078 Y5.4226
G01 X12.4445 Y5.4686
G01 X12.5882 Y5.6973
G01 X12.7054 Y5.9407
G01 X12.7946 Y6.1957
G01 X12.8548 Y6.4590
G01 X12.8850 Y6.7274
G01 X12.8850 Y6.9976
G01 X12.8548 Y7.2660
G01 X12.7946 Y7.5293
G01 X12.7054 Y7.7843
G01 X12.5882 Y8.0277
G01 X12.4445 Y8.2564
G01 X12.4078 Y8.3024
G01 X12.1836 Y8.0782
G01 X12.3361 Y8.2307
G01 X12.3499 Y8.2347
G01 X12.3837 Y8.2436
G01 X12.4178 Y8.2517
G01 X12.4439 Y8.2572
G01 X12.5091 Y8.1536
G01 X12.5059 Y8.1530
G01 X12.4742 Y8.1471
G01 X12.4428 Y8.1405
G01 X12.4114 Y8.1330
G01 X12.3803 Y8.1248
G01 X12.3494 Y8.1159
G01 X12.3188 Y8.1062
G01 X12.2883 Y8.0957
G01 X12.2582 Y8.0845
G01 X12.2283 Y8.0725
G01 X12.1976 Y8.0594
G00 Z2.0000
G00 X12.2605 Y7.9623
G01 F60.00
G01 Z-0.0500
G01 F120.00
G01 X12.2992 Y7.9781
G01 X12.3267 Y7.9884
G01 X12.3545 Y7.9979
G01 X12.3825 Y8.0068
G01 X12.4107 Y8.0150
G01 X12.4391 Y8.0225
G01 X12.4677 Y8.0292
G01 X12.4965 Y8.0353
G01 X12.5254 Y8.0407
G01 X12.5544 Y8.0454
G01 X12.5753 Y8.0482
G01 X12.6306 Y7.9397
G01 X12.5974 Y7.9362
G01 X12.5711 Y7.9326
G01 X12.5448 Y7.9284
G01 X12.5187 Y7.9235
G01 X12.4927 Y7.9180
G01 X12.4668 Y7.9119
G01 X12.4411 Y7.9051
G01 X12.4156 Y7.8977
G01 X12.3903 Y7.8897
G01 X12.3651 Y7.8810
G01 X12.3402 Y7.8718
G01 X12.3197 Y7.8635
G00 Z2.0000
G00 X12.3699 Y7.7609
G01 F60.00
G01 Z-0.0500
G01 F120.00
G01 X12.4035 Y7.7737
G01 X12.4260 Y7.7814
G01 X12.4487 Y7.7886
G01 X12.4715 Y7.7952
G01 X12.4945 Y7.8013
G01 X12.5177 Y7.8068
G01 X12.5410 Y7.8117
G01 X12.5643 Y7.8161
G01 X12.5878 Y7.8198
G01 X12.6114 Y7.8230
G01 X12.6350 Y7.8257
G01 X12.6587 Y7.8277
G01 X12.6838 Y7.8292
G01 X12.7292 Y7.7163
G01 X12.7090 Y7.7161
G01 X12.6880 Y7.7153
G01 X12.6671 Y7.7140
G01 X12.6462 Y7.7122
G01 X12.6253 Y7.7099
G01 X12.6045 Y7.7071
G01 X12.5838 Y7.7037
G01 X12.5632 Y7.6999
G01 X12.5427 Y7.6956
G01 X12.5222 Y7.6907
G01 X12.5020 Y7.6854
G01 X12.4818 Y7.6795
G01 X12.4618 Y7.6732
G01 X12.4420 Y7.6664
G01 X12.4181 Y7.6574
G00 Z2.0000
G00 X12.4565 Y7.5500
G01 F60.00
G01 Z-0.0500
G01 F120.00
G01 X12.4804 Y7.5590
G01 X12.4976 Y7.5649
G01 X12.5324 Y7.5755
G01 X12.5676 Y7.5843
G01 X12.6033 Y7.5914
G01 X12.6393 Y7.5968
G01 X12.6574 Y7.5988
G01 X12.6936 Y7.6014
G01 X12.7300 Y7.6023
G01 X12.7482 Y7.6021
G01 X12.7695 Y7.6012
G01 X12.8050 Y7.4838
G01 X12.7761 Y7.4866
G01 X12.7608 Y7.4876
G01 X12.7300 Y7.4883
G01 X12.6992 Y7.4876
G01 X12.6685 Y7.4853
G01 X12.6532 Y7.4836
G01 X12.6380 Y7.4815
G01 X12.6077 Y7.4763
G01 X12.5776 Y7.4695
G01 X12.5628 Y7.4656
G01 X12.5333 Y7.4567
G01 X12.5188 Y7.4517
G01 X12.4922 Y7.4415
G01 X12.5203 Y7.3295
G01 X12.5337 Y7.3353
G01 X12.5572 Y7.3443
G01 X12.5691 Y7.3484
G01 X12.5932 Y7.3558
G01 X12.6053 Y7.3590
G01 X12.6299 Y7.3645
G01 X12.6547 Y7.3688
G01 X12.6797 Y7.3719
G01 X12.6923 Y7.3729
G01 X12.7174 Y7.3742
G01 X12.7300 Y7.3743
G01 X12.7552 Y7.3737
G01 X12.7677 Y7.3729
G01 X12.7928 Y7.3705
G01 X12.8177 Y7.3668
G01 X12.8324 Y7.3640
G01 X12.8578 Y7.2393
G01 X12.8364 Y7.2459
G01 X12.8174 Y7.2506
G01 X12.7982 Y7.2545
G01 X12.7788 Y7.2573
G01 X12.7593 Y7.2593
G01 X12.7398 Y7.2602
G01 X12.7202 Y7.2602
G01 X12.7006 Y7.2593
G01 X12.6812 Y7.2573
G01 X12.6618 Y7.2545
G01 X12.6426 Y7.2506
G01 X12.6236 Y7.2459
G01 X12.6048 Y7.2402
G01 X12.5864 Y7.2336
G01 X12.5683 Y7.2261
G01 X12.5434 Y7.2140
G00 Z2.0000
G00 X12.5616 Y7.0912
G01 F60.00
G01 Z-0.0500
G01 F120.00
G01 X12.5775 Y7.1021
G01 X12.5956 Y7.1127
G01 X12.6145 Y7.1219
G01 X12.6340 Y7.1297
G01 X12.6540 Y7.1360
G01 X12.6744 Y7.1409
G01 X12.6951 Y7.1442
G01 X12.7160 Y7.1460
G01 X12.7370 Y7.1462
G01 X12.7579 Y7.1450
G01 X12.7787 Y7.1421
G01 X12.7992 Y7.1378
G01 X12.8194 Y7.1319
G01 X12.8391 Y7.1246
G01 X12.8581 Y7.1159
G01 X12.8725 Y7.1081
G01 X12.7870 Y6.8613
G01 X12.7862 Y6.8711
G01 X12.7837 Y6.8805
G01 X12.7803 Y6.8882
G01 X12.7749 Y6.8964
G01 X12.7683 Y6.9036
G01 X12.7605 Y6.9095
G01 X12.7518 Y6.9140
G01 X12.7438 Y6.9166
G01 X12.7356 Y6.9181
G01 X12.7258 Y6.9182
G01 X12.7161 Y6.9166
G01 X12.7082 Y6.9140
G01 X12.7007 Y6.9102
G01 X12.6928 Y6.9045
G01 X12.6859 Y6.8975
G01 X12.6804 Y6.8894
G01 X12.6773 Y6.8831
G01 X12.6754 Y6.8779
G01 X12.6741 Y6.8725
G01 X12.6733 Y6.8669
G01 X12.6730 Y6.8613
G01 X12.6733 Y6.8557
G01 X12.6741 Y6.8502
G01 X12.6754 Y6.8448
G01 X12.6773 Y6.8395
G01 X12.6797 Y6.8345
G01 X12.6826 Y6.8297
G01 X12.6868 Y6.8241
G01 X12.6907 Y6.8201
G01 X12.6960 Y6.8156
G01 X12.7007 Y6.8124
G01 X12.7056 Y6.8098
G01 X12.7121 Y6.8072
G01 X12.7189 Y6.8054
G01 X12.7272 Y6.8044
G01 X12.7342 Y6.8045
G01 X12.7411 Y6.8054
G01 X12.7492 Y6.8077
G01 X12.7556 Y6.8104
G01 X12.7628 Y6.8147
G01 X12.7683 Y6.8191
G01 X12.7732 Y6.8241
G01 X12.7774 Y6.8297
G01 X12.7809 Y6.8357
G01 X12.7832 Y6.8408
G01 X12.7853 Y6.8475
G01 X12.7866 Y6.8544
G01 X12.7870 Y6.8613
G01 X12.8850 Y6.9335
G01 X12.8808 Y6.9419
G01 X12.8745 Y6.9528
G01 X12.8673 Y6.9632
G01 X12.8595 Y6.9730
G01 X12.8509 Y6.9822
G01 X12.8417 Y6.9908
G01 X12.8385 Y6.9935
G01 X12.8352 Y6.9961
G01 X12.8319 Y6.9987
G01 X12.8215 Y7.0058
G01 X12.8106 Y7.0121
G01 X12.7993 Y7.0177
G01 X12.7876 Y7.0223
G01 X12.7756 Y7.0261
G01 X12.7634 Y7.0290
G01 X12.7509 Y7.0310
G01 X12.7384 Y7.0321
G01 X12.7258 Y7.0323
G01 X12.7132 Y7.0315
G01 X12.7008 Y7.0298
G01 X12.6884 Y7.0272
G01 X12.6764 Y7.0237
G01 X12.6646 Y7.0193
G01 X12.6531 Y7.0141
G01 X12.6421 Y7.0080
G01 X12.6315 Y7.0011
G01 X12.6215 Y6.9935
G01 X12.6121 Y6.9852
G01 X12.6033 Y6.9762
G01 X12.5952 Y6.9665
G01 X12.5878 Y6.9563
G01 X12.5812 Y6.9456
G01 X12.5754 Y6.9344
G01 X12.5720 Y6.9267
G00 Z2.0000
G00 X12.5719 Y6.7963
G01 F60.00
G01 Z-0.0500
G01 F120.00
G01 X12.5754 Y6.7882
G01 X12.5812 Y6.7770
G01 X12.5878 Y6.7663
G01 X12.5952 Y6.7561
G01 X12.6033 Y6.7465
G01 X12.6121 Y6.7375
G01 X12.6215 Y6.7291
G01 X12.6315 Y6.7215
G01 X12.6421 Y6.7147
G01 X12.6531 Y6.7086
G01 X12.6646 Y6.7034
G01 X12.6764 Y6.6990
G01 X12.6884 Y6.6955
G01 X12.7008 Y6.6929
G01 X12.7132 Y6.6912
G01 X12.7258 Y6.6904
G01 X12.7384 Y6.6905
G01 X12.7509 Y6.6916
G01 X12.7634 Y6.6936
G01 X12.7756 Y6.6965
G01 X12.7876 Y6.7003
G01 X12.7993 Y6.7050
G01 X12.8106 Y6.7105
G01 X12.8215 Y6.7169
G01 X12.8319 Y6.7240
G01 X12.8417 Y6.7319
G01 X12.8509 Y6.7404
G01 X12.8595 Y6.7496
G01 X12.8673 Y6.7595
G01 X12.8745 Y6.7698
G01 X12.8808 Y6.7807
G01 X12.8850 Y6.7892
G01 X12.8723 Y6.6144
G01 X12.8581 Y6.6068
G01 X12.8391 Y6.5980
G01 X12.8194 Y6.5907
G01 X12.7992 Y6.5849
G01 X12.7787 Y6.5805
G01 X12.7579 Y6.5777
G01 X12.7370 Y6.5764
G01 X12.7160 Y6.5767
G01 X12.6951 Y6.5785
G01 X12.6744 Y6.5818
G01 X12.6540 Y6.5867
G01 X12.6340 Y6.5930
G01 X12.6145 Y6.6008
G01 X12.5956 Y6.6100
G01 X12.5775 Y6.6206
G01 X12.5612 Y6.6317
G01 X12.5430 Y6.5089
G01 X12.5683 Y6.4966
G01 X12.5864 Y6.4891
G01 X12.6048 Y6.4825
G01 X12.6236 Y6.4768
G01 X12.6426 Y6.4720
G01 X12.6618 Y6.4682
G01 X12.6812 Y6.4653
G01 X12.7006 Y6.4634
G01 X12.7202 Y6.4625
G01 X12.7398 Y6.4625
G01 X12.7593 Y6.4634
G01 X12.7788 Y6.4653
G01 X12.7982 Y6.4682
G01 X12.8174 Y6.4720
G01 X12.8364 Y6.4768
G01 X12.8575 Y6.4833
G01 X12.8318 Y6.3586
G01 X12.8177 Y6.3559
G01 X12.7928 Y6.3522
G01 X12.7803 Y6.3508
G01 X12.7552 Y6.3490
G01 X12.7300 Y6.3483
G01 X12.7048 Y6.3490
G01 X12.6797 Y6.3508
G01 X12.6672 Y6.3522
G01 X12.6547 Y6.3539
G01 X12.6299 Y6.3582
G01 X12.6176 Y6.3608
G01 X12.5932 Y6.3669
G01 X12.5691 Y6.3742
G01 X12.5572 Y6.3783
G01 X12.5337 Y6.3874
G01 X12.5197 Y6.3934
G01 X12.4917 Y6.2814
G01 X12.5188 Y6.2710
G01 X12.5333 Y6.2660
G01 X12.5628 Y6.2570
G01 X12.5776 Y6.2531
G01 X12.6077 Y6.2464
G01 X12.6380 Y6.2411
G01 X12.6685 Y6.2374
G01 X12.6839 Y6.2360
G01 X12.7146 Y6.2345
G01 X12.7300 Y6.2343
G01 X12.7608 Y6.2351
G01 X12.7761 Y6.2360
G01 X12.8045 Y6.2388
G01 X12.7687 Y6.1214
G01 X12.7482 Y6.1206
G01 X12.7300 Y6.1203
G01 X12.6936 Y6.1212
G01 X12.6574 Y6.1239
G01 X12.6393 Y6.1259
G01 X12.6033 Y6.1312
G01 X12.5676 Y6.1383
G01 X12.5324 Y6.1472
G01 X12.4976 Y6.1577
G01 X12.4804 Y6.1637
G01 X12.4558 Y6.1730
G01 X12.4174 Y6.0656
G01 X12.4420 Y6.0563
G01 X12.4618 Y6.0495
G01 X12.4818 Y6.0432
G01 X12.5020 Y6.0373
G01 X12.5222 Y6.0320
G01 X12.5427 Y6.0271
G01 X12.5632 Y6.0228
G01 X12.5838 Y6.0189
G01 X12.6045 Y6.0156
G01 X12.6253 Y6.0128
G01 X12.6462 Y6.0105
G01 X12.6671 Y6.0087
G01 X12.6880 Y6.0074
G01 X12.7284 Y6.0064
G01 X12.6827 Y5.8935
G01 X12.6587 Y5.8950
G01 X12.6350 Y5.8970
G01 X12.6114 Y5.8996
G01 X12.5878 Y5.9028
G01 X12.5643 Y5.9066
G01 X12.5410 Y5.9110
G01 X12.5177 Y5.9159
G01 X12.4945 Y5.9214
G01 X12.4715 Y5.9274
G01 X12.4487 Y5.9341
G01 X12.4260 Y5.9412
G01 X12.4035 Y5.9490
G01 X12.3690 Y5.9622
G00 Z2.0000
G00 X12.3186 Y5.8596
G01 F60.00
G01 Z-0.0500
G01 F120.00
G01 X12.3402 Y5.8509
G01 X12.3651 Y5.8416
G01 X12.3903 Y5.8330
G01 X12.4156 Y5.8250
G01 X12.4411 Y5.8176
G01 X12.4668 Y5.8108
G01 X12.4927 Y5.8046
G01 X12.5187 Y5.7991
G01 X12.5448 Y5.7943
G01 X12.5711 Y5.7901
G01 X12.5974 Y5.7865
G01 X12.6295 Y5.7831
G01 X12.5740 Y5.6746
G01 X12.5544 Y5.6773
G01 X12.5254 Y5.6820
G01 X12.4965 Y5.6873
G01 X12.4677 Y5.6934
G01 X12.4391 Y5.7002
G01 X12.4107 Y5.7077
G01 X12.3825 Y5.7159
G01 X12.3545 Y5.7247
G01 X12.3267 Y5.7343
G01 X12.2992 Y5.7445
G01 X12.2594 Y5.7608
G00 Z2.0000
G00 X12.1963 Y5.6639
G01 F60.00
G01 Z-0.0500
G01 F120.00
G01 X12.2283 Y5.6501
G01 X12.2582 Y5.6382
G01 X12.2883 Y5.6270
G01 X12.3188 Y5.6165
G01 X12.3494 Y5.6068
G01 X12.3803 Y5.5978
G01 X12.4114 Y5.5896
G01 X12.4428 Y5.5822
G01 X12.4742 Y5.5755
G01 X12.5078 Y5.5693
G00 Z2.0000
G00 X12.3394 Y5.4910
G01 F60.00
G01 Z-0.0500
G01 F120.00
G01 X12.3837 Y5.4790
G01 X12.4178 Y5.4710
G01 X12.4423 Y5.4658
G00 Z2.0000
G00 X11.8652 Y4.9894
G01 F60.00
G01 Z-0.0500
G01 F120.00
G01 X11.8667 Y4.9715
G01 X11.8701 Y4.9171
G01 X11.8708 Y4.8961
G01 X11.7585 Y4.8255
G01 X11.7581 Y4.8598
G01 X11.7562 Y4.9115
G01 X11.7530 Y4.9631
G01 X11.7486 Y5.0147
G01 X11.7429 Y5.0662
G01 X11.7357 Y5.1189
G01 X11.6221 Y5.1073
G01 X11.6297 Y5.0522
G01 X11.6351 Y5.0035
G01 X11.6393 Y4.9548
G01 X11.6423 Y4.9059
G01 X11.6441 Y4.8570
G01 X11.6447 Y4.8080
G01 X11.6439 Y4.7537
G01 X11.5273 Y4.6975
G01 X11.5285 Y4.7157
G01 X11.5302 Y4.7618
G01 X11.5307 Y4.8080
G01 X11.5302 Y4.8542
G01 X11.5285 Y4.9003
G01 X11.5256 Y4.9464
G01 X11.5217 Y4.9924
G01 X11.5158 Y5.0437
G00 Z2.0000
G00 X11.4076 Y4.9864
G01 F60.00
G01 Z-0.0500
G01 F120.00
G01 X11.4119 Y4.9380
G01 X11.4146 Y4.8947
G01 X11.4162 Y4.8514
G01 X11.4167 Y4.8080
G01 X11.4162 Y4.7646
G01 X11.4146 Y4.7213
G01 X11.4119 Y4.6780
G01 X11.4087 Y4.6404
G01 X11.2892 Y4.5977
G01 X11.2948 Y4.6460
G01 X11.2983 Y4.6864
G01 X11.3007 Y4.7269
G01 X11.3022 Y4.7674
G01 X11.3027 Y4.8080
G01 X11.3022 Y4.8486
G01 X11.3007 Y4.8891
G01 X11.2978 Y4.9345
G00 Z2.0000
G00 X11.1863 Y4.8927
G01 F60.00
G01 Z-0.0500
G01 F120.00
G01 X11.1883 Y4.8458
G01 X11.1887 Y4.8080
G01 X11.1883 Y4.7702
G01 X11.1869 Y4.7325
G01 X11.1846 Y4.6948
G01 X11.1813 Y4.6571
G01 X11.1772 Y4.6196
G01 X11.1721 Y4.5822
G01 X11.1677 Y4.5552
G01 X11.0463 Y4.5249
G01 X11.0538 Y4.5644
G01 X11.0593 Y4.5989
G01 X11.0640 Y4.6336
G01 X11.0679 Y4.6683
G01 X11.0709 Y4.7032
G01 X11.0730 Y4.7381
G01 X11.0743 Y4.7730
G01 X11.0747 Y4.8080
G01 X11.0739 Y4.8540
G01 X11.0747 Y4.8080
G01 X10.9605 Y4.8256
G01 X10.9607 Y4.8080
G01 X10.9603 Y4.7758
G01 X10.9592 Y4.7437
G01 X10.9572 Y4.7116
G01 X10.9544 Y4.6795
G01 X10.9509 Y4.6475
G01 X10.9465 Y4.6156
G01 X10.9414 Y4.5839
G01 X10.9355 Y4.5522
G01 X10.9289 Y4.5208
G01 X10.9232 Y4.4968
G01 X10.8004 Y4.4784
G01 X10.8109 Y4.5171
G01 X10.8176 Y4.5457
G01 X10.8237 Y4.5745
G01 X10.8291 Y4.6034
G01 X10.8338 Y4.6324
G01 X10.8377 Y4.6615
G01 X10.8410 Y4.6907
G01 X10.8435 Y4.7199
G01 X10.8453 Y4.7493
G01 X10.8464 Y4.7786
G01 X10.8467 Y4.8014
G00 Z2.0000
G00 X10.7324 Y4.7845
G01 F60.00
G01 Z-0.0500
G01 F120.00
G01 X10.7314 Y4.7549
G01 X10.7298 Y4.7283
G01 X10.7275 Y4.7018
G01 X10.7246 Y4.6754
G01 X10.7210 Y4.6491
G01 X10.7168 Y4.6228
G01 X10.7119 Y4.5967
G01 X10.7064 Y4.5707
G01 X10.7003 Y4.5448
G01 X10.6935 Y4.5191
G01 X10.6861 Y4.4936
G01 X10.6768 Y4.4645
G01 X10.5531 Y4.4575
G01 X10.5621 Y4.4816
G01 X10.5698 Y4.5040
G01 X10.5770 Y4.5267
G01 X10.5836 Y4.5496
G01 X10.5897 Y4.5725
G01 X10.5952 Y4.5957
G01 X10.6001 Y4.6190
G01 X10.6045 Y4.6423
G01 X10.6082 Y4.6658
G01 X10.6114 Y4.6894
G01 X10.6141 Y4.7130
G01 X10.6161 Y4.7367
G01 X10.6181 Y4.7742
G00 Z2.0000
G00 X10.5038 Y4.7686
G01 F60.00
G01 Z-0.0500
G01 F120.00
G01 X10.5024 Y4.7451
G01 X10.5006 Y4.7242
G01 X10.4983 Y4.7033
G01 X10.4955 Y4.6825
G01 X10.4921 Y4.6618
G01 X10.4883 Y4.6412
G01 X10.4840 Y4.6207
G01 X10.4791 Y4.6002
G01 X10.4738 Y4.5800
G01 X10.4679 Y4.5598
G01 X10.4616 Y4.5398
G01 X10.4548 Y4.5200
G01 X10.4474 Y4.5003
G01 X10.4396 Y4.4808
G01 X10.4295 Y4.4575
G01 X10.3050 Y4.4620
G01 X10.3196 Y4.4912
G01 X10.3272 Y4.5077
G01 X10.3411 Y4.5413
G01 X10.3533 Y4.5756
G01 X10.3639 Y4.6104
G01 X10.3727 Y4.6456
G01 X10.3798 Y4.6813
G01 X10.3827 Y4.6993
G01 X10.3872 Y4.7354
G01 X10.3898 Y4.7718
G00 Z2.0000
G00 X10.2760 Y4.7775
G01 F60.00
G01 Z-0.0500
G01 F120.00
G01 X10.2737 Y4.7465
G01 X10.2699 Y4.7160
G01 X10.2675 Y4.7008
G01 X10.2615 Y4.6706
G01 X10.2579 Y4.6556
G01 X10.2497 Y4.6260
G01 X10.2401 Y4.5968
G01 X10.2290 Y4.5681
G01 X10.2229 Y4.5539
G01 X10.2165 Y4.5399
G01 X10.2027 Y4.5124
G01 X10.1953 Y4.4989
G01 X10.1815 Y4.4759
G01 X10.0545 Y4.4928
G01 X10.0692 Y4.5126
G01 X10.0831 Y4.5335
G01 X10.0897 Y4.5443
G01 X10.1022 Y4.5662
G01 X10.1080 Y4.5773
G01 X10.1187 Y4.6001
G01 X10.1284 Y4.6234
G01 X10.1327 Y4.6352
G01 X10.1406 Y4.6591
G01 X10.1441 Y4.6712
G01 X10.1503 Y4.6956
G01 X10.1529 Y4.7079
G01 X10.1552 Y4.7203
G01 X10.1589 Y4.7452
G01 X10.1613 Y4.7703
G01 X10.1625 Y4.7941
G00 Z2.0000
G00 X9.9326 Y4.8424
G01 F60.00
G01 Z-0.0500
G01 F120.00
G01 X9.9344 Y4.8220
G01 X9.9347 Y4.8080
G01 X10.0487 Y4.8133
G01 X10.0483 Y4.7884
G01 X10.0468 Y4.7689
G01 X10.0444 Y4.7495
G01 X10.0411 Y4.7302
G01 X10.0368 Y4.7110
G01 X10.0316 Y4.6922
G01 X10.0254 Y4.6736
G01 X10.0184 Y4.6553
G01 X10.0104 Y4.6374
G01 X10.0016 Y4.6199
G01 X9.9920 Y4.6029
G01 X9.9815 Y4.5863
G01 X9.9702 Y4.5703
G01 X9.9582 Y4.5549
G01 X9.9454 Y4.5400
G01 X9.9276 Y4.5217
G01 X9.8132 Y4.5479
G01 X10.0765 Y4.4877
G01 X10.3449 Y4.4575
G01 X10.6151 Y4.4575
G01 X10.8835 Y4.4877
G01 X11.1468 Y4.5479
G01 X11.4018 Y4.6371
G01 X11.6452 Y4.7543
G01 X11.8739 Y4.8980
G01 X11.9199 Y4.9347
G01 X11.6957 Y5.1589
G01 X11.6420 Y5.1193
G01 X11.4655 Y5.0138
G01 X11.2817 Y4.9270
G01 X11.0926 Y4.8592
G01 X11.0859 Y4.8571
G01 X10.8887 Y4.8078
G01 X10.6853 Y4.7776
G01 X10.4800 Y4.7675
G01 X10.2770 Y4.7774
G01 X10.0759 Y4.8070
G01 X10.0667 Y4.8088
G01 X9.8719 Y4.8577
G01 X9.6804 Y4.9261
G01 X9.6740 Y4.9289
G01 X9.4904 Y5.0160
G01 X9.3180 Y5.1193
G01 X9.2643 Y5.1589
G01 X9.0401 Y4.9347
G01 X9.0861 Y4.8980
G01 X9.3148 Y4.7543
G01 X9.5582 Y4.6371
G01 X9.8132 Y4.5479
G01 X9.7856 Y4.5575
G01 X9.8022 Y4.5672
G01 X9.8195 Y4.5791
G01 X9.8359 Y4.5922
G01 X9.8463 Y4.6016
G01 X9.8609 Y4.6166
G01 X9.8744 Y4.6327
G01 X9.8867 Y4.6497
G01 X9.8942 Y4.6615
G01 X9.9043 Y4.6799
G01 X9.9130 Y4.6989
G01 X9.9203 Y4.7186
G01 X9.9244 Y4.7320
G01 X9.9293 Y4.7524
G01 X9.9326 Y4.7731
G01 X9.9344 Y4.7940
G01 X9.9347 Y4.8080
G01 X9.7067 Y4.8080
G01 X9.7063 Y4.8150
G01 X9.7050 Y4.8218
G01 X9.7029 Y4.8285
G01 X9.7000 Y4.8349
G01 X9.6963 Y4.8408
G01 X9.6920 Y4.8463
G01 X9.6859 Y4.8521
G01 X9.6802 Y4.8562
G01 X9.6741 Y4.8595
G01 X9.6676 Y4.8621
G01 X9.6609 Y4.8639
G01 X9.6539 Y4.8648
G01 X9.6469 Y4.8649
G01 X9.6400 Y4.8642
G01 X9.6332 Y4.8625
G01 X9.6266 Y4.8601
G01 X9.6181 Y4.8554
G01 X9.6104 Y4.8493
G01 X9.6039 Y4.8420
G01 X9.6008 Y4.8373
G01 X9.5982 Y4.8324
G01 X9.5948 Y4.8232
G01 X9.5930 Y4.8136
G01 X9.5927 Y4.8080
G01 X9.5930 Y4.8024
G01 X9.5948 Y4.7928
G01 X9.5982 Y4.7836
G01 X9.6031 Y4.7752
G01 X9.6066 Y4.7708
G01 X9.6104 Y4.7667
G01 X9.6181 Y4.7606
G01 X9.6266 Y4.7559
G01 X9.6359 Y4.7527
G01 X9.6414 Y4.7516
G01 X9.6469 Y4.7511
G01 X9.6567 Y4.7514
G01 X9.6649 Y4.7531
G01 X9.6728 Y4.7559
G01 X9.6814 Y4.7606
G01 X9.6880 Y4.7658
G01 X9.6920 Y4.7697
G01 X9.6955 Y4.7740
G01 X9.6993 Y4.7799
G01 X9.7018 Y4.7849
G01 X9.7039 Y4.7901
G01 X9.7053 Y4.7955
G01 X9.7065 Y4.8024
G01 X9.7067 Y4.8080
G01 X9.8039 Y4.8819
G01 X9.8093 Y4.8695
G01 X9.8145 Y4.8536
G01 X9.8182 Y4.8372
G01 X9.8199 Y4.8248
G01 X9.8207 Y4.8122
G01 X9.8207 Y4.8080
G01 X9.8207 Y4.8080
G01 X9.8207 Y4.8080
G01 X9.8207 Y4.8038
G01 X9.8203 Y4.7954
G01 X9.8189 Y4.7829
G01 X9.8156 Y4.7664
G01 X9.8121 Y4.7544
G01 X9.8093 Y4.7465
G01 X9.8025 Y4.7311
G01 X9.7942 Y4.7165
G01 X9.7871 Y4.7061
G01 X9.7819 Y4.6995
G01 X9.7764 Y4.6932
G01 X9.7676 Y4.6842
G01 X9.7549 Y4.6732
G01 X9.7447 Y4.6658
G01 X9.7376 Y4.6613
G01 X9.7228 Y4.6534
G01 X9.7073 Y4.6470
G01 X9.6994 Y4.6444
G01 X9.6872 Y4.6412
G01 X9.6707 Y4.6383
G01 X9.6581 Y4.6372
G01 X9.6497 Y4.6370
G01 X9.6413 Y4.6372
G01 X9.6288 Y4.6383
G01 X9.6123 Y4.6412
G01 X9.6041 Y4.6432
G01 X9.5921 Y4.6470
G01 X9.5766 Y4.6534
G01 X9.5654 Y4.6592
G01 X9.5547 Y4.6658
G01 X9.5445 Y4.6732
G01 X9.5349 Y4.6813
G01 X9.5259 Y4.6901
G01 X9.5175 Y4.6995
G01 X9.5099 Y4.7095
G01 X9.5031 Y4.7201
G01 X9.4970 Y4.7311
G01 X9.4917 Y4.7426
G01 X9.4874 Y4.7544
G01 X9.4839 Y4.7664
G01 X9.4812 Y4.7788
G01 X9.4796 Y4.7912
G01 X9.4788 Y4.8038
G01 X9.4789 Y4.8164
G01 X9.4800 Y4.8289
G01 X9.4820 Y4.8414
G01 X9.4849 Y4.8536
G01 X9.4887 Y4.8656
G01 X9.4934 Y4.8773
G01 X9.4989 Y4.8886
G01 X9.5053 Y4.8995
G01 X9.5124 Y4.9099
G01 X9.5202 Y4.9197
G01 X9.5288 Y4.9289
G01 X9.5380 Y4.9375
G01 X9.5479 Y4.9453
G01 X9.5582 Y4.9525
G01 X9.5691 Y4.9588
G01 X9.5804 Y4.9643
G01 X9.5905 Y4.9684
G00 Z2.0000
G00 X9.4693 Y5.0286
G01 F60.00
G01 Z-0.0500
G01 F120.00
G01 X9.4532 Y5.0144
G01 X9.4386 Y4.9994
G01 X9.4251 Y4.9833
G01 X9.4128 Y4.9663
G01 X9.4018 Y4.9485
G01 X9.3921 Y4.9298
G01 X9.3838 Y4.9106
G01 X9.3770 Y4.8907
G01 X9.3717 Y4.8704
G01 X9.3678 Y4.8498
G01 X9.3655 Y4.8290
G01 X9.3647 Y4.8080
G01 X9.3655 Y4.7870
G01 X9.3678 Y4.7662
G01 X9.3717 Y4.7456
G01 X9.3774 Y4.7242
G01 X9.2510 Y4.7944
G01 X9.2509 Y4.7982
G01 X9.2509 Y4.8178
G01 X9.2518 Y4.8373
G01 X9.2537 Y4.8568
G01 X9.2566 Y4.8762
G01 X9.2604 Y4.8954
G01 X9.2652 Y4.9144
G01 X9.2709 Y4.9332
G01 X9.2775 Y4.9516
G01 X9.2850 Y4.9697
G01 X9.2933 Y4.9874
G01 X9.3026 Y5.0047
G01 X9.3126 Y5.0215
G01 X9.3235 Y5.0377
G01 X9.3352 Y5.0535
G01 X9.3476 Y5.0686
G01 X9.3672 Y5.0898
G00 Z2.0000
G00 X9.2709 Y5.1539
G01 F60.00
G01 Z-0.0500
G01 F120.00
G01 X9.2613 Y5.1431
G01 X9.2453 Y5.1236
G01 X9.2303 Y5.1034
G01 X9.2232 Y5.0930
G01 X9.2097 Y5.0717
G01 X9.1973 Y5.0498
G01 X9.1915 Y5.0386
G01 X9.1807 Y5.0159
G01 X9.1758 Y5.0043
G01 X9.1667 Y4.9808
G01 X9.1588 Y4.9569
G01 X9.1553 Y4.9448
G01 X9.1492 Y4.9204
G01 X9.1466 Y4.9081
G01 X9.1423 Y4.8833
G01 X9.1399 Y4.8642
G00 Z2.0000
G00 X12.4606 Y10.7870
G01 F60.00
G01 Z-0.0500
G01 F120.00
G01 X12.4818 Y11.0323
G01 X12.5093 Y11.2804
G00 Z2.0000
G00 X12.6044 Y11.1036
G01 F60.00
G01 Z-0.0500
G01 F120.00
G01 X12.5952 Y11.0212
G01 X12.5709 Y10.7382
G01 X12.5675 Y10.6837
G01 X12.6768 Y10.6042
G01 X12.6845 Y10.7298
G01 X12.7061 Y10.9807
G00 Z2.0000
G00 X12.8128 Y10.8904
G01 F60.00
G01 Z-0.0500
G01 F120.00
G01 X12.7982 Y10.7214
G01 X12.7872 Y10.5412
G01 X12.8981 Y10.4885
G01 X12.9119 Y10.7131
G01 X12.9213 Y10.8216
G00 Z2.0000
G00 X13.0315 Y10.7733
G01 F60.00
G01 Z-0.0500
G01 F120.00
G01 X13.0256 Y10.7047
G01 X13.0101 Y10.4522
G01 X13.1227 Y10.4264
G01 X13.1393 Y10.6963
G01 X13.1431 Y10.7402
G00 Z2.0000
G00 X13.2559 Y10.7215
G01 F60.00
G01 Z-0.0500
G01 F120.00
G01 X13.2530 Y10.6879
G01 X13.2366 Y10.4212
G01 X13.2361 Y10.4084
G01 X13.3502 Y10.4070
G01 X13.3667 Y10.6795
G01 X13.3701 Y10.7189
G00 Z2.0000
G00 X13.4855 Y10.7303
G01 F60.00
G01 Z-0.0500
G01 F120.00
G01 X13.4804 Y10.6711
G01 X13.4644 Y10.4117
G01 X13.5798 Y10.4299
G01 X13.5941 Y10.6627
G01 X13.6022 Y10.7568
G00 Z2.0000
G00 X13.7206 Y10.8035
G01 F60.00
G01 Z-0.0500
G01 F120.00
G01 X13.7078 Y10.6543
G01 X13.6949 Y10.4456
G00 Z2.0000
G00 X13.8072 Y10.4144
G01 F60.00
G01 Z-0.0500
G01 F120.00
G01 X13.8215 Y10.6460
G01 X13.8380 Y10.8386
G00 Z2.0000
G00 X13.8192 Y10.8574
G01 F60.00
G01 Z-0.0500
G01 F120.00
G01 X14.3031 Y10.3736
G01 X14.3137 Y10.3638
G01 X14.3209 Y10.3579
G01 X14.3346 Y10.3481
G01 X14.3491 Y10.3395
G01 X14.3642 Y10.3322
G01 X14.3800 Y10.3263
G01 X14.3889 Y10.3236
G01 X14.4029 Y10.3202
G01 X14.4196 Y10.3176
G01 X14.4410 Y10.3165
G01 X18.2615 Y10.3165
G01 X18.2806 Y10.3174
G01 X18.3018 Y10.3207
G01 X18.3181 Y10.3248
G01 X18.3318 Y10.3296
G01 X18.3383 Y10.3322
G01 X18.3534 Y10.3395
G01 X18.3679 Y10.3481
G01 X18.3737 Y10.3520
G01 X18.3852 Y10.3607
G01 X18.3978 Y10.3720
G01 X18.9941 Y10.9682
G01 X19.0013 Y10.9564
G01 X19.0142 Y10.9389
G01 X19.0318 Y10.9193
G01 X19.0460 Y10.9062
G01 X19.0532 Y10.9002
G01 X19.0689 Y10.8888
G01 X19.0855 Y10.8787
G01 X19.0937 Y10.8743
G01 X19.1112 Y10.8661
G01 X19.1361 Y10.8574
G01 X19.1549 Y10.8527
G01 X19.1618 Y10.8514
G01 X19.1810 Y10.8487
G01 X19.2003 Y10.8476
G01 X19.5050 Y10.8475
G01 X19.5290 Y10.8487
G01 X19.5505 Y10.8518
G01 X19.5739 Y10.8574
G01 X19.5944 Y10.8645
G01 X19.6009 Y10.8671
G01 X19.6163 Y10.8743
G01 X19.6245 Y10.8787
G01 X19.6430 Y10.8901
G01 X19.6622 Y10.9046
G01 X19.6782 Y10.9193
G01 X19.6958 Y10.9389
G01 X19.7087 Y10.9564
G01 X19.7199 Y10.9750
G01 X19.7295 Y10.9945
G01 X19.7330 Y11.0031
G01 X19.7395 Y11.0214
G01 X19.7453 Y11.0447
G01 X19.7488 Y11.0685
G01 X19.7499 Y11.0878
G01 X19.7500 Y12.1175
G01 X19.7488 Y12.1415
G01 X19.7448 Y12.1676
G01 X19.7395 Y12.1886
G01 X19.7330 Y12.2069
G01 X19.7295 Y12.2155
G01 X19.7211 Y12.2330
G01 X19.7087 Y12.2536
G01 X19.6973 Y12.2693
G01 X19.6913 Y12.2765
G01 X19.6782 Y12.2907
G01 X19.6604 Y12.3069
G01 X19.6449 Y12.3185
G01 X19.6372 Y12.3237
G01 X19.6205 Y12.3336
G01 X19.5988 Y12.3439
G01 X19.5805 Y12.3505
G01 X19.5716 Y12.3532
G01 X19.5505 Y12.3582
G01 X19.5290 Y12.3613
G01 X19.5050 Y12.3625
G01 X19.2050 Y12.3625
G01 X19.1787 Y12.3611
G01 X19.1572 Y12.3578
G01 X19.1339 Y12.3520
G01 X19.1112 Y12.3439
G01 X19.0937 Y12.3357
G01 X19.0855 Y12.3313
G01 X19.0670 Y12.3199
G01 X19.0496 Y12.3069
G01 X19.0334 Y12.2924
G01 X19.0171 Y12.2747
G01 X19.0040 Y12.2574
G01 X18.9988 Y12.2497
G01 X18.9901 Y12.2350
G01 X18.9868 Y12.2288
G01 X18.9786 Y12.2113
G01 X18.9705 Y12.1886
G01 X18.9647 Y12.1653
G01 X18.9612 Y12.1415
G01 X18.9600 Y12.1175
G01 X18.9600 Y11.4858
G01 X18.1807 Y10.7065
G01 X14.5218 Y10.7065
G01 X14.0951 Y11.1333
G01 X14.1293 Y11.1906
G01 X14.1669 Y11.2700
G01 X14.1965 Y11.3527
G01 X14.2168 Y11.4333
G01 X14.2186 Y11.4425
G01 X14.2301 Y11.5201
G01 X14.2310 Y11.5294
G01 X14.2350 Y11.6125
G01 X14.2307 Y11.7002
G01 X14.2178 Y11.7871
G01 X14.1965 Y11.8723
G01 X14.1669 Y11.9550
G01 X14.1314 Y12.0302
G01 X14.1270 Y12.0385
G01 X14.0867 Y12.1058
G01 X14.0815 Y12.1135
G01 X14.0318 Y12.1803
G01 X13.9729 Y12.2454
G01 X13.9078 Y12.3043
G01 X13.8372 Y12.3567
G01 X13.7619 Y12.4018
G01 X13.6868 Y12.4375
G01 X13.6782 Y12.4411
G01 X13.6042 Y12.4675
G01 X13.5953 Y12.4702
G01 X13.5146 Y12.4903
G01 X13.4277 Y12.5032
G01 X13.3400 Y12.5075
G01 X13.2569 Y12.5035
G01 X13.2476 Y12.5026
G01 X13.1700 Y12.4911
G01 X13.1608 Y12.4893
G01 X13.0802 Y12.4690
G01 X12.9975 Y12.4394
G01 X12.9181 Y12.4018
G01 X12.8447 Y12.3579
G01 X12.7722 Y12.3043
G01 X12.7071 Y12.2454
G01 X12.6482 Y12.1803
G01 X12.5958 Y12.1097
G01 X12.5507 Y12.0344
G01 X12.5131 Y11.9550
G01 X12.4835 Y11.8723
G01 X12.4622 Y11.7871
G01 X12.4493 Y11.7002
G01 X12.4450 Y11.6125
G01 X12.4493 Y11.5248
G01 X12.4622 Y11.4379
G01 X12.4835 Y11.3527
G01 X12.5131 Y11.2700
G01 X12.5507 Y11.1906
G01 X12.5946 Y11.1172
G01 X12.6482 Y11.0447
G01 X12.7071 Y10.9796
G01 X12.7722 Y10.9207
G01 X12.8428 Y10.8683
G01 X12.9181 Y10.8232
G01 X12.9975 Y10.7856
G01 X13.0802 Y10.7560
G01 X13.1631 Y10.7352
G01 X13.2523 Y10.7218
G01 X13.3400 Y10.7175
G01 X13.4277 Y10.7218
G01 X13.5146 Y10.7347
G01 X13.5998 Y10.7560
G01 X13.6825 Y10.7856
G01 X13.7619 Y10.8232
G01 X13.8192 Y10.8574
G00 Z2.0000
G00 X13.9434 Y10.7333
G01 F60.00
G01 Z-0.0500
G01 F120.00
G01 X13.9351 Y10.6376
G01 X13.9198 Y10.3876
G01 X13.9173 Y10.3203
G00 Z2.0000
G00 X14.0273 Y10.2103
G01 F60.00
G01 Z-0.0500
G01 F120.00
G01 X14.0337 Y10.3820
G01 X14.0488 Y10.6279
G01 X14.1564 Y10.5203
G01 X14.1475 Y10.3764
G01 X14.1385 Y10.1318
G01 X14.1382 Y10.1026
G01 X14.2514 Y10.0390
G01 X14.2525 Y10.1290
G01 X14.2614 Y10.3709
G01 X14.2640 Y10.4127
G00 Z2.0000
G00 X14.3739 Y10.3285
G01 F60.00
G01 Z-0.0500
G01 F120.00
G01 X14.3664 Y10.1262
G01 X14.3650 Y10.0085
G01 X14.4790 Y10.0060
G01 X14.4804 Y10.1234
G01 X14.4875 Y10.3165
G00 Z2.0000
G00 X14.6016 Y10.3165
G01 F60.00
G01 Z-0.0500
G01 F120.00
G01 X14.5944 Y10.1206
G01 X14.5930 Y10.0060
G00 Z2.0000
G00 X14.7070 Y10.0060
G01 F60.00
G01 Z-0.0500
G01 F120.00
G01 X14.7083 Y10.1178
G01 X14.7157 Y10.3165
G01 X14.8297 Y10.3165
G01 X14.8223 Y10.1150
G01 X14.8210 Y10.0060
G00 Z2.0000
G00 X14.9350 Y10.0060
G01 F60.00
G01 Z-0.0500
G01 F120.00
G01 X14.9363 Y10.1122
G01 X14.9438 Y10.3165
G00 Z2.0000
G00 X15.0579 Y10.3165
G01 F60.00
G01 Z-0.0500
G01 F120.00
G01 X15.0502 Y10.1094
G01 X15.0490 Y10.0060
G01 X15.1630 Y10.0060
G01 X15.1642 Y10.1066
G01 X15.1719 Y10.3165
G00 Z2.0000
G00 X15.2860 Y10.3165
G01 F60.00
G01 Z-0.0500
G01 F120.00
G01 X15.2782 Y10.1038
G01 X15.2770 Y10.0060
G00 Z2.0000
G00 X15.3910 Y10.0060
G01 F60.00
G01 Z-0.0500
G01 F120.00
G01 X15.3921 Y10.1010
G01 X15.4001 Y10.3165
G00 Z2.0000
G00 X15.5143 Y10.3165
G01 F60.00
G01 Z-0.0500
G01 F120.00
G01 X15.5061 Y10.0982
G01 X15.5050 Y10.0060
G00 Z2.0000
G00 X15.6190 Y10.0060
G01 F60.00
G01 Z-0.0500
G01 F120.00
G01 X15.6201 Y10.0954
G01 X15.6277 Y10.3037
G01 X15.6285 Y10.3165
G00 Z2.0000
G00 X15.7427 Y10.3165
G01 F60.00
G01 Z-0.0500
G01 F120.00
G01 X15.7416 Y10.2981
G01 X15.7340 Y10.0926
G01 X15.7330 Y10.0060
G00 Z2.0000
G00 X15.8470 Y10.0060
G01 F60.00
G01 Z-0.0500
G01 F120.00
G01 X15.8480 Y10.0898
G01 X15.8555 Y10.2925
G01 X15.8569 Y10.3165
G00 Z2.0000
G00 X15.9711 Y10.3165
G01 F60.00
G01 Z-0.0500
G01 F120.00
G01 X15.9693 Y10.2869
G01 X15.9620 Y10.0870
G01 X15.9610 Y10.0060
G00 Z2.0000
G00 X16.0750 Y10.0060
G01 F60.00
G01 Z-0.0500
G01 F120.00
G01 X16.0759 Y10.0842
G01 X16.0832 Y10.2814
G01 X16.0853 Y10.3165
G01 X16.1995 Y10.3165
G01 X16.1970 Y10.2758
G01 X16.1899 Y10.0814
G01 X16.1890 Y10.0060
G01 X16.3030 Y10.0060
G01 X16.3039 Y10.0786
G01 X16.3109 Y10.2702
G01 X16.3138 Y10.3165
G00 Z2.0000
G00 X16.4280 Y10.3165
G01 F60.00
G01 Z-0.0500
G01 F120.00
G01 X16.4248 Y10.2646
G01 X16.4178 Y10.0758
G01 X16.4170 Y10.0060
G00 Z2.0000
G00 X16.5310 Y10.0060
G01 F60.00
G01 Z-0.0500
G01 F120.00
G01 X16.5318 Y10.0730
G01 X16.5386 Y10.2590
G01 X16.5422 Y10.3165
G00 Z2.0000
G00 X16.6564 Y10.3165
G01 F60.00
G01 Z-0.0500
G01 F120.00
G01 X16.6525 Y10.2534
G01 X16.6458 Y10.0702
G01 X16.6450 Y10.0060
G00 Z2.0000
G00 X16.7590 Y10.0060
G01 F60.00
G01 Z-0.0500
G01 F120.00
G01 X16.7597 Y10.0674
G01 X16.7664 Y10.2478
G01 X16.7706 Y10.3165
G00 Z2.0000
G00 X16.8848 Y10.3165
G01 F60.00
G01 Z-0.0500
G01 F120.00
G01 X16.8802 Y10.2422
G01 X16.8737 Y10.0647
G01 X16.8730 Y10.0060
G01 X16.9870 Y10.0060
G01 X16.9876 Y10.0619
G01 X16.9941 Y10.2366
G01 X16.9990 Y10.3165
G00 Z2.0000
G00 X17.1132 Y10.3165
G01 F60.00
G01 Z-0.0500
G01 F120.00
G01 X17.1079 Y10.2310
G01 X17.1016 Y10.0591
G01 X17.1010 Y10.0060
G00 Z2.0000
G00 X17.2150 Y10.0060
G01 F60.00
G01 Z-0.0500
G01 F120.00
G01 X17.2156 Y10.0563
G01 X17.2218 Y10.2254
G01 X17.2274 Y10.3165
G00 Z2.0000
G00 X17.3416 Y10.3165
G01 F60.00
G01 Z-0.0500
G01 F120.00
G01 X17.3357 Y10.2198
G01 X17.3295 Y10.0535
G01 X17.3290 Y10.0060
G00 Z2.0000
G00 X17.4430 Y10.0060
G01 F60.00
G01 Z-0.0500
G01 F120.00
G01 X17.4435 Y10.0507
G01 X17.4495 Y10.2142
G01 X17.4558 Y10.3165
G00 Z2.0000
G00 X17.5700 Y10.3165
G01 F60.00
G01 Z-0.0500
G01 F120.00
G01 X17.5634 Y10.2086
G01 X17.5575 Y10.0479
G01 X17.5570 Y10.0060
G00 Z2.0000
G00 X17.6710 Y10.0060
G01 F60.00
G01 Z-0.0500
G01 F120.00
G01 X17.6714 Y10.0451
G01 X17.6773 Y10.2030
G01 X17.6842 Y10.3165
G00 Z2.0000
G00 X17.7984 Y10.3165
G01 F60.00
G01 Z-0.0500
G01 F120.00
G01 X17.7911 Y10.1974
G01 X17.7854 Y10.0423
G01 X17.7850 Y10.0060
G00 Z2.0000
G00 X17.8990 Y10.0060
G01 F60.00
G01 Z-0.0500
G01 F120.00
G01 X17.8994 Y10.0395
G01 X17.9050 Y10.1919
G01 X17.9126 Y10.3165
G01 X18.0268 Y10.3165
G01 X18.0189 Y10.1863
G01 X18.0133 Y10.0367
G01 X18.0130 Y10.0060
G01 X18.1270 Y10.0060
G01 X18.1273 Y10.0339
G01 X18.1327 Y10.1807
G01 X18.1411 Y10.3165
G00 Z2.0000
G00 X18.2553 Y10.3165
G01 F60.00
G01 Z-0.0500
G01 F120.00
G01 X18.2466 Y10.1751
G01 X18.2413 Y10.0311
G01 X18.2410 Y10.0060
G01 X18.3551 Y10.0132
G01 X18.3552 Y10.0283
G01 X18.3604 Y10.1695
G01 X18.3691 Y10.3105
G01 X18.3726 Y10.3512
G00 Z2.0000
G00 X18.4983 Y10.4724
G01 F60.00
G01 Z-0.0500
G01 F120.00
G01 X18.4947 Y10.4401
G01 X18.4828 Y10.3021
G01 X18.4743 Y10.1639
G01 X18.4700 Y10.0482
G01 X18.5868 Y10.1219
G01 X18.5882 Y10.1583
G01 X18.5965 Y10.2937
G01 X18.6081 Y10.4289
G01 X18.6231 Y10.5638
G01 X18.6283 Y10.6025
G00 Z2.0000
G00 X18.7631 Y10.7372
G01 F60.00
G01 Z-0.0500
G01 F120.00
G01 X18.7541 Y10.6815
G01 X18.7362 Y10.5499
G01 X18.7216 Y10.4178
G01 X18.7102 Y10.2853
G01 X18.7076 Y10.2427
G00 Z2.0000
G00 X18.8316 Y10.3667
G01 F60.00
G01 Z-0.0500
G01 F120.00
G01 X18.8350 Y10.4066
G01 X18.8494 Y10.5359
G01 X18.8669 Y10.6648
G01 X18.8875 Y10.7933
G01 X18.9032 Y10.8774
G01 X19.0283 Y10.9230
G01 X19.0232 Y10.8989
G01 X18.9999 Y10.7738
G01 X18.9796 Y10.6481
G01 X18.9625 Y10.5219
G01 X18.9591 Y10.4907
G00 Z2.0000
G00 X19.0795 Y10.5363
G01 F60.00
G01 Z-0.0500
G01 F120.00
G01 X19.0924 Y10.6314
G01 X19.1122 Y10.7543
G01 X19.1316 Y10.8588
G00 Z2.0000
G00 X19.2455 Y10.8475
G01 F60.00
G01 Z-0.0500
G01 F120.00
G01 X19.2245 Y10.7348
G01 X19.2052 Y10.6146
G01 X19.1946 Y10.5370
G01 X19.3097 Y10.5370
G01 X19.3179 Y10.5979
G01 X19.3368 Y10.7153
G01 X19.3586 Y10.8322
G01 X19.3618 Y10.8475
G01 X19.4784 Y10.8475
G01 X19.4704 Y10.8100
G01 X19.4492 Y10.6958
G01 X19.4307 Y10.5812
G01 X19.4247 Y10.5370
G01 X19.5397 Y10.5370
G01 X19.5435 Y10.5645
G01 X19.5615 Y10.6763
G01 X19.5822 Y10.7877
G01 X19.5988 Y10.8662
G01 X19.6580 Y10.5585
G01 X19.6738 Y10.6568
G01 X19.6940 Y10.7655
G01 X19.7169 Y10.8736
G01 X19.7425 Y10.9811
G01 X19.7706 Y11.0880
G01 X19.8014 Y11.1941
G01 X19.8348 Y11.2995
G01 X19.8707 Y11.4040
G01 X19.9100 Y11.5095
G01 X19.7500 Y11.4035
G01 X19.7634 Y11.4424
G01 X19.8029 Y11.5486
G01 X19.8450 Y11.6538
G01 X19.8896 Y11.7580
G01 X19.9100 Y11.8025
G01 X19.7500 Y11.7217
G01 X19.7854 Y11.8042
G01 X19.8337 Y11.9098
G01 X19.8847 Y12.0141
G01 X19.9100 Y12.0629
G01 X19.7500 Y11.9981
G01 X19.7828 Y12.0654
G01 X19.8376 Y12.1709
G01 X19.8949 Y12.2751
G01 X19.9548 Y12.3778
G01 X20.0172 Y12.4791
G01 X20.0820 Y12.5787
G01 X20.1493 Y12.6768
G01 X20.2190 Y12.7732
G01 X20.2910 Y12.8678
G01 X20.3653 Y12.9606
G01 X20.4418 Y13.0516
G01 X20.5102 Y13.1289
G00 Z2.0000
G00 X20.3525 Y13.1225
G01 F60.00
G01 Z-0.0500
G01 F120.00
G01 X20.2771 Y13.0330
G01 X20.2011 Y12.9379
G01 X20.1274 Y12.8411
G01 X20.0561 Y12.7424
G01 X19.9872 Y12.6421
G01 X19.9209 Y12.5400
G01 X19.8570 Y12.4364
G01 X19.7957 Y12.3313
G01 X19.7371 Y12.2247
G01 X19.7308 Y12.2126
G00 Z2.0000
G00 X19.6546 Y12.3113
G01 F60.00
G01 Z-0.0500
G01 F120.00
G01 X19.6966 Y12.3875
G01 X19.7592 Y12.4950
G01 X19.8246 Y12.6010
G01 X19.8925 Y12.7054
G01 X19.9629 Y12.8081
G01 X20.0358 Y12.9090
G01 X20.1112 Y13.0081
G01 X20.1890 Y13.1053
G01 X20.2035 Y13.1225
G00 Z2.0000
G00 X20.0693 Y13.1381
G01 F60.00
G01 Z-0.0500
G01 F120.00
G01 X20.0214 Y13.0782
G01 X19.9443 Y12.9769
G01 X19.8697 Y12.8737
G01 X19.7977 Y12.7687
G01 X19.7282 Y12.6620
G01 X19.6615 Y12.5536
G01 X19.5974 Y12.4437
G01 X19.5504 Y12.3582
G00 Z2.0000
G00 X19.4233 Y12.3625
G01 F60.00
G01 Z-0.0500
G01 F120.00
G01 X19.4354 Y12.3859
G01 X19.4982 Y12.4998
G01 X19.5637 Y12.6123
G01 X19.6319 Y12.7230
G01 X19.7029 Y12.8321
G01 X19.7765 Y12.9394
G01 X19.8527 Y13.0448
G01 X19.9315 Y13.1483
G01 X19.9745 Y13.2021
G00 Z2.0000
G00 X19.9165 Y13.3121
G01 F60.00
G01 Z-0.0500
G01 F120.00
G01 X19.8416 Y13.2185
G01 X19.7611 Y13.1127
G01 X19.6833 Y13.0050
G01 X19.6081 Y12.8954
G01 X19.5356 Y12.7840
G01 X19.4659 Y12.6709
G01 X19.3990 Y12.5560
G01 X19.3349 Y12.4396
G01 X19.2949 Y12.3625
G00 Z2.0000
G00 X19.1651 Y12.3591
G01 F60.00
G01 Z-0.0500
G01 F120.00
G01 X19.1719 Y12.3729
G01 X19.2344 Y12.4933
G01 X19.2998 Y12.6122
G01 X19.3681 Y12.7295
G01 X19.4393 Y12.8450
G01 X19.5133 Y12.9587
G01 X19.5901 Y13.0706
G01 X19.6696 Y13.1806
G01 X19.6881 Y13.2049
G00 Z2.0000
G00 X19.7112 Y13.2354
G01 F60.00
G01 Z-0.0500
G01 F120.00
G01 X19.7517 Y13.2886
G01 X19.8365 Y13.3946
G01 X19.9100 Y13.4819
G01 X19.7500 Y13.4688
G01 X19.8376 Y13.5729
G01 X19.9100 Y13.6548
G01 X19.7500 Y13.6458
G01 X19.8448 Y13.7532
G01 X19.9100 Y13.8233
G01 X19.7500 Y13.8180
G01 X19.7604 Y13.8297
G01 X19.8584 Y13.9353
G01 X19.9100 Y13.9881
G01 X19.7500 Y13.9860
G01 X19.7759 Y14.0139
G01 X19.8785 Y14.1190
G01 X19.9100 Y14.1498
G00 Z2.0000
G00 X19.9100 Y14.3088
G01 F60.00
G01 Z-0.0500
G01 F120.00
G01 X19.7979 Y14.1996
G01 X19.7500 Y14.1506
G00 Z2.0000
G00 X19.7500 Y14.3122
G01 F60.00
G01 Z-0.0500
G01 F120.00
G01 X19.8264 Y14.3867
G01 X19.9260 Y14.4793
G01 X19.7400 Y14.4617
G01 X19.8616 Y14.5750
G01 X19.9779 Y14.6779
G01 X20.0967 Y14.7778
G01 X20.2179 Y14.8749
G01 X20.3415 Y14.9689
G01 X20.4674 Y15.0599
G01 X20.5954 Y15.1477
G01 X20.7256 Y15.2324
G01 X20.8578 Y15.3138
G01 X20.9919 Y15.3920
G01 X21.1280 Y15.4669
G01 X21.2658 Y15.5384
G01 X21.3973 Y15.6026
G00 Z2.0000
G00 X21.6225 Y15.8278
G01 F60.00
G01 Z-0.0500
G01 F120.00
G01 X21.5003 Y15.7754
G01 X21.3566 Y15.7096
G01 X21.2146 Y15.6403
G01 X21.0742 Y15.5675
G01 X20.9357 Y15.4912
G01 X20.7992 Y15.4116
G01 X20.7161 Y15.3604
G01 X20.8100 Y15.0154
G01 X20.7221 Y14.9581
G01 X20.5986 Y14.8734
G01 X20.4773 Y14.7858
G01 X20.3582 Y14.6951
G01 X20.2862 Y14.6375
G00 Z2.0000
G00 X20.4322 Y14.6375
G01 F60.00
G01 Z-0.0500
G01 F120.00
G01 X20.1503 Y14.6374
G01 X20.1310 Y14.6363
G01 X20.1072 Y14.6328
G01 X20.0839 Y14.6270
G01 X20.0634 Y14.6197
G01 X20.0395 Y14.6086
G01 X20.0228 Y14.5987
G01 X20.0151 Y14.5935
G01 X19.9996 Y14.5819
G01 X19.9851 Y14.5690
G01 X19.9785 Y14.5624
G01 X19.9656 Y14.5479
G01 X19.9513 Y14.5286
G01 X19.9412 Y14.5120
G01 X19.9368 Y14.5038
G01 X19.9286 Y14.4863
G01 X19.9220 Y14.4680
G01 X19.9199 Y14.4614
G01 X19.9152 Y14.4426
G01 X19.9112 Y14.4165
G01 X19.9100 Y14.3925
G01 X19.9100 Y13.3675
G01 X19.9108 Y13.3481
G01 X19.9118 Y13.3389
G01 X19.9147 Y13.3197
G01 X19.9205 Y13.2964
G01 X19.9286 Y13.2737
G01 X19.9368 Y13.2562
G01 X19.9412 Y13.2480
G01 X19.9526 Y13.2295
G01 X19.9656 Y13.2121
G01 X19.9785 Y13.1976
G01 X19.9851 Y13.1910
G01 X20.0014 Y13.1767
G01 X20.0189 Y13.1638
G01 X20.0375 Y13.1526
G01 X20.0570 Y13.1430
G01 X20.0656 Y13.1395
G01 X20.0839 Y13.1330
G01 X20.1049 Y13.1277
G01 X20.1310 Y13.1237
G01 X20.1550 Y13.1225
G01 X20.4573 Y13.1225
G01 X20.4790 Y13.1237
G01 X20.5005 Y13.1268
G01 X20.5261 Y13.1330
G01 X20.5466 Y13.1403
G01 X20.5684 Y13.1504
G01 X20.5872 Y13.1613
G01 X20.5930 Y13.1651
G01 X20.6086 Y13.1767
G01 X20.6249 Y13.1910
G01 X20.6315 Y13.1976
G01 X20.6429 Y13.2103
G01 X20.6473 Y13.2157
G01 X20.6587 Y13.2314
G01 X20.6711 Y13.2520
G01 X20.6814 Y13.2737
G01 X20.6880 Y13.2920
G01 X20.6907 Y13.3009
G01 X20.6957 Y13.3220
G01 X20.6988 Y13.3435
G01 X20.6999 Y13.3628
G01 X20.7000 Y14.3532
G01 X21.9938 Y15.6475
G01 X22.6019 Y15.6475
G01 X22.5973 Y15.6367
G01 X22.5810 Y15.5907
G01 X22.5680 Y15.5388
G01 X22.5601 Y15.4859
G01 X22.5575 Y15.4325
G01 X22.5601 Y15.3791
G01 X22.5680 Y15.3262
G01 X22.5810 Y15.2743
G01 X22.5990 Y15.2239
G01 X22.6219 Y15.1756
G01 X22.6493 Y15.1297
G01 X22.6812 Y15.0868
G01 X22.7171 Y15.0471
G01 X22.7568 Y15.0112
G01 X22.7997 Y14.9793
G01 X22.8456 Y14.9519
G01 X22.8939 Y14.9290
G01 X22.9443 Y14.9110
G01 X22.9916 Y14.8990
G01 X23.0008 Y14.8972
G01 X23.0491 Y14.8901
G01 X23.0978 Y14.8876
G01 X23.1072 Y14.8876
G01 X23.1559 Y14.8901
G01 X23.2088 Y14.8980
G01 X23.2607 Y14.9110
G01 X23.3067 Y14.9273
G01 X23.3153 Y14.9309
G01 X23.3594 Y14.9519
G01 X23.4013 Y14.9769
G01 X23.4091 Y14.9820
G01 X23.4482 Y15.0112
G01 X23.4879 Y15.0471
G01 X23.5207 Y15.0832
G01 X23.5267 Y15.0904
G01 X23.5557 Y15.1297
G01 X23.5808 Y15.1715
G01 X23.5852 Y15.1798
G01 X23.6060 Y15.2239
G01 X23.6240 Y15.2743
G01 X23.6360 Y15.3216
G01 X23.6378 Y15.3308
G01 X23.6449 Y15.3791
G01 X23.6474 Y15.4278
G01 X23.6474 Y15.4372
G01 X23.6449 Y15.4859
G01 X23.6365 Y15.5411
G01 X23.6240 Y15.5907
G01 X23.6077 Y15.6367
G01 X23.6041 Y15.6453
G01 X23.5831 Y15.6894
G01 X23.5581 Y15.7313
G01 X23.5530 Y15.7391
G01 X23.5238 Y15.7782
G01 X23.4895 Y15.8162
G01 X23.4518 Y15.8507
G01 X23.4446 Y15.8567
G01 X23.4053 Y15.8857
G01 X23.3615 Y15.9120
G01 X23.3552 Y15.9152
G01 X23.3089 Y15.9369
G01 X23.2629 Y15.9533
G01 X23.2465 Y15.9577
G01 X23.2465 Y16.1017
G01 X24.0473 Y16.9025
G01 X24.3525 Y16.9025
G01 X24.3755 Y16.9036
G01 X24.3961 Y16.9066
G01 X24.4185 Y16.9120
G01 X24.4381 Y16.9187
G01 X24.4467 Y16.9223
G01 X24.4653 Y16.9314
G01 X24.4831 Y16.9421
G01 X24.5016 Y16.9558
G01 X24.5187 Y16.9713
G01 X24.5311 Y16.9849
G01 X24.5370 Y16.9921
G01 X24.5466 Y17.0050
G01 X24.5504 Y17.0109
G01 X24.5608 Y17.0288
G01 X24.5705 Y17.0497
G01 X24.5774 Y17.0693
G01 X24.5830 Y17.0917
G01 X24.5864 Y17.1145
G01 X24.5875 Y17.1352
G01 X24.5875 Y17.4175
G01 X24.5864 Y17.4405
G01 X24.5834 Y17.4611
G01 X24.5820 Y17.4679
G01 X24.5774 Y17.4857
G01 X24.5713 Y17.5031
G01 X24.5687 Y17.5096
G01 X24.5598 Y17.5283
G01 X24.5466 Y17.5500
G01 X24.5342 Y17.5666
G01 X24.5187 Y17.5837
G01 X24.5016 Y17.5992
G01 X24.4831 Y17.6129
G01 X24.4633 Y17.6248
G01 X24.4424 Y17.6346
G01 X24.4207 Y17.6424
G01 X24.3961 Y17.6484
G01 X24.3755 Y17.6514
G01 X24.3525 Y17.6525
G01 X24.0125 Y17.6525
G01 X23.9895 Y17.6514
G01 X23.9689 Y17.6484
G01 X23.9488 Y17.6436
G01 X23.9399 Y17.6409
G01 X23.9226 Y17.6346
G01 X23.9017 Y17.6248
G01 X23.8839 Y17.6142
G01 X23.8781 Y17.6102
G01 X23.8634 Y17.5992
G01 X23.8480 Y17.5853
G01 X23.8339 Y17.5701
G01 X23.8280 Y17.5629
G01 X23.8171 Y17.5481
G01 X23.8064 Y17.5303
G01 X23.7973 Y17.5117
G01 X23.7945 Y17.5053
G01 X23.7876 Y17.4857
G01 X23.7842 Y17.4725
G01 X23.7375 Y17.4725
G01 X23.7191 Y17.4792
G01 X23.7028 Y17.4833
G01 X23.6960 Y17.4846
G01 X23.6816 Y17.4866
G01 X23.6672 Y17.4874
G01 X23.6602 Y17.4875
G01 X23.6457 Y17.4868
G01 X23.6244 Y17.4838
G01 X23.6081 Y17.4798
G01 X23.6015 Y17.4777
G01 X23.5879 Y17.4727
G01 X23.5747 Y17.4666
G01 X23.5685 Y17.4634
G01 X23.5541 Y17.4547
G01 X23.5388 Y17.4433
G01 X23.5246 Y17.4304
G01 X23.2767 Y17.1825
G01 X22.5275 Y17.1825
G01 X22.5275 Y17.6148
G01 X22.5258 Y17.6463
G01 X22.5217 Y17.6752
G01 X22.5198 Y17.6844
G01 X22.5119 Y17.7149
G01 X22.5029 Y17.7402
G01 X22.4993 Y17.7488
G01 X22.4868 Y17.7751
G01 X22.4719 Y17.8002
G01 X22.4680 Y17.8061
G01 X22.4521 Y17.8277
G01 X22.4461 Y17.8349
G01 X22.4265 Y17.8565
G01 X22.4014 Y17.8792
G01 X22.3742 Y17.8994
G01 X22.3472 Y17.9156
G01 X22.3145 Y17.9312
G01 X22.2871 Y17.9412
G01 X22.2782 Y17.9439
G01 X22.2498 Y17.9509
G01 X22.2209 Y17.9553
G01 X22.2140 Y17.9560
G01 X22.1872 Y17.9574
G01 X21.4302 Y17.9575
G01 X21.3987 Y17.9558
G01 X21.3698 Y17.9517
G01 X21.3606 Y17.9498
G01 X21.3324 Y17.9426
G01 X21.3005 Y17.9312
G01 X21.2740 Y17.9189
G01 X21.2658 Y17.9145
G01 X21.2389 Y17.8980
G01 X21.2136 Y17.8792
G01 X21.1919 Y17.8597
G01 X21.1853 Y17.8531
G01 X21.1673 Y17.8331
G01 X21.1629 Y17.8277
G01 X21.1456 Y17.8042
G01 X21.1305 Y17.7792
G01 X21.1261 Y17.7710
G01 X21.1138 Y17.7445
G01 X21.1024 Y17.7126
G01 X21.0941 Y17.6798
G01 X21.0890 Y17.6440
G01 X21.0875 Y17.6125
G01 X21.0875 Y16.3625
G01 X21.0888 Y16.3333
G01 X21.0897 Y16.3241
G01 X21.0941 Y16.2952
G01 X21.1024 Y16.2624
G01 X21.1121 Y16.2348
G01 X21.1157 Y16.2262
G01 X21.1282 Y16.1999
G01 X21.1431 Y16.1748
G01 X21.1483 Y16.1670
G01 X21.1658 Y16.1436
G01 X21.1885 Y16.1185
G01 X21.2136 Y16.0958
G01 X21.2370 Y16.0783
G01 X21.2448 Y16.0731
G01 X21.2699 Y16.0582
G01 X21.2962 Y16.0457
G01 X21.3048 Y16.0421
G01 X21.3301 Y16.0331
G01 X21.3606 Y16.0252
G01 X21.3698 Y16.0233
G01 X21.3987 Y16.0192
G01 X21.4302 Y16.0175
G01 X21.8271 Y16.0175
G01 X21.8190 Y16.0134
G01 X21.8027 Y16.0034
G01 X21.7893 Y15.9933
G01 X21.7751 Y15.9804
G01 X20.4322 Y14.6375
G00 Z2.0000
G00 X20.0991 Y14.6309
G01 F60.00
G01 Z-0.0500
G01 F120.00
G01 X20.1690 Y14.6897
G01 X20.2881 Y14.7850
G01 X20.4094 Y14.8773
G01 X20.5330 Y14.9667
G01 X20.6587 Y15.0529
G01 X20.7866 Y15.1361
G01 X20.9164 Y15.2161
G01 X21.0481 Y15.2928
G01 X21.1358 Y15.3411
G01 X20.9880 Y15.6501
G01 X21.0205 Y15.6680
G01 X21.1633 Y15.7421
G01 X21.3079 Y15.8126
G01 X21.4541 Y15.8796
G01 X21.6020 Y15.9430
G01 X21.7514 Y16.0028
G01 X21.7910 Y16.0175
G01 X21.4864 Y16.0175
G01 X21.4079 Y15.9839
G01 X21.2591 Y15.9157
G01 X21.1120 Y15.8439
G01 X21.0140 Y15.7930
G00 Z2.0000
G00 X20.9681 Y15.8976
G01 F60.00
G01 Z-0.0500
G01 F120.00
G01 X21.0608 Y15.9457
G01 X21.2104 Y16.0188
G01 X21.2829 Y16.0520
G00 Z2.0000
G00 X21.1785 Y16.1295
G01 F60.00
G01 Z-0.0500
G01 F120.00
G01 X21.1617 Y16.1218
G01 X21.0095 Y16.0476
G01 X20.8937 Y15.9874
G01 X20.8339 Y16.0849
G01 X20.9583 Y16.1494
G01 X21.1157 Y16.2261
G00 Z2.0000
G00 X21.0885 Y16.3391
G01 F60.00
G01 Z-0.0500
G01 F120.00
G01 X21.0642 Y16.3279
G01 X20.9070 Y16.2512
G01 X20.7976 Y16.1945
G01 X20.7775 Y16.3124
G01 X20.8558 Y16.3530
G01 X21.0154 Y16.4310
G01 X21.0875 Y16.4640
G00 Z2.0000
G00 X21.0875 Y16.5894
G01 F60.00
G01 Z-0.0500
G01 F120.00
G01 X20.9667 Y16.5340
G01 X20.8045 Y16.4549
G01 X20.7770 Y16.4406
G01 X20.7770 Y16.5683
G01 X20.9179 Y16.6371
G01 X21.0875 Y16.7147
G00 Z2.0000
G00 X21.0875 Y16.8387
G01 F60.00
G01 Z-0.0500
G01 F120.00
G01 X21.0384 Y16.8176
G01 X20.8692 Y16.7401
G01 X20.7770 Y16.6951
G01 X20.7770 Y16.8220
G01 X20.8205 Y16.8432
G01 X20.9922 Y16.9218
G01 X21.0875 Y16.9627
G00 Z2.0000
G00 X21.0875 Y17.0867
G01 F60.00
G01 Z-0.0500
G01 F120.00
G01 X20.9460 Y17.0261
G01 X20.7770 Y16.9487
G01 X20.7770 Y17.0740
G01 X20.8998 Y17.1303
G01 X21.0875 Y17.2105
G00 Z2.0000
G00 X21.0875 Y17.3333
G01 F60.00
G01 Z-0.0500
G01 F120.00
G01 X21.0349 Y17.3122
G01 X20.8536 Y17.2345
G01 X20.7770 Y17.1994
G01 X20.7770 Y17.3248
G01 X20.8074 Y17.3387
G01 X20.9913 Y17.4175
G01 X21.0875 Y17.4560
G00 Z2.0000
G00 X21.0875 Y17.5788
G01 F60.00
G01 Z-0.0500
G01 F120.00
G01 X20.9476 Y17.5229
G01 X20.7770 Y17.4497
G01 X20.7770 Y17.5737
G01 X20.9040 Y17.6282
G01 X21.1007 Y17.7067
G00 Z2.0000
G00 X21.1967 Y17.8640
G01 F60.00
G01 Z-0.0500
G01 F120.00
G01 X21.0539 Y17.8109
G01 X20.8604 Y17.7335
G01 X20.7813 Y17.6996
G01 X20.8170 Y17.8389
G01 X21.0129 Y17.9173
G01 X21.2109 Y17.9909
G01 X21.4106 Y18.0596
G01 X21.6120 Y18.1234
G01 X21.8149 Y18.1822
G01 X22.0192 Y18.2361
G01 X22.1537 Y18.2680
G01 X22.4470 Y18.2154
G01 X22.2497 Y18.1736
G01 X22.0469 Y18.1255
G01 X21.8453 Y18.0723
G01 X21.6451 Y18.0143
G01 X21.4659 Y17.9575
G01 X21.7014 Y18.2680
G01 X21.5789 Y18.2325
G01 X21.3749 Y18.1678
G01 X21.1725 Y18.0982
G01 X20.9719 Y18.0236
G01 X20.8976 Y17.9939
G00 Z2.0000
G00 X20.0313 Y17.7232
G01 F60.00
G01 Z-0.0500
G01 F120.00
G01 X19.9457 Y17.6788
G01 X19.7557 Y17.5742
G01 X19.7275 Y17.5578
G00 Z2.0000
G00 X19.7198 Y17.6845
G01 F60.00
G01 Z-0.0500
G01 F120.00
G01 X19.8920 Y17.7793
G01 X19.9993 Y17.8350
G01 X19.9515 Y17.9386
G01 X19.8382 Y17.8798
G01 X19.6772 Y17.7912
G00 Z2.0000
G00 X19.6011 Y17.8794
G01 F60.00
G01 Z-0.0500
G01 F120.00
G01 X19.7845 Y17.9804
G01 X19.8880 Y18.0341
G01 X19.8034 Y18.1186
G01 X19.7308 Y18.0809
G01 X19.5310 Y17.9710
G01 X19.4825 Y17.9427
G00 Z2.0000
G00 X19.2815 Y17.9575
G01 F60.00
G01 Z-0.0500
G01 F120.00
G01 X19.4748 Y18.0702
G01 X19.6770 Y18.1815
G01 X19.6942 Y18.1904
G01 X19.5567 Y18.2453
G01 X19.4186 Y18.1694
G01 X19.2168 Y18.0517
G01 X19.0639 Y17.9575
G00 Z2.0000
G00 X18.8524 Y17.9575
G01 F60.00
G01 Z-0.0500
G01 F120.00
G01 X18.9569 Y18.0255
G01 X19.1582 Y18.1495
G01 X19.3615 Y18.2680
G01 X19.1351 Y18.2680
G01 X19.0995 Y18.2473
G01 X18.8959 Y18.1218
G01 X18.6954 Y17.9913
G01 X18.6461 Y17.9575
G01 X18.7026 Y18.2680
G01 X18.5687 Y18.1809
G01 X18.3668 Y18.0424
G01 X18.1684 Y17.8990
G01 X17.9925 Y17.7652
G01 X17.9770 Y17.6075
G01 X18.0437 Y17.6609
G01 X18.2363 Y17.8074
G01 X18.4325 Y17.9492
G01 X18.6320 Y18.0861
G01 X18.8349 Y18.2181
G01 X18.9159 Y18.2680
G01 X18.4637 Y18.2471
G01 X18.3012 Y18.1356
G01 X18.1005 Y17.9906
G01 X18.0911 Y17.9834
G01 X18.3031 Y17.7150
G01 X18.1138 Y17.5710
G01 X17.9303 Y17.4241
G01 X18.1686 Y17.1768
G01 X18.2875 Y17.2720
G00 Z2.0000
G00 X18.2875 Y17.4167
G01 F60.00
G01 Z-0.0500
G01 F120.00
G01 X18.2541 Y17.3913
G01 X18.0717 Y17.2453
G01 X17.8930 Y17.0949
G01 X17.7179 Y16.9401
G01 X17.5468 Y16.7811
G01 X17.3796 Y16.6179
G01 X17.2164 Y16.4507
G01 X17.0574 Y16.2796
G01 X16.9026 Y16.1045
G01 X16.7522 Y15.9258
G01 X16.6062 Y15.7434
G01 X16.4648 Y15.5575
G01 X16.3491 Y15.3975
G01 X15.9841 Y15.4715
G01 X15.9114 Y15.3655
G01 X15.7794 Y15.1626
G01 X15.6838 Y15.0075
G01 X15.5502 Y15.0075
G01 X15.6831 Y15.2236
G01 X15.7446 Y15.3181
G00 Z2.0000
G00 X15.6085 Y15.3180
G01 F60.00
G01 Z-0.0500
G01 F120.00
G01 X15.5868 Y15.2846
G01 X15.4569 Y15.0738
G01 X15.4183 Y15.0075
G01 X15.2863 Y15.0075
G01 X15.3591 Y15.1324
G01 X15.4735 Y15.3180
G01 X15.3396 Y15.3180
G01 X15.2613 Y15.1910
G01 X15.1544 Y15.0075
G01 X15.0231 Y15.0075
G01 X15.0346 Y15.0284
G01 X15.1635 Y15.2496
G01 X15.2057 Y15.3180
G01 X15.0718 Y15.3180
G01 X15.0658 Y15.3082
G01 X14.9354 Y15.0846
G01 X14.8930 Y15.0075
G01 X14.7629 Y15.0075
G01 X14.8362 Y15.1408
G01 X14.9395 Y15.3180
G01 X14.8076 Y15.3180
G01 X14.7371 Y15.1970
G01 X14.6328 Y15.0075
G01 X14.5400 Y15.0075
G01 X14.5377 Y15.0075
G01 X14.5261 Y15.0065
G01 X14.5147 Y15.0041
G01 X14.5058 Y15.0011
G01 X14.4973 Y14.9974
G01 X14.4892 Y14.9928
G01 X14.4816 Y14.9874
G01 X14.4745 Y14.9813
G01 X14.4666 Y14.9728
G01 X14.4610 Y14.9653
G01 X14.4562 Y14.9573
G01 X14.4514 Y14.9467
G01 X14.4478 Y14.9356
G01 X14.4457 Y14.9241
G01 X14.4450 Y14.9125
G01 X14.4450 Y13.3102
G01 X14.4460 Y13.2986
G01 X14.4473 Y13.2917
G01 X14.4491 Y13.2849
G01 X14.4532 Y13.2740
G01 X14.4562 Y13.2677
G01 X14.4597 Y13.2617
G01 X14.4666 Y13.2522
G01 X14.4745 Y13.2437
G01 X14.4834 Y13.2362
G01 X14.4892 Y13.2322
G01 X14.4952 Y13.2287
G01 X14.5058 Y13.2239
G01 X14.5169 Y13.2203
G01 X14.5284 Y13.2182
G01 X14.5400 Y13.2175
G01 X16.1400 Y13.2175
G01 X16.1493 Y13.2180
G01 X16.1585 Y13.2193
G01 X16.1676 Y13.2216
G01 X16.1742 Y13.2239
G01 X16.1827 Y13.2276
G01 X16.1908 Y13.2322
G01 X16.1984 Y13.2376
G01 X16.2055 Y13.2437
G01 X16.2119 Y13.2504
G01 X16.2177 Y13.2578
G01 X16.2227 Y13.2657
G01 X16.2268 Y13.2740
G01 X16.2302 Y13.2827
G01 X16.2327 Y13.2917
G01 X16.2343 Y13.3009
G01 X16.2350 Y13.3102
G01 X16.2350 Y14.7317
G01 X18.2875 Y16.7842
G01 X18.2875 Y16.3602
G01 X18.2888 Y16.3333
G01 X18.2897 Y16.3241
G01 X18.2941 Y16.2952
G01 X18.3011 Y16.2668
G01 X18.3038 Y16.2579
G01 X18.3138 Y16.2305
G01 X18.3282 Y16.1999
G01 X18.3456 Y16.1708
G01 X18.3658 Y16.1436
G01 X18.3885 Y16.1185
G01 X18.4136 Y16.0958
G01 X18.4408 Y16.0756
G01 X18.4699 Y16.0582
G01 X18.5005 Y16.0438
G01 X18.5279 Y16.0338
G01 X18.5368 Y16.0311
G01 X18.5652 Y16.0241
G01 X18.5941 Y16.0197
G01 X18.6010 Y16.0190
G01 X18.6278 Y16.0176
G01 X19.3848 Y16.0175
G01 X19.4163 Y16.0192
G01 X19.4498 Y16.0241
G01 X19.4826 Y16.0324
G01 X19.5102 Y16.0421
G01 X19.5188 Y16.0457
G01 X19.5431 Y16.0572
G01 X19.5492 Y16.0605
G01 X19.5742 Y16.0756
G01 X19.6031 Y16.0973
G01 X19.6265 Y16.1185
G01 X19.6492 Y16.1436
G01 X19.6694 Y16.1708
G01 X19.6845 Y16.1958
G01 X19.6889 Y16.2040
G01 X19.7003 Y16.2283
G01 X19.7029 Y16.2348
G01 X19.7126 Y16.2624
G01 X19.7198 Y16.2906
G01 X19.7217 Y16.2998
G01 X19.7256 Y16.3264
G01 X19.7274 Y16.3578
G01 X19.7274 Y17.6172
G01 X19.7258 Y17.6463
G01 X19.7217 Y17.6752
G01 X19.7198 Y17.6844
G01 X19.7126 Y17.7126
G01 X19.7029 Y17.7402
G01 X19.6993 Y17.7488
G01 X19.6868 Y17.7751
G01 X19.6719 Y17.8002
G01 X19.6667 Y17.8080
G01 X19.6492 Y17.8314
G01 X19.6265 Y17.8565
G01 X19.6014 Y17.8792
G01 X19.5780 Y17.8967
G01 X19.5702 Y17.9019
G01 X19.5472 Y17.9156
G01 X19.5410 Y17.9189
G01 X19.5145 Y17.9312
G01 X19.4871 Y17.9412
G01 X19.4782 Y17.9439
G01 X19.4498 Y17.9509
G01 X19.4140 Y17.9560
G01 X19.3825 Y17.9575
G01 X18.6325 Y17.9575
G01 X18.6010 Y17.9560
G01 X18.5698 Y17.9517
G01 X18.5606 Y17.9498
G01 X18.5324 Y17.9426
G01 X18.5005 Y17.9312
G01 X18.4740 Y17.9189
G01 X18.4658 Y17.9145
G01 X18.4408 Y17.8994
G01 X18.4173 Y17.8821
G01 X18.4119 Y17.8777
G01 X18.3919 Y17.8597
G01 X18.3853 Y17.8531
G01 X18.3644 Y17.8295
G01 X18.3483 Y17.8080
G01 X18.3431 Y17.8002
G01 X18.3282 Y17.7751
G01 X18.3138 Y17.7445
G01 X18.3024 Y17.7126
G01 X18.2937 Y17.6775
G01 X18.2892 Y17.6463
G01 X18.2875 Y17.6148
G01 X18.2875 Y17.1825
G01 X18.2150 Y17.1825
G01 X18.2005 Y17.1820
G01 X18.1936 Y17.1814
G01 X18.1792 Y17.1792
G01 X18.1606 Y17.1748
G01 X18.1404 Y17.1677
G01 X18.1251 Y17.1606
G01 X18.1190 Y17.1572
G01 X18.1066 Y17.1497
G01 X18.0949 Y17.1411
G01 X18.0895 Y17.1368
G01 X18.0787 Y17.1270
G01 X15.9592 Y15.0075
G01 X14.5400 Y15.0075
G00 Z2.0000
G00 X14.4979 Y14.9977
G01 F60.00
G01 Z-0.0500
G01 F120.00
G01 X14.5090 Y15.0191
G01 X14.6379 Y15.2532
G01 X14.6756 Y15.3180
G01 X14.5437 Y15.3180
G01 X14.4085 Y15.0728
G01 X14.2841 Y14.8332
G01 X14.1657 Y14.5905
G01 X14.1348 Y14.5231
G00 Z2.0000
G00 X14.0626 Y14.6391
G01 F60.00
G01 Z-0.0500
G01 F120.00
G01 X14.1823 Y14.8844
G01 X14.3079 Y15.1266
G01 X14.3995 Y15.2929
G00 Z2.0000
G00 X14.1926 Y15.1517
G01 F60.00
G01 Z-0.0500
G01 F120.00
G01 X14.0805 Y14.9357
G01 X13.9825 Y14.7349
G00 Z2.0000
G00 X13.8944 Y14.8144
G01 F60.00
G01 Z-0.0500
G01 F120.00
G01 X13.9787 Y14.9869
G01 X14.0492 Y15.1228
G00 Z2.0000
G00 X13.9397 Y15.1593
G01 F60.00
G01 Z-0.0500
G01 F120.00
G01 X13.8768 Y15.0382
G01 X13.7994 Y14.8795
G00 Z2.0000
G00 X13.6982 Y14.9321
G01 F60.00
G01 Z-0.0500
G01 F120.00
G01 X13.7750 Y15.0894
G01 X13.8381 Y15.2111
G01 X13.7311 Y15.2524
G01 X13.6732 Y15.1407
G01 X13.5905 Y14.9714
G00 Z2.0000
G00 X13.4758 Y14.9962
G01 F60.00
G01 Z-0.0500
G01 F120.00
G01 X13.5714 Y15.1920
G01 X13.6212 Y15.2880
G01 X13.5025 Y15.3068
G01 X13.4695 Y15.2432
G01 X13.3542 Y15.0069
G00 Z2.0000
G00 X13.2245 Y14.9992
G01 F60.00
G01 Z-0.0500
G01 F120.00
G01 X13.2382 Y15.0292
G01 X13.3677 Y15.2945
G01 X13.3796 Y15.3175
G01 X13.2521 Y15.3175
G01 X13.1352 Y15.0779
G01 X13.0860 Y14.9705
G01 X12.9635 Y14.9769
G01 X13.0321 Y15.1267
G01 X13.1152 Y15.2969
G01 X12.9700 Y15.2593
G01 X12.9291 Y15.1754
G01 X12.8775 Y15.0629
G01 X12.7915 Y15.1489
G01 X12.8134 Y15.1966
G00 Z2.0000
G00 X12.2794 Y14.6852
G01 F60.00
G01 Z-0.0500
G01 F120.00
G01 X12.2233 Y14.5751
G01 X12.1647 Y14.3947
G01 X12.1350 Y14.2073
G01 X12.1350 Y14.0177
G01 X12.1647 Y13.8303
G01 X12.2233 Y13.6499
G01 X12.2794 Y13.5398
G01 X12.5121 Y13.7725
G01 X12.4835 Y13.8527
G01 X12.4622 Y13.9379
G01 X12.4493 Y14.0248
G01 X12.4450 Y14.1125
G01 X12.4493 Y14.2002
G01 X12.4622 Y14.2871
G01 X12.4835 Y14.3723
G01 X12.5121 Y14.4525
G01 X12.2794 Y14.6852
G01 X12.3430 Y14.6216
G01 X12.3152 Y14.6237
G01 X12.2900 Y14.6243
G01 X12.2648 Y14.6237
G01 X12.2475 Y14.6225
G01 X12.1988 Y14.4997
G01 X12.2026 Y14.5006
G01 X12.2122 Y14.5027
G01 X12.2218 Y14.5045
G01 X12.2412 Y14.5073
G01 X12.2607 Y14.5093
G01 X12.2802 Y14.5102
G01 X12.2998 Y14.5102
G01 X12.3194 Y14.5093
G01 X12.3388 Y14.5073
G01 X12.3582 Y14.5045
G01 X12.3774 Y14.5006
G01 X12.3964 Y14.4959
G01 X12.4152 Y14.4902
G01 X12.4336 Y14.4836
G01 X12.4517 Y14.4761
G01 X12.4694 Y14.4677
G01 X12.4867 Y14.4585
G01 X12.5093 Y14.4446
G00 Z2.0000
G00 X12.4728 Y14.3300
G01 F60.00
G01 Z-0.0500
G01 F120.00
G01 X12.4598 Y14.3402
G01 X12.4425 Y14.3521
G01 X12.4244 Y14.3627
G01 X12.4055 Y14.3719
G01 X12.3860 Y14.3797
G01 X12.3660 Y14.3860
G01 X12.3456 Y14.3909
G01 X12.3249 Y14.3942
G01 X12.3040 Y14.3960
G01 X12.2830 Y14.3962
G01 X12.2621 Y14.3950
G01 X12.2413 Y14.3921
G01 X12.2208 Y14.3878
G01 X12.2006 Y14.3819
G01 X12.1809 Y14.3746
G01 X12.1600 Y14.3649
G01 X12.1350 Y14.1835
G01 X12.1412 Y14.1956
G01 X12.1502 Y14.2098
G01 X12.1605 Y14.2230
G01 X12.1721 Y14.2352
G01 X12.1848 Y14.2461
G01 X12.1985 Y14.2558
G01 X12.2131 Y14.2641
G01 X12.2285 Y14.2709
G01 X12.2444 Y14.2761
G01 X12.2608 Y14.2798
G01 X12.2774 Y14.2819
G01 X12.2942 Y14.2823
G01 X12.3109 Y14.2810
G01 X12.3275 Y14.2782
G01 X12.3436 Y14.2737
G01 X12.3593 Y14.2677
G01 X12.3743 Y14.2601
G01 X12.3885 Y14.2511
G01 X12.4017 Y14.2408
G01 X12.4139 Y14.2292
G01 X12.4248 Y14.2165
G01 X12.4345 Y14.2028
G01 X12.4427 Y14.1882
G01 X12.4480 Y14.1767
G01 X12.3470 Y14.1113
G01 X12.3466 Y14.1183
G01 X12.3453 Y14.1252
G01 X12.3432 Y14.1318
G01 X12.3403 Y14.1382
G01 X12.3366 Y14.1442
G01 X12.3322 Y14.1496
G01 X12.3272 Y14.1545
G01 X12.3217 Y14.1587
G01 X12.3156 Y14.1622
G01 X12.3092 Y14.1650
G01 X12.3025 Y14.1669
G01 X12.2956 Y14.1681
G01 X12.2886 Y14.1683
G01 X12.2816 Y14.1677
G01 X12.2748 Y14.1663
G01 X12.2682 Y14.1640
G01 X12.2631 Y14.1616
G01 X12.2583 Y14.1587
G01 X12.2538 Y14.1554
G01 X12.2497 Y14.1516
G01 X12.2459 Y14.1475
G01 X12.2426 Y14.1430
G01 X12.2397 Y14.1382
G01 X12.2373 Y14.1331
G01 X12.2355 Y14.1279
G01 X12.2341 Y14.1225
G01 X12.2333 Y14.1169
G01 X12.2330 Y14.1113
G01 X12.2333 Y14.1057
G01 X12.2341 Y14.1002
G01 X12.2355 Y14.0948
G01 X12.2373 Y14.0895
G01 X12.2419 Y14.0808
G01 X12.2478 Y14.0731
G01 X12.2549 Y14.0664
G01 X12.2631 Y14.0611
G01 X12.2721 Y14.0572
G01 X12.2816 Y14.0550
G01 X12.2914 Y14.0544
G01 X12.3011 Y14.0554
G01 X12.3105 Y14.0582
G01 X12.3193 Y14.0624
G01 X12.3272 Y14.0682
G01 X12.3341 Y14.0752
G01 X12.3396 Y14.0832
G01 X12.3437 Y14.0921
G01 X12.3462 Y14.1016
G01 X12.3470 Y14.1113
G01 X12.4481 Y14.0463
G01 X12.4446 Y14.0382
G01 X12.4388 Y14.0270
G01 X12.4322 Y14.0163
G01 X12.4248 Y14.0061
G01 X12.4167 Y13.9965
G01 X12.4079 Y13.9875
G01 X12.3985 Y13.9791
G01 X12.3885 Y13.9715
G01 X12.3779 Y13.9647
G01 X12.3669 Y13.9586
G01 X12.3554 Y13.9534
G01 X12.3436 Y13.9490
G01 X12.3316 Y13.9455
G01 X12.3192 Y13.9429
G01 X12.3068 Y13.9412
G01 X12.2942 Y13.9404
G01 X12.2816 Y13.9405
G01 X12.2691 Y13.9416
G01 X12.2566 Y13.9436
G01 X12.2444 Y13.9465
G01 X12.2324 Y13.9503
G01 X12.2207 Y13.9550
G01 X12.2094 Y13.9605
G01 X12.1985 Y13.9669
G01 X12.1881 Y13.9740
G01 X12.1783 Y13.9819
G01 X12.1691 Y13.9904
G01 X12.1605 Y13.9996
G01 X12.1527 Y14.0095
G01 X12.1455 Y14.0198
G01 X12.1392 Y14.0307
G01 X12.1350 Y14.0392
G01 X12.1604 Y13.8575
G01 X12.1745 Y13.8508
G01 X12.1940 Y13.8430
G01 X12.2140 Y13.8367
G01 X12.2344 Y13.8318
G01 X12.2551 Y13.8285
G01 X12.2690 Y13.8271
G01 X12.2900 Y13.8263
G01 X12.3110 Y13.8271
G01 X12.3318 Y13.8294
G01 X12.3525 Y13.8333
G01 X12.3660 Y13.8367
G01 X12.3860 Y13.8430
G01 X12.4055 Y13.8508
G01 X12.4244 Y13.8600
G01 X12.4425 Y13.8706
G01 X12.4598 Y13.8824
G01 X12.4733 Y13.8931
G00 Z2.0000
G00 X12.5100 Y13.7785
G01 F60.00
G01 Z-0.0500
G01 F120.00
G01 X12.4867 Y13.7642
G01 X12.4694 Y13.7549
G01 X12.4517 Y13.7466
G01 X12.4336 Y13.7391
G01 X12.4152 Y13.7325
G01 X12.3964 Y13.7268
G01 X12.3774 Y13.7220
G01 X12.3582 Y13.7182
G01 X12.3388 Y13.7153
G01 X12.3194 Y13.7134
G01 X12.2998 Y13.7125
G01 X12.2802 Y13.7125
G01 X12.2607 Y13.7134
G01 X12.2412 Y13.7153
G01 X12.2218 Y13.7182
G01 X12.1996 Y13.7227
G01 X12.2487 Y13.6000
G01 X12.2648 Y13.5990
G01 X12.2900 Y13.5983
G01 X12.3152 Y13.5990
G01 X12.3404 Y13.6008
G00 Z2.0000
G00 X12.9018 Y13.1864
G01 F60.00
G01 Z-0.0500
G01 F120.00
G01 X12.8488 Y13.0035
G01 X12.8419 Y12.9776
G00 Z2.0000
G00 X13.0449 Y13.2685
G01 F60.00
G01 Z-0.0500
G01 F120.00
G01 X13.0377 Y13.2459
G01 X12.9587 Y12.9731
G01 X12.8863 Y12.6985
G01 X12.8207 Y12.4222
G01 X12.8001 Y12.3252
G00 Z2.0000
G00 X12.9349 Y12.4099
G01 F60.00
G01 Z-0.0500
G01 F120.00
G01 X12.9969 Y12.6708
G01 X13.0685 Y12.9427
G01 X13.1468 Y13.2128
G01 X13.1546 Y13.2373
G00 Z2.0000
G00 X13.2690 Y13.2209
G01 F60.00
G01 Z-0.0500
G01 F120.00
G01 X13.2559 Y13.1797
G01 X13.1784 Y12.9123
G01 X13.1074 Y12.6431
G01 X13.0648 Y12.4636
G00 Z2.0000
G00 X13.1892 Y12.4939
G01 F60.00
G01 Z-0.0500
G01 F120.00
G01 X13.2180 Y12.6154
G01 X13.2883 Y12.8819
G01 X13.3650 Y13.1466
G01 X13.3882 Y13.2198
G00 Z2.0000
G00 X13.5124 Y13.2343
G01 F60.00
G01 Z-0.0500
G01 F120.00
G01 X13.4741 Y13.1135
G01 X13.3981 Y12.8515
G01 X13.3286 Y12.5877
G01 X13.3092 Y12.5061
G00 Z2.0000
G00 X13.4257 Y12.5034
G01 F60.00
G01 Z-0.0500
G01 F120.00
G01 X13.4392 Y12.5600
G01 X13.5080 Y12.8211
G01 X13.5832 Y13.0804
G01 X13.6438 Y13.2717
G00 Z2.0000
G00 X13.7850 Y13.3369
G01 F60.00
G01 Z-0.0500
G01 F120.00
G01 X13.7730 Y13.3020
G01 X13.6923 Y13.0473
G01 X13.6179 Y12.7907
G01 X13.5498 Y12.5323
G01 X13.5384 Y12.4845
G00 Z2.0000
G00 X13.6478 Y12.4519
G01 F60.00
G01 Z-0.0500
G01 F120.00
G01 X13.6604 Y12.5046
G01 X13.7277 Y12.7603
G01 X13.8014 Y13.0142
G01 X13.8812 Y13.2663
G01 X13.9463 Y13.4554
G00 Z2.0000
G00 X14.4450 Y13.4929
G01 F60.00
G01 Z-0.0500
G01 F120.00
G01 X14.3966 Y13.3627
G01 X14.3142 Y13.1233
G01 X14.2378 Y12.8819
G01 X14.1672 Y12.6387
G01 X14.1027 Y12.3938
G01 X14.0471 Y12.1599
G00 Z2.0000
G00 X14.4758 Y13.2425
G01 F60.00
G01 Z-0.0500
G01 F120.00
G01 X14.4225 Y13.0875
G01 X14.3468 Y12.8488
G01 X14.2771 Y12.6083
G01 X14.2133 Y12.3661
G01 X14.1554 Y12.1225
G01 X14.1345 Y12.0237
G00 Z2.0000
G00 X14.2092 Y11.8220
G01 F60.00
G01 Z-0.0500
G01 F120.00
G01 X14.2154 Y11.8553
G01 X14.2666 Y12.0975
G01 X14.3239 Y12.3384
G01 X14.3870 Y12.5779
G01 X14.4559 Y12.8157
G01 X14.5307 Y13.0517
G01 X14.5877 Y13.2175
G00 Z2.0000
G00 X14.7083 Y13.2175
G01 F60.00
G01 Z-0.0500
G01 F120.00
G01 X14.6390 Y13.0160
G01 X14.5650 Y12.7826
G01 X14.4968 Y12.5475
G01 X14.4344 Y12.3107
G01 X14.3779 Y12.0725
G01 X14.3272 Y11.8330
G01 X14.2824 Y11.5923
G01 X14.2435 Y11.3506
G01 X14.2105 Y11.1080
G01 X14.2015 Y11.0268
G01 X14.0984 Y11.1299
G01 X14.1000 Y11.1415
G01 X14.3048 Y10.9236
G01 X14.3237 Y11.0941
G01 X14.3562 Y11.3339
G01 X14.3947 Y11.5729
G01 X14.4390 Y11.8108
G01 X14.4891 Y12.0476
G01 X14.5450 Y12.2830
G01 X14.6067 Y12.5171
G01 X14.6741 Y12.7495
G01 X14.7472 Y12.9802
G01 X14.8291 Y13.2175
G00 Z2.0000
G00 X14.9507 Y13.2175
G01 F60.00
G01 Z-0.0500
G01 F120.00
G01 X14.9333 Y13.1707
G01 X14.8555 Y12.9445
G01 X14.7832 Y12.7164
G01 X14.7166 Y12.4866
G01 X14.6556 Y12.2553
G01 X14.6330 Y12.1600
G00 Z2.0000
G00 X14.7899 Y12.3176
G01 F60.00
G01 Z-0.0500
G01 F120.00
G01 X14.8264 Y12.4562
G01 X14.8923 Y12.6833
G01 X14.9637 Y12.9087
G01 X15.0406 Y13.1323
G01 X15.0723 Y13.2175
G00 Z2.0000
G00 X15.1939 Y13.2175
G01 F60.00
G01 Z-0.0500
G01 F120.00
G01 X15.1479 Y13.0939
G01 X15.0719 Y12.8729
G01 X15.0014 Y12.6502
G01 X14.9363 Y12.4258
G01 X14.9317 Y12.4084
G00 Z2.0000
G00 X15.0661 Y12.4640
G01 F60.00
G01 Z-0.0500
G01 F120.00
G01 X15.1105 Y12.6171
G01 X15.1802 Y12.8372
G01 X15.2553 Y13.0554
G01 X15.3155 Y13.2175
G01 X15.4371 Y13.2175
G01 X15.3626 Y13.0170
G01 X15.2884 Y12.8014
G01 X15.2196 Y12.5840
G01 X15.1936 Y12.4946
G00 Z2.0000
G00 X15.3158 Y12.5064
G01 F60.00
G01 Z-0.0500
G01 F120.00
G01 X15.3287 Y12.5509
G01 X15.3967 Y12.7657
G01 X15.4700 Y12.9786
G01 X15.5484 Y13.1898
G01 X15.5595 Y13.2175
G00 Z2.0000
G00 X15.6823 Y13.2175
G01 F60.00
G01 Z-0.0500
G01 F120.00
G01 X15.6548 Y13.1487
G01 X15.5773 Y12.9402
G01 X15.5049 Y12.7299
G01 X15.4378 Y12.5178
G01 X15.4333 Y12.5025
G00 Z2.0000
G00 X15.5462 Y12.4825
G01 F60.00
G01 Z-0.0500
G01 F120.00
G01 X15.6132 Y12.6941
G01 X15.6846 Y12.9018
G01 X15.7612 Y13.1077
G01 X15.8051 Y13.2175
G00 Z2.0000
G00 X15.9278 Y13.2175
G01 F60.00
G01 Z-0.0500
G01 F120.00
G01 X15.8675 Y13.0667
G01 X15.7920 Y12.8634
G01 X15.7214 Y12.6584
G01 X15.6552 Y12.4492
G00 Z2.0000
G00 X15.7604 Y12.4026
G01 F60.00
G01 Z-0.0500
G01 F120.00
G01 X15.7650 Y12.4186
G01 X15.8297 Y12.6226
G01 X15.8993 Y12.8250
G01 X15.9739 Y13.0256
G01 X16.0506 Y13.2175
G00 Z2.0000
G00 X16.1778 Y13.2253
G01 F60.00
G01 Z-0.0500
G01 F120.00
G01 X16.1587 Y13.1808
G01 X16.0802 Y12.9846
G01 X16.0066 Y12.7866
G01 X15.9379 Y12.5869
G01 X15.8741 Y12.3855
G01 X15.8607 Y12.3394
G00 Z2.0000
G00 X15.9565 Y12.2603
G01 F60.00
G01 Z-0.0500
G01 F120.00
G01 X15.9832 Y12.3524
G01 X16.0462 Y12.5511
G01 X16.0677 Y12.6137
G00 Z2.0000
G00 X16.1514 Y12.5059
G01 F60.00
G01 Z-0.0500
G01 F120.00
G01 X16.0923 Y12.3193
G01 X16.0464 Y12.1609
G00 Z2.0000
G00 X16.1297 Y12.0337
G01 F60.00
G01 Z-0.0500
G01 F120.00
G01 X16.1449 Y12.0914
G01 X16.2014 Y12.2862
G01 X16.2422 Y12.4151
G01 X16.3269 Y12.3050
G01 X16.3105 Y12.2531
G01 X16.2548 Y12.0610
G01 X16.2038 Y11.8675
G01 X16.2009 Y11.8552
G00 Z2.0000
G00 X16.2128 Y11.8075
G01 F60.00
G01 Z-0.0500
G01 F120.00
G01 X16.1965 Y11.8723
G01 X16.1669 Y11.9550
G01 X16.1293 Y12.0344
G01 X16.0842 Y12.1097
G01 X16.0318 Y12.1803
G01 X15.9729 Y12.2454
G01 X15.9078 Y12.3043
G01 X15.8353 Y12.3579
G01 X15.7619 Y12.4018
G01 X15.6825 Y12.4394
G01 X15.5998 Y12.4690
G01 X15.5146 Y12.4903
G01 X15.4277 Y12.5032
G01 X15.3400 Y12.5075
G01 X15.2523 Y12.5032
G01 X15.1631 Y12.4898
G01 X15.0802 Y12.4690
G01 X14.9975 Y12.4394
G01 X14.9181 Y12.4018
G01 X14.8428 Y12.3567
G01 X14.7722 Y12.3043
G01 X14.7071 Y12.2454
G01 X14.6482 Y12.1803
G01 X14.5958 Y12.1097
G01 X14.5507 Y12.0344
G01 X14.5131 Y11.9550
G01 X14.4835 Y11.8723
G01 X14.4622 Y11.7871
G01 X14.4493 Y11.7002
G01 X14.4450 Y11.6125
G01 X14.4493 Y11.5248
G01 X14.4627 Y11.4356
G01 X14.4835 Y11.3527
G01 X14.5131 Y11.2700
G01 X14.5507 Y11.1906
G01 X14.5933 Y11.1192
G01 X14.5985 Y11.1115
G01 X14.6453 Y11.0484
G01 X14.6512 Y11.0412
G01 X14.7071 Y10.9796
G01 X14.7722 Y10.9207
G01 X14.8428 Y10.8683
G01 X14.9140 Y10.8255
G01 X14.9223 Y10.8211
G01 X14.9932 Y10.7875
G01 X15.0018 Y10.7839
G01 X15.0802 Y10.7560
G01 X15.1654 Y10.7347
G01 X15.2523 Y10.7218
G01 X15.3400 Y10.7175
G01 X15.4277 Y10.7218
G01 X15.5146 Y10.7347
G01 X15.5998 Y10.7560
G01 X15.6782 Y10.7839
G01 X15.6868 Y10.7875
G01 X15.7577 Y10.8211
G01 X15.7660 Y10.8255
G01 X15.8372 Y10.8683
G01 X15.9078 Y10.9207
G01 X15.9729 Y10.9796
G01 X16.0288 Y11.0412
G01 X16.0347 Y11.0484
G01 X16.0815 Y11.1115
G01 X16.0867 Y11.1192
G01 X16.1293 Y11.1906
G01 X16.1669 Y11.2700
G01 X16.1965 Y11.3527
G01 X16.2128 Y11.4174
G01 X17.0898 Y11.4175
G01 X17.1066 Y11.4184
G01 X17.1210 Y11.4204
G01 X17.1278 Y11.4217
G01 X17.1419 Y11.4252
G01 X17.1621 Y11.4323
G01 X17.1774 Y11.4394
G01 X17.1835 Y11.4428
G01 X17.1959 Y11.4503
G01 X17.2076 Y11.4589
G01 X17.2130 Y11.4632
G01 X17.2254 Y11.4746
G01 X18.9941 Y13.2432
G01 X19.0013 Y13.2314
G01 X19.0142 Y13.2139
G01 X19.0318 Y13.1943
G01 X19.0460 Y13.1812
G01 X19.0532 Y13.1752
G01 X19.0689 Y13.1638
G01 X19.0855 Y13.1537
G01 X19.0937 Y13.1493
G01 X19.1112 Y13.1411
G01 X19.1361 Y13.1324
G01 X19.1549 Y13.1277
G01 X19.1618 Y13.1264
G01 X19.1810 Y13.1237
G01 X19.2003 Y13.1226
G01 X19.5050 Y13.1225
G01 X19.5290 Y13.1237
G01 X19.5505 Y13.1268
G01 X19.5739 Y13.1324
G01 X19.5944 Y13.1395
G01 X19.6009 Y13.1421
G01 X19.6163 Y13.1493
G01 X19.6245 Y13.1537
G01 X19.6411 Y13.1638
G01 X19.6604 Y13.1781
G01 X19.6782 Y13.1943
G01 X19.6944 Y13.2121
G01 X19.7087 Y13.2314
G01 X19.7211 Y13.2520
G01 X19.7314 Y13.2737
G01 X19.7380 Y13.2920
G01 X19.7407 Y13.3009
G01 X19.7448 Y13.3174
G01 X19.7461 Y13.3243
G01 X19.7488 Y13.3435
G01 X19.7500 Y13.3675
G01 X19.7500 Y14.3948
G01 X19.7488 Y14.4165
G01 X19.7461 Y14.4357
G01 X19.7443 Y14.4448
G01 X19.7395 Y14.4636
G01 X19.7314 Y14.4863
G01 X19.7232 Y14.5038
G01 X19.7188 Y14.5120
G01 X19.7074 Y14.5305
G01 X19.6929 Y14.5497
G01 X19.6799 Y14.5641
G01 X19.6749 Y14.5690
G01 X19.6604 Y14.5819
G01 X19.6449 Y14.5935
G01 X19.6392 Y14.5975
G01 X19.6225 Y14.6074
G01 X19.5988 Y14.6189
G01 X19.5761 Y14.6270
G01 X19.5528 Y14.6328
G01 X19.5336 Y14.6357
G01 X19.5244 Y14.6367
G01 X19.5050 Y14.6375
G01 X19.2050 Y14.6375
G01 X19.1856 Y14.6367
G01 X19.1764 Y14.6357
G01 X19.1572 Y14.6328
G01 X19.1339 Y14.6270
G01 X19.1112 Y14.6189
G01 X19.0937 Y14.6107
G01 X19.0855 Y14.6063
G01 X19.0708 Y14.5975
G01 X19.0651 Y14.5935
G01 X19.0496 Y14.5819
G01 X19.0318 Y14.5657
G01 X19.0156 Y14.5479
G01 X19.0013 Y14.5286
G01 X18.9889 Y14.5080
G01 X18.9805 Y14.4905
G01 X18.9778 Y14.4841
G01 X18.9720 Y14.4680
G01 X18.9693 Y14.4591
G01 X18.9647 Y14.4403
G01 X18.9612 Y14.4165
G01 X18.9600 Y14.3925
G01 X18.9600 Y13.7608
G01 X17.0067 Y11.8075
G01 X16.2128 Y11.8075
G01 X16.3067 Y11.8075
G01 X16.3144 Y11.8398
G01 X16.3646 Y12.0306
G01 X16.4101 Y12.1873
G00 Z2.0000
G00 X16.5110 Y12.1260
G01 F60.00
G01 Z-0.0500
G01 F120.00
G01 X16.4745 Y12.0002
G01 X16.4239 Y11.8075
G01 X16.5416 Y11.8075
G01 X16.5844 Y11.9698
G01 X16.6274 Y12.1180
G01 X16.7461 Y12.1180
G01 X16.6942 Y11.9394
G01 X16.6595 Y11.8075
G01 X16.7774 Y11.8075
G01 X16.8041 Y11.9089
G01 X16.8559 Y12.0876
G01 X16.8722 Y12.1389
G00 Z2.0000
G00 X17.0366 Y12.2765
G01 F60.00
G01 Z-0.0500
G01 F120.00
G01 X17.0204 Y12.2293
G01 X16.9650 Y12.0546
G01 X16.9140 Y11.8785
G01 X16.8953 Y11.8075
G01 X17.0155 Y11.8163
G01 X17.0239 Y11.8481
G01 X17.0741 Y12.0215
G01 X17.1286 Y12.1935
G01 X17.1873 Y12.3641
G01 X17.2246 Y12.4645
G00 Z2.0000
G00 X17.4264 Y12.6663
G01 F60.00
G01 Z-0.0500
G01 F120.00
G01 X17.3566 Y12.4923
G01 X17.2947 Y12.3257
G01 X17.2369 Y12.1577
G01 X17.1815 Y11.9823
G01 X17.3577 Y12.1585
G01 X17.4020 Y12.2873
G01 X17.4629 Y12.4512
G01 X17.5279 Y12.6136
G01 X17.5968 Y12.7743
G01 X17.6494 Y12.8893
G01 X17.9724 Y12.7732
G01 X17.9787 Y12.7871
G01 X18.0518 Y12.9367
G01 X18.1284 Y13.0845
G01 X18.2087 Y13.2303
G01 X18.2925 Y13.3742
G01 X18.3799 Y13.5159
G01 X18.4706 Y13.6554
G01 X18.5648 Y13.7927
G01 X18.6623 Y13.9276
G01 X18.7631 Y14.0601
G01 X18.8672 Y14.1901
G01 X18.9600 Y14.3004
G00 Z2.0000
G00 X18.9600 Y14.1234
G01 F60.00
G01 Z-0.0500
G01 F120.00
G01 X18.9553 Y14.1178
G01 X18.8530 Y13.9900
G01 X18.7539 Y13.8597
G01 X18.6580 Y13.7271
G01 X18.5654 Y13.5921
G01 X18.4762 Y13.4549
G01 X18.3903 Y13.3155
G01 X18.3079 Y13.1741
G01 X18.2280 Y13.0288
G01 X17.9007 Y13.1406
G01 X17.8481 Y13.0392
G01 X17.7726 Y12.8846
G01 X17.7010 Y12.7281
G01 X17.6332 Y12.5700
G01 X17.5693 Y12.4102
G01 X17.5456 Y12.3464
G01 X17.7482 Y12.5491
G01 X17.8052 Y12.6819
G01 X17.8757 Y12.8358
G01 X17.9499 Y12.9880
G01 X18.0279 Y13.1382
G01 X18.1095 Y13.2865
G01 X18.1978 Y13.4376
G01 X18.5395 Y13.3403
G01 X18.5725 Y13.3939
G01 X18.6602 Y13.5288
G01 X18.7512 Y13.6614
G01 X18.8455 Y13.7918
G01 X18.9429 Y13.9198
G01 X18.9600 Y13.9412
G01 X18.6495 Y14.0990
G01 X18.6733 Y14.1302
G01 X18.7791 Y14.2624
G01 X18.8880 Y14.3919
G01 X18.9867 Y14.5035
G00 Z2.0000
G00 X19.0765 Y14.6009
G01 F60.00
G01 Z-0.0500
G01 F120.00
G01 X19.1154 Y14.6428
G01 X19.2336 Y14.7639
G01 X19.3547 Y14.8821
G01 X19.4257 Y14.9480
G01 X19.2590 Y14.9480
G01 X19.1530 Y14.8445
G01 X19.0328 Y14.7214
G01 X18.9157 Y14.5953
G01 X18.8017 Y14.4664
G01 X18.6909 Y14.3347
G01 X18.6495 Y14.2830
G01 X18.6502 Y14.4634
G01 X18.7154 Y14.5409
G01 X18.8312 Y14.6719
G01 X18.9502 Y14.8000
G01 X19.0724 Y14.9251
G01 X19.0830 Y14.9355
G01 X19.2695 Y14.6375
G01 X19.3142 Y14.6833
G01 X19.4334 Y14.7996
G01 X19.5553 Y14.9129
G01 X19.5923 Y14.9456
G00 Z2.0000
G00 X19.7219 Y14.9080
G01 F60.00
G01 Z-0.0500
G01 F120.00
G01 X19.6319 Y14.8284
G01 X19.5120 Y14.7170
G01 X19.4305 Y14.6375
G00 Z2.0000
G00 X19.5812 Y14.6253
G01 F60.00
G01 Z-0.0500
G01 F120.00
G01 X19.5906 Y14.6344
G01 X19.7084 Y14.7439
G01 X19.8290 Y14.8505
G01 X19.8746 Y14.8889
G01 X20.1269 Y14.9480
G01 X20.0244 Y14.8660
G01 X19.9034 Y14.7642
G01 X19.7850 Y14.6595
G01 X19.6810 Y14.5629
G00 Z2.0000
G00 X20.7000 Y14.2386
G01 F60.00
G01 Z-0.0500
G01 F120.00
G01 X20.7089 Y14.2458
G01 X20.8169 Y14.3279
G01 X20.8600 Y14.3591
G01 X20.8115 Y14.4647
G01 X20.8612 Y14.5006
G01 X20.9007 Y14.5277
G00 Z2.0000
G00 X21.0585 Y14.6330
G01 F60.00
G01 Z-0.0500
G01 F120.00
G01 X21.0915 Y14.6545
G01 X21.2094 Y14.7272
G01 X21.3291 Y14.7969
G01 X21.4504 Y14.8637
G01 X21.5733 Y14.9275
G01 X21.6978 Y14.9882
G01 X21.8237 Y15.0459
G01 X21.8371 Y15.0516
G00 Z2.0000
G00 X21.7793 Y14.9002
G01 F60.00
G01 Z-0.0500
G01 F120.00
G01 X21.7466 Y14.8852
G01 X21.6246 Y14.8256
G01 X21.5042 Y14.7631
G01 X21.3853 Y14.6977
G01 X21.2820 Y14.6375
G00 Z2.0000
G00 X21.4866 Y14.6233
G01 F60.00
G01 Z-0.0500
G01 F120.00
G01 X21.5579 Y14.6626
G01 X21.6759 Y14.7238
G01 X21.7953 Y14.7821
G01 X21.8082 Y14.7880
G00 Z2.0000
G00 X21.8731 Y14.6923
G01 F60.00
G01 Z-0.0500
G01 F120.00
G01 X21.8440 Y14.6790
G01 X21.7271 Y14.6220
G01 X21.6116 Y14.5621
G01 X21.5917 Y14.5511
G00 Z2.0000
G00 X21.6432 Y14.4493
G01 F60.00
G01 Z-0.0500
G01 F120.00
G01 X21.6654 Y14.4615
G01 X21.7784 Y14.5202
G01 X21.8928 Y14.5760
G01 X21.9258 Y14.5911
G01 X21.9579 Y14.4804
G01 X21.9415 Y14.4729
G01 X21.8296 Y14.4183
G01 X21.7191 Y14.3610
G01 X21.6500 Y14.3229
G01 X21.6500 Y14.1923
G01 X21.6662 Y14.2018
G01 X21.7728 Y14.2604
G01 X21.8809 Y14.3165
G01 X21.9605 Y14.3554
G01 X21.9605 Y14.2285
G01 X21.9321 Y14.2147
G01 X21.8266 Y14.1599
G01 X21.7224 Y14.1026
G01 X21.6500 Y14.0604
G01 X21.6500 Y13.9275
G01 X21.6783 Y13.9449
G01 X21.7786 Y14.0034
G01 X21.8803 Y14.0594
G01 X21.9605 Y14.1010
G00 Z2.0000
G00 X21.9608 Y13.9727
G01 F60.00
G01 Z-0.0500
G01 F120.00
G01 X21.9341 Y13.9588
G01 X21.8348 Y13.9042
G01 X21.7369 Y13.8471
G01 X21.6500 Y13.7936
G01 X21.7126 Y13.6983
G01 X21.7955 Y13.7493
G01 X21.8910 Y13.8050
G01 X21.9951 Y13.8620
G00 Z2.0000
G00 X22.0749 Y13.7750
G01 F60.00
G01 Z-0.0500
G01 F120.00
G01 X22.0415 Y13.7577
G01 X21.9472 Y13.7058
G01 X21.8541 Y13.6516
G01 X21.7954 Y13.6154
G00 Z2.0000
G00 X21.8783 Y13.5326
G01 F60.00
G01 Z-0.0500
G01 F120.00
G01 X21.9127 Y13.5538
G01 X22.0034 Y13.6066
G01 X22.0953 Y13.6572
G01 X22.1594 Y13.6905
G01 X22.2440 Y13.6058
G01 X22.1490 Y13.5567
G01 X22.0596 Y13.5074
G01 X21.9713 Y13.4560
G01 X21.9611 Y13.4497
G01 X22.0443 Y13.3666
G01 X22.1157 Y13.4082
G01 X22.2028 Y13.4561
G01 X22.2909 Y13.5019
G01 X22.3293 Y13.5206
G00 Z2.0000
G00 X22.4145 Y13.4354
G01 F60.00
G01 Z-0.0500
G01 F120.00
G01 X22.3422 Y13.4000
G01 X22.2565 Y13.3556
G01 X22.1719 Y13.3090
G01 X22.1276 Y13.2832
G01 X22.2110 Y13.1999
G01 X22.2281 Y13.2099
G01 X22.3102 Y13.2551
G01 X22.3934 Y13.2982
G01 X22.4777 Y13.3393
G01 X22.5002 Y13.3497
G00 Z2.0000
G00 X22.5862 Y13.2637
G01 F60.00
G01 Z-0.0500
G01 F120.00
G01 X22.5264 Y13.2363
G01 X22.4447 Y13.1964
G01 X22.3640 Y13.1545
G01 X22.2945 Y13.1163
G00 Z2.0000
G00 X22.3785 Y13.0324
G01 F60.00
G01 Z-0.0500
G01 F120.00
G01 X22.4177 Y13.0540
G01 X22.4959 Y13.0946
G01 X22.5752 Y13.1332
G01 X22.6553 Y13.1699
G01 X22.6726 Y13.1773
G00 Z2.0000
G00 X22.7594 Y13.0905
G01 F60.00
G01 Z-0.0500
G01 F120.00
G01 X22.7015 Y13.0657
G01 X22.6239 Y13.0302
G01 X22.5472 Y12.9927
G01 X22.4624 Y12.9484
G00 Z2.0000
G00 X22.5468 Y12.8641
G01 F60.00
G01 Z-0.0500
G01 F120.00
G01 X22.5985 Y12.8909
G01 X22.6726 Y12.9271
G01 X22.7477 Y12.9615
G01 X22.8235 Y12.9940
G01 X22.8466 Y13.0032
G00 Z2.0000
G00 X22.9343 Y12.9155
G01 F60.00
G01 Z-0.0500
G01 F120.00
G01 X22.8672 Y12.8887
G01 X22.7939 Y12.8573
G01 X22.7214 Y12.8241
G01 X22.6497 Y12.7891
G01 X22.6313 Y12.7795
G00 Z2.0000
G00 X22.7162 Y12.6947
G01 F60.00
G01 Z-0.0500
G01 F120.00
G01 X22.7701 Y12.7210
G01 X22.8401 Y12.7530
G01 X22.9108 Y12.7834
G01 X22.9822 Y12.8119
G01 X23.0229 Y12.8270
G01 X23.1119 Y12.7380
G01 X23.0928 Y12.7314
G01 X23.0233 Y12.7056
G01 X22.9544 Y12.6780
G01 X22.8863 Y12.6488
G01 X22.8189 Y12.6179
G01 X22.8014 Y12.6094
G01 X22.8870 Y12.5238
G01 X22.9325 Y12.5446
G01 X22.9980 Y12.5727
G01 X23.0643 Y12.5992
G01 X23.1312 Y12.6241
G01 X23.2017 Y12.6482
G00 Z2.0000
G00 X23.2925 Y12.5574
G01 F60.00
G01 Z-0.0500
G01 F120.00
G01 X23.2344 Y12.5390
G01 X23.1696 Y12.5167
G01 X23.1053 Y12.4928
G01 X23.0417 Y12.4674
G01 X22.9730 Y12.4378
G00 Z2.0000
G00 X23.0597 Y12.3511
G01 F60.00
G01 Z-0.0500
G01 F120.00
G01 X23.0853 Y12.3621
G01 X23.1463 Y12.3865
G01 X23.2080 Y12.4094
G01 X23.2702 Y12.4308
G01 X23.3328 Y12.4506
G01 X23.3843 Y12.4656
G01 X23.4774 Y12.3725
G01 X23.4264 Y12.3591
G01 X23.3659 Y12.3415
G01 X23.3059 Y12.3225
G01 X23.2464 Y12.3021
G01 X23.1874 Y12.2801
G01 X23.1469 Y12.2639
G00 Z2.0000
G00 X23.2347 Y12.1761
G01 F60.00
G01 Z-0.0500
G01 F120.00
G01 X23.2848 Y12.1947
G01 X23.3417 Y12.2143
G01 X23.3990 Y12.2325
G01 X23.4568 Y12.2492
G01 X23.5150 Y12.2645
G01 X23.5718 Y12.2780
G00 Z2.0000
G00 X23.6682 Y12.1816
G01 F60.00
G01 Z-0.0500
G01 F120.00
G01 X23.6546 Y12.1791
G01 X23.5985 Y12.1672
G01 X23.5427 Y12.1540
G01 X23.4872 Y12.1393
G01 X23.4321 Y12.1234
G01 X23.3774 Y12.1060
G01 X23.3234 Y12.0875
G01 X23.4131 Y11.9978
G01 X23.4652 Y12.0143
G01 X23.5176 Y12.0295
G01 X23.5704 Y12.0434
G01 X23.6234 Y12.0560
G01 X23.6768 Y12.0673
G01 X23.7305 Y12.0773
G01 X23.7668 Y12.0831
G00 Z2.0000
G00 X23.8680 Y11.9819
G01 F60.00
G01 Z-0.0500
G01 F120.00
G01 X23.8523 Y11.9801
G01 X23.8010 Y11.9732
G01 X23.7499 Y11.9649
G01 X23.6991 Y11.9555
G01 X23.6484 Y11.9448
G01 X23.5981 Y11.9328
G01 X23.5480 Y11.9196
G01 X23.5040 Y11.9068
G01 X23.5964 Y11.8145
G01 X23.6258 Y11.8222
G01 X23.6734 Y11.8335
G01 X23.7213 Y11.8437
G01 X23.7694 Y11.8526
G01 X23.8178 Y11.8604
G01 X23.8663 Y11.8670
G01 X23.9150 Y11.8724
G01 X23.9727 Y11.8771
G00 Z2.0000
G00 X24.0822 Y11.7676
G01 F60.00
G01 Z-0.0500
G01 F120.00
G01 X24.0643 Y11.7674
G01 X24.0182 Y11.7657
G01 X23.9721 Y11.7629
G01 X23.9261 Y11.7589
G01 X23.8802 Y11.7539
G01 X23.8345 Y11.7476
G01 X23.7889 Y11.7403
G01 X23.7435 Y11.7319
G01 X23.6904 Y11.7204
G00 Z2.0000
G00 X23.7869 Y11.6240
G01 F60.00
G01 Z-0.0500
G01 F120.00
G01 X23.8084 Y11.6280
G01 X23.8512 Y11.6349
G01 X23.8942 Y11.6407
G01 X23.9373 Y11.6455
G01 X23.9805 Y11.6492
G01 X24.0238 Y11.6519
G01 X24.0671 Y11.6535
G01 X24.1105 Y11.6540
G01 X24.1539 Y11.6535
G01 X24.1981 Y11.6518
G01 X24.3238 Y11.5261
G01 X24.2725 Y11.5320
G01 X24.2321 Y11.5355
G01 X24.1916 Y11.5380
G01 X24.1511 Y11.5395
G01 X24.1105 Y11.5400
G01 X24.0699 Y11.5395
G01 X24.0294 Y11.5380
G01 X23.9889 Y11.5355
G01 X23.9485 Y11.5320
G01 X23.9082 Y11.5276
G01 X23.8863 Y11.5246
G00 Z2.0000
G00 X23.9897 Y11.4212
G01 F60.00
G01 Z-0.0500
G01 F120.00
G01 X24.0350 Y11.4241
G01 X24.0727 Y11.4255
G01 X24.1105 Y11.4260
G01 X24.1483 Y11.4255
G01 X24.1860 Y11.4241
G01 X24.2237 Y11.4218
G01 X24.2614 Y11.4186
G01 X24.2989 Y11.4144
G01 X24.3363 Y11.4093
G01 X24.3736 Y11.4033
G01 X24.4107 Y11.3964
G01 X24.4477 Y11.3886
G01 X24.4655 Y11.3844
G00 Z2.0000
G00 X24.6400 Y11.2098
G01 F60.00
G01 Z-0.0500
G01 F120.00
G01 X24.6234 Y11.2165
G01 X24.5906 Y11.2287
G01 X24.5575 Y11.2401
G01 X24.5242 Y11.2506
G01 X24.4906 Y11.2604
G01 X24.4568 Y11.2693
G01 X24.4227 Y11.2774
G01 X24.3885 Y11.2846
G01 X24.3541 Y11.2910
G01 X24.3196 Y11.2966
G01 X24.2849 Y11.3013
G01 X24.2502 Y11.3051
G01 X24.2153 Y11.3081
G01 X24.1804 Y11.3103
G01 X24.1455 Y11.3116
G01 X24.0990 Y11.3119
G00 Z2.0000
G00 X24.2173 Y11.1936
G01 F60.00
G01 Z-0.0500
G01 F120.00
G01 X24.2390 Y11.1917
G01 X24.2710 Y11.1881
G01 X24.3029 Y11.1838
G01 X24.3346 Y11.1787
G01 X24.3663 Y11.1728
G01 X24.3977 Y11.1661
G01 X24.4291 Y11.1587
G01 X24.4602 Y11.1505
G01 X24.4911 Y11.1415
G01 X24.5217 Y11.1318
G01 X24.5522 Y11.1214
G01 X24.5823 Y11.1101
G01 X24.6122 Y11.0982
G01 X24.6418 Y11.0855
G01 X24.6710 Y11.0721
G01 X24.6999 Y11.0580
G01 X24.7285 Y11.0432
G01 X24.7567 Y11.0277
G01 X24.7845 Y11.0115
G01 X24.8119 Y10.9946
G01 X24.8389 Y10.9771
G01 X24.8654 Y10.9588
G01 X24.8915 Y10.9400
G01 X24.9171 Y10.9205
G01 X24.9422 Y10.9004
G01 X24.9668 Y10.8797
G01 X24.9991 Y10.8508
G00 Z2.0000
G00 X25.0743 Y10.7756
G01 F60.00
G01 Z-0.0500
G01 F120.00
G01 X25.1032 Y10.7433
G01 X25.1239 Y10.7187
G01 X25.1440 Y10.6936
G01 X25.1635 Y10.6680
G01 X25.1824 Y10.6419
G01 X25.2006 Y10.6153
G01 X25.2181 Y10.5884
G01 X25.2350 Y10.5610
G01 X25.2512 Y10.5332
G01 X25.2667 Y10.5050
G01 X25.2815 Y10.4764
G01 X25.2956 Y10.4475
G01 X25.3090 Y10.4183
G01 X25.3217 Y10.3887
G01 X25.3337 Y10.3588
G01 X25.3449 Y10.3287
G01 X25.3553 Y10.2982
G01 X25.3651 Y10.2676
G01 X25.3740 Y10.2367
G01 X25.3822 Y10.2055
G01 X25.3896 Y10.1742
G01 X25.3963 Y10.1428
G01 X25.4022 Y10.1111
G01 X25.4073 Y10.0794
G01 X25.4116 Y10.0475
G01 X25.4152 Y10.0155
G01 X25.4171 Y9.9938
G01 X25.5355 Y9.8870
G01 X25.5354 Y9.8755
G01 X25.5355 Y9.8870
G01 X25.5355 Y9.8870
G01 X25.5351 Y9.9220
G01 X25.5338 Y9.9569
G01 X25.5316 Y9.9918
G01 X25.5286 Y10.0267
G01 X25.5248 Y10.0614
G01 X25.5201 Y10.0961
G01 X25.5145 Y10.1306
G01 X25.5081 Y10.1650
G01 X25.5009 Y10.1992
G01 X25.4928 Y10.2332
G01 X25.4839 Y10.2671
G01 X25.4741 Y10.3007
G01 X25.4636 Y10.3340
G01 X25.4522 Y10.3671
G01 X25.4400 Y10.3998
G01 X25.4333 Y10.4165
G00 Z2.0000
G00 X25.6079 Y10.2420
G01 F60.00
G01 Z-0.0500
G01 F120.00
G01 X25.6121 Y10.2242
G01 X25.6199 Y10.1872
G01 X25.6268 Y10.1501
G01 X25.6328 Y10.1128
G01 X25.6379 Y10.0754
G01 X25.6421 Y10.0378
G01 X25.6453 Y10.0002
G01 X25.6476 Y9.9625
G01 X25.6490 Y9.9248
G01 X25.6495 Y9.8870
G01 X25.6490 Y9.8492
G01 X25.6476 Y9.8115
G01 X25.6447 Y9.7662
G00 Z2.0000
G00 X25.7481 Y9.6627
G01 F60.00
G01 Z-0.0500
G01 F120.00
G01 X25.7511 Y9.6847
G01 X25.7555 Y9.7250
G01 X25.7590 Y9.7654
G01 X25.7615 Y9.8059
G01 X25.7630 Y9.8464
G01 X25.7635 Y9.8870
G01 X25.7630 Y9.9276
G01 X25.7615 Y9.9681
G01 X25.7590 Y10.0086
G01 X25.7555 Y10.0490
G01 X25.7496 Y10.1003
G00 Z2.0000
G00 X25.8753 Y9.9746
G01 F60.00
G01 Z-0.0500
G01 F120.00
G01 X25.8770 Y9.9304
G01 X25.8775 Y9.8870
G01 X25.8770 Y9.8436
G01 X25.8754 Y9.8003
G01 X25.8727 Y9.7570
G01 X25.8690 Y9.7138
G01 X25.8642 Y9.6707
G01 X25.8584 Y9.6277
G01 X25.8515 Y9.5849
G01 X25.8475 Y9.5634
G00 Z2.0000
G00 X25.9439 Y9.4669
G01 F60.00
G01 Z-0.0500
G01 F120.00
G01 X25.9554 Y9.5200
G01 X25.9638 Y9.5654
G01 X25.9711 Y9.6110
G01 X25.9774 Y9.6567
G01 X25.9824 Y9.7026
G01 X25.9864 Y9.7486
G01 X25.9892 Y9.7947
G01 X25.9909 Y9.8408
G01 X25.9912 Y9.8587
G00 Z2.0000
G00 X26.1007 Y9.7492
G01 F60.00
G01 Z-0.0500
G01 F120.00
G01 X26.0959 Y9.6915
G01 X26.0905 Y9.6428
G01 X26.0839 Y9.5943
G01 X26.0761 Y9.5459
G01 X26.0672 Y9.4978
G01 X26.0570 Y9.4499
G01 X26.0457 Y9.4023
G01 X26.0380 Y9.3729
G01 X26.1303 Y9.2805
G01 X26.1431 Y9.3245
G01 X26.1563 Y9.3746
G01 X26.1683 Y9.4249
G01 X26.1790 Y9.4756
G01 X26.1885 Y9.5264
G01 X26.1967 Y9.5775
G01 X26.2036 Y9.6288
G01 X26.2054 Y9.6445
G00 Z2.0000
G00 X26.3066 Y9.5433
G01 F60.00
G01 Z-0.0500
G01 F120.00
G01 X26.3008 Y9.5069
G01 X26.2908 Y9.4533
G01 X26.2795 Y9.3999
G01 X26.2669 Y9.3469
G01 X26.2530 Y9.2941
G01 X26.2378 Y9.2417
G01 X26.2213 Y9.1896
G00 Z2.0000
G00 X26.3110 Y9.0999
G01 F60.00
G01 Z-0.0500
G01 F120.00
G01 X26.3296 Y9.1539
G01 X26.3469 Y9.2086
G01 X26.3628 Y9.2637
G01 X26.3775 Y9.3192
G01 X26.3907 Y9.3750
G01 X26.4026 Y9.4311
G01 X26.4051 Y9.4447
G01 X26.5016 Y9.3483
G01 X26.4881 Y9.2915
G01 X26.4727 Y9.2333
G01 X26.4560 Y9.1755
G01 X26.4378 Y9.1182
G01 X26.4182 Y9.0613
G01 X26.3996 Y9.0112
G00 Z2.0000
G00 X26.4874 Y8.9234
G01 F60.00
G01 Z-0.0500
G01 F120.00
G01 X26.5036 Y8.9639
G01 X26.5256 Y9.0229
G01 X26.5460 Y9.0824
G01 X26.5651 Y9.1424
G01 X26.5826 Y9.2029
G01 X26.5960 Y9.2539
G01 X26.6891 Y9.1608
G01 X26.6741 Y9.1093
G01 X26.6543 Y9.0466
G01 X26.6329 Y8.9845
G01 X26.6100 Y8.9228
G01 X26.5856 Y8.8618
G01 X26.5746 Y8.8362
G00 Z2.0000
G00 X26.6613 Y8.7495
G01 F60.00
G01 Z-0.0500
G01 F120.00
G01 X26.6909 Y8.8182
G01 X26.7164 Y8.8818
G01 X26.7402 Y8.9461
G01 X26.7625 Y9.0109
G01 X26.7809 Y9.0690
G00 Z2.0000
G00 X26.8717 Y8.9781
G01 F60.00
G01 Z-0.0500
G01 F120.00
G01 X26.8476 Y8.9077
G01 X26.8227 Y8.8408
G01 X26.7962 Y8.7745
G01 X26.7681 Y8.7090
G01 X26.7473 Y8.6635
G01 X26.8329 Y8.5779
G01 X26.8415 Y8.5954
G01 X26.8723 Y8.6628
G01 X26.9015 Y8.7309
G01 X26.9291 Y8.7998
G01 X26.9549 Y8.8693
G01 X26.9615 Y8.8884
G00 Z2.0000
G00 X27.0505 Y8.7993
G01 F60.00
G01 Z-0.0500
G01 F120.00
G01 X27.0354 Y8.7587
G01 X27.0069 Y8.6873
G01 X26.9766 Y8.6166
G01 X26.9445 Y8.5466
G01 X26.9182 Y8.4927
G01 X27.0030 Y8.4078
G01 X27.0126 Y8.4262
G01 X27.0476 Y8.4979
G01 X27.0808 Y8.5704
G01 X27.1122 Y8.6437
G01 X27.1391 Y8.7108
G01 X27.2267 Y8.6231
G01 X27.2175 Y8.6000
G01 X27.1850 Y8.5242
G01 X27.1506 Y8.4491
G01 X27.1144 Y8.3750
G01 X27.0876 Y8.3233
G00 Z2.0000
G00 X27.1720 Y8.2389
G01 F60.00
G01 Z-0.0500
G01 F120.00
G01 X27.2162 Y8.3237
G01 X27.2537 Y8.4004
G01 X27.2892 Y8.4780
G01 X27.3140 Y8.5359
G00 Z2.0000
G00 X27.4008 Y8.4490
G01 F60.00
G01 Z-0.0500
G01 F120.00
G01 X27.3934 Y8.4318
G01 X27.3567 Y8.3516
G01 X27.3181 Y8.2724
G01 X27.2775 Y8.1942
G01 X27.2559 Y8.1550
G00 Z2.0000
G00 X27.3398 Y8.0710
G01 F60.00
G01 Z-0.0500
G01 F120.00
G01 X27.3780 Y8.1405
G01 X27.4199 Y8.2212
G01 X27.4598 Y8.3029
G01 X27.4872 Y8.3627
G01 X27.5732 Y8.2767
G01 X27.5628 Y8.2542
G01 X27.5217 Y8.1699
G01 X27.4786 Y8.0867
G01 X27.4334 Y8.0046
G01 X27.4234 Y7.9875
G00 Z2.0000
G00 X27.5067 Y7.9041
G01 F60.00
G01 Z-0.0500
G01 F120.00
G01 X27.5326 Y7.9484
G01 X27.5791 Y8.0330
G01 X27.6236 Y8.1187
G01 X27.6589 Y8.1910
G00 Z2.0000
G00 X27.7441 Y8.1058
G01 F60.00
G01 Z-0.0500
G01 F120.00
G01 X27.7254 Y8.0674
G01 X27.6796 Y7.9793
G01 X27.6317 Y7.8922
G01 X27.5901 Y7.8208
G00 Z2.0000
G00 X27.6732 Y7.7376
G01 F60.00
G01 Z-0.0500
G01 F120.00
G01 X27.6795 Y7.7478
G01 X27.7309 Y7.8360
G01 X27.7802 Y7.9255
G01 X27.8293 Y8.0205
G00 Z2.0000
G00 X27.9140 Y7.9359
G01 F60.00
G01 Z-0.0500
G01 F120.00
G01 X27.8807 Y7.8718
G01 X27.8301 Y7.7799
G01 X27.7773 Y7.6892
G01 X27.7561 Y7.6548
G00 Z2.0000
G00 X27.8389 Y7.5719
G01 F60.00
G01 Z-0.0500
G01 F120.00
G01 X27.8751 Y7.6306
G01 X27.9293 Y7.7237
G01 X27.9813 Y7.8180
G01 X27.9985 Y7.8513
G01 X28.0831 Y7.7668
G01 X28.0285 Y7.6675
G01 X27.9729 Y7.5720
G01 X27.9218 Y7.4891
G00 Z2.0000
G00 X28.0044 Y7.4065
G01 F60.00
G01 Z-0.0500
G01 F120.00
G01 X28.0112 Y7.4169
G01 X28.0706 Y7.5134
G01 X28.1277 Y7.6113
G01 X28.1671 Y7.6828
G00 Z2.0000
G00 X28.2510 Y7.5989
G01 F60.00
G01 Z-0.0500
G01 F120.00
G01 X28.2269 Y7.5551
G01 X28.1684 Y7.4548
G01 X28.1075 Y7.3559
G01 X28.0868 Y7.3241
G01 X28.1692 Y7.2417
G01 X28.2038 Y7.2949
G01 X28.2662 Y7.3962
G01 X28.3261 Y7.4989
G01 X28.3349 Y7.5150
G00 Z2.0000
G00 X28.4186 Y7.4313
G01 F60.00
G01 Z-0.0500
G01 F120.00
G01 X28.3640 Y7.3376
