(G-CODE GENERATED BY FLATCAM v8.994 - www.flatcam.org - Version Date: 2020/11/7)

(Name: rp2040-literal-bare-minimum-B_Cu.gbr_iso_combined_cnc)
(Type: G-code from Geometry)
(Units: MM)

(Created on Sunday, 27 July 2025 at 16:38)

(This preprocessor is the default preprocessor used by FlatCAM.)
(It is made to work with MACH3 compatible motion controllers.)

(TOOL DIAMETER: 0.19 mm)
(Feedrate_XY: 120.0 mm/min)
(Feedrate_Z: 60.0 mm/min)
(Feedrate rapids 1500.0 mm/min)

(Z_Cut: -0.05 mm)
(Z_Move: 2.0 mm)
(Z Start: None mm)
(Z End: 15.0 mm)
(X,Y End: None mm)
(Steps per circle: 64)
(Preprocessor Geometry: default)

(X range:   -0.0970 ...   51.1170  mm)
(Y range:   -0.0970 ...   22.7620  mm)

(Spindle Speed: 15000.0 RPM)
G21
G90
G94

G01 F120.00

M5
G00 Z15.0000
G00 X0.0000 Y0.0000
T1 M6    
(MSG, Change to Tool Dia = 0.1900)
M0
G00 Z15.0000

M03 S15000.0
G01 F120.00
G00 X-0.0970 Y0.1220
G01 F60.00
G01 Z-0.0500
G01 F120.00
G01 X-0.0963 Y0.1107
G01 X-0.0943 Y0.0996
G01 X-0.0720 Y0.0237
G01 X-0.0675 Y0.0128
G01 X-0.0629 Y0.0046
G01 X-0.0575 Y-0.0031
G01 X-0.0497 Y-0.0120
G01 X0.0101 Y-0.0641
G01 X0.0177 Y-0.0698
G01 X0.0280 Y-0.0757
G01 X0.0389 Y-0.0804
G01 X0.0503 Y-0.0836
G01 X0.1040 Y-0.0953
G01 X0.1130 Y-0.0966
G01 X0.1220 Y-0.0970
G01 X50.8980 Y-0.0970
G01 X50.9093 Y-0.0963
G01 X50.9226 Y-0.0938
G01 X50.9918 Y-0.0735
G01 X51.0029 Y-0.0694
G01 X51.0113 Y-0.0653
G01 X51.0193 Y-0.0603
G01 X51.0268 Y-0.0545
G01 X51.0337 Y-0.0480
G01 X51.0841 Y0.0101
G01 X51.0884 Y0.0158
G01 X51.0923 Y0.0217
G01 X51.0957 Y0.0280
G01 X51.0987 Y0.0344
G01 X51.1011 Y0.0411
G01 X51.1031 Y0.0480
G01 X51.1153 Y0.1040
G01 X51.1166 Y0.1130
G01 X51.1170 Y0.1220
G01 X51.1170 Y22.5430
G01 X51.1160 Y22.5565
G01 X51.1138 Y22.5676
G01 X51.0935 Y22.6368
G01 X51.0894 Y22.6479
G01 X51.0853 Y22.6563
G01 X51.0803 Y22.6643
G01 X51.0745 Y22.6718
G01 X51.0680 Y22.6787
G01 X51.0099 Y22.7291
G01 X51.0042 Y22.7334
G01 X50.9983 Y22.7373
G01 X50.9920 Y22.7407
G01 X50.9856 Y22.7437
G01 X50.9789 Y22.7461
G01 X50.9720 Y22.7481
G01 X50.9160 Y22.7603
G01 X50.9070 Y22.7616
G01 X50.8980 Y22.7620
G01 X0.1220 Y22.7620
G01 X0.1085 Y22.7610
G01 X0.0974 Y22.7588
G01 X0.0282 Y22.7385
G01 X0.0171 Y22.7344
G01 X0.0087 Y22.7303
G01 X0.0007 Y22.7253
G01 X-0.0068 Y22.7195
G01 X-0.0137 Y22.7130
G01 X-0.0641 Y22.6549
G01 X-0.0684 Y22.6492
G01 X-0.0723 Y22.6433
G01 X-0.0757 Y22.6370
G01 X-0.0787 Y22.6306
G01 X-0.0811 Y22.6239
G01 X-0.0831 Y22.6170
G01 X-0.0953 Y22.5610
G01 X-0.0966 Y22.5520
G01 X-0.0970 Y22.5430
G01 X-0.0970 Y0.1220
G00 Z2.0000
G00 X8.0750 Y6.7274
G01 F60.00
G01 Z-0.0500
G01 F120.00
G01 X8.1052 Y6.4590
G01 X8.1654 Y6.1957
G01 X8.2546 Y5.9407
G01 X8.3718 Y5.6973
G01 X8.5155 Y5.4686
G01 X8.5522 Y5.4226
G01 X8.7764 Y5.6468
G01 X8.7368 Y5.7005
G01 X8.6335 Y5.8729
G01 X8.5464 Y6.0565
G01 X8.5436 Y6.0629
G01 X8.4752 Y6.2544
G01 X8.4263 Y6.4492
G01 X8.4245 Y6.4584
G01 X8.3949 Y6.6595
G01 X8.3850 Y6.8625
G01 X8.3951 Y7.0678
G01 X8.4253 Y7.2712
G01 X8.4746 Y7.4684
G01 X8.4767 Y7.4751
G01 X8.5445 Y7.6642
G01 X8.6313 Y7.8480
G01 X8.7368 Y8.0245
G01 X8.7764 Y8.0782
G01 X8.5522 Y8.3024
G01 X8.5155 Y8.2564
G01 X8.3718 Y8.0277
G01 X8.2546 Y7.7843
G01 X8.1654 Y7.5293
G01 X8.1052 Y7.2660
G01 X8.0750 Y6.9976
G01 X8.0750 Y6.7274
G00 Z2.0000
G00 X9.2643 Y8.5661
G01 F60.00
G01 Z-0.0500
G01 F120.00
G01 X9.3180 Y8.6057
G01 X9.4904 Y8.7090
G01 X9.6740 Y8.7961
G01 X9.6804 Y8.7989
G01 X9.8719 Y8.8673
G01 X10.0667 Y8.9162
G01 X10.0759 Y8.9180
G01 X10.2770 Y8.9476
G01 X10.4800 Y8.9575
G01 X10.6853 Y8.9474
G01 X10.8887 Y8.9172
G01 X11.0859 Y8.8679
G01 X11.0926 Y8.8658
G01 X11.2817 Y8.7980
G01 X11.4655 Y8.7112
G01 X11.6420 Y8.6057
G01 X11.6957 Y8.5661
G01 X11.9199 Y8.7903
G01 X11.8739 Y8.8270
G01 X11.6452 Y8.9707
G01 X11.4018 Y9.0879
G01 X11.1468 Y9.1771
G01 X10.8835 Y9.2373
G01 X10.6151 Y9.2675
G01 X10.3449 Y9.2675
G01 X10.0765 Y9.2373
G01 X9.8132 Y9.1771
G01 X9.5582 Y9.0879
G01 X9.3148 Y8.9707
G01 X9.0861 Y8.8270
G01 X9.0401 Y8.7903
G01 X9.2643 Y8.5661
G00 Z2.0000
G00 X12.1836 Y8.0782
G01 F60.00
G01 Z-0.0500
G01 F120.00
G01 X12.2232 Y8.0245
G01 X12.3265 Y7.8521
G01 X12.4136 Y7.6685
G01 X12.4164 Y7.6621
G01 X12.4848 Y7.4706
G01 X12.5337 Y7.2758
G01 X12.5355 Y7.2666
G01 X12.5651 Y7.0655
G01 X12.5750 Y6.8625
G01 X12.5649 Y6.6572
G01 X12.5347 Y6.4538
G01 X12.4854 Y6.2566
G01 X12.4833 Y6.2499
G01 X12.4155 Y6.0608
G01 X12.3287 Y5.8770
G01 X12.2232 Y5.7005
G01 X12.1836 Y5.6468
G01 X12.4078 Y5.4226
G01 X12.4445 Y5.4686
G01 X12.5882 Y5.6973
G01 X12.7054 Y5.9407
G01 X12.7946 Y6.1957
G01 X12.8548 Y6.4590
G01 X12.8850 Y6.7274
G01 X12.8850 Y6.9976
G01 X12.8548 Y7.2660
G01 X12.7946 Y7.5293
G01 X12.7054 Y7.7843
G01 X12.5882 Y8.0277
G01 X12.4445 Y8.2564
G01 X12.4078 Y8.3024
G01 X12.1836 Y8.0782
G00 Z2.0000
G00 X13.8192 Y10.8574
G01 F60.00
G01 Z-0.0500
G01 F120.00
G01 X14.3031 Y10.3736
G01 X14.3137 Y10.3638
G01 X14.3209 Y10.3579
G01 X14.3346 Y10.3481
G01 X14.3491 Y10.3395
G01 X14.3642 Y10.3322
G01 X14.3800 Y10.3263
G01 X14.3889 Y10.3236
G01 X14.4029 Y10.3202
G01 X14.4196 Y10.3176
G01 X14.4410 Y10.3165
G01 X18.2615 Y10.3165
G01 X18.2806 Y10.3174
G01 X18.3018 Y10.3207
G01 X18.3181 Y10.3248
G01 X18.3318 Y10.3296
G01 X18.3383 Y10.3322
G01 X18.3534 Y10.3395
G01 X18.3679 Y10.3481
G01 X18.3737 Y10.3520
G01 X18.3852 Y10.3607
G01 X18.3978 Y10.3720
G01 X18.9941 Y10.9682
G01 X19.0013 Y10.9564
G01 X19.0142 Y10.9389
G01 X19.0318 Y10.9193
G01 X19.0460 Y10.9062
G01 X19.0532 Y10.9002
G01 X19.0689 Y10.8888
G01 X19.0855 Y10.8787
G01 X19.0937 Y10.8743
G01 X19.1112 Y10.8661
G01 X19.1361 Y10.8574
G01 X19.1549 Y10.8527
G01 X19.1618 Y10.8514
G01 X19.1810 Y10.8487
G01 X19.2003 Y10.8476
G01 X19.5050 Y10.8475
G01 X19.5290 Y10.8487
G01 X19.5505 Y10.8518
G01 X19.5739 Y10.8574
G01 X19.5944 Y10.8645
G01 X19.6009 Y10.8671
G01 X19.6163 Y10.8743
G01 X19.6245 Y10.8787
G01 X19.6430 Y10.8901
G01 X19.6622 Y10.9046
G01 X19.6782 Y10.9193
G01 X19.6958 Y10.9389
G01 X19.7087 Y10.9564
G01 X19.7199 Y10.9750
G01 X19.7295 Y10.9945
G01 X19.7330 Y11.0031
G01 X19.7395 Y11.0214
G01 X19.7453 Y11.0447
G01 X19.7488 Y11.0685
G01 X19.7499 Y11.0878
G01 X19.7500 Y12.1175
G01 X19.7488 Y12.1415
G01 X19.7448 Y12.1676
G01 X19.7395 Y12.1886
G01 X19.7330 Y12.2069
G01 X19.7295 Y12.2155
G01 X19.7211 Y12.2330
G01 X19.7087 Y12.2536
G01 X19.6973 Y12.2693
G01 X19.6913 Y12.2765
G01 X19.6782 Y12.2907
G01 X19.6604 Y12.3069
G01 X19.6449 Y12.3185
G01 X19.6372 Y12.3237
G01 X19.6205 Y12.3336
G01 X19.5988 Y12.3439
G01 X19.5805 Y12.3505
G01 X19.5716 Y12.3532
G01 X19.5505 Y12.3582
G01 X19.5290 Y12.3613
G01 X19.5050 Y12.3625
G01 X19.2050 Y12.3625
G01 X19.1787 Y12.3611
G01 X19.1572 Y12.3578
G01 X19.1339 Y12.3520
G01 X19.1112 Y12.3439
G01 X19.0937 Y12.3357
G01 X19.0855 Y12.3313
G01 X19.0670 Y12.3199
G01 X19.0496 Y12.3069
G01 X19.0334 Y12.2924
G01 X19.0171 Y12.2747
G01 X19.0040 Y12.2574
G01 X19.0000 Y12.2517
G01 X18.9912 Y12.2370
G01 X18.9868 Y12.2288
G01 X18.9786 Y12.2113
G01 X18.9705 Y12.1886
G01 X18.9647 Y12.1653
G01 X18.9612 Y12.1415
G01 X18.9600 Y12.1175
G01 X18.9600 Y11.4858
G01 X18.1807 Y10.7065
G01 X14.5218 Y10.7065
G01 X14.0951 Y11.1333
G01 X14.1293 Y11.1906
G01 X14.1669 Y11.2700
G01 X14.1965 Y11.3527
G01 X14.2168 Y11.4333
G01 X14.2186 Y11.4425
G01 X14.2301 Y11.5201
G01 X14.2310 Y11.5294
G01 X14.2350 Y11.6125
G01 X14.2307 Y11.7002
G01 X14.2178 Y11.7871
G01 X14.1965 Y11.8723
G01 X14.1669 Y11.9550
G01 X14.1314 Y12.0302
G01 X14.1270 Y12.0385
G01 X14.0867 Y12.1058
G01 X14.0815 Y12.1135
G01 X14.0318 Y12.1803
G01 X13.9729 Y12.2454
G01 X13.9078 Y12.3043
G01 X13.8372 Y12.3567
G01 X13.7619 Y12.4018
G01 X13.6868 Y12.4375
G01 X13.6782 Y12.4411
G01 X13.6042 Y12.4675
G01 X13.5953 Y12.4702
G01 X13.5146 Y12.4903
G01 X13.4277 Y12.5032
G01 X13.3400 Y12.5075
G01 X13.2569 Y12.5035
G01 X13.2476 Y12.5026
G01 X13.1700 Y12.4911
G01 X13.1608 Y12.4893
G01 X13.0802 Y12.4690
G01 X12.9975 Y12.4394
G01 X12.9181 Y12.4018
G01 X12.8447 Y12.3579
G01 X12.7722 Y12.3043
G01 X12.7071 Y12.2454
G01 X12.6482 Y12.1803
G01 X12.5958 Y12.1097
G01 X12.5507 Y12.0344
G01 X12.5131 Y11.9550
G01 X12.4835 Y11.8723
G01 X12.4622 Y11.7871
G01 X12.4493 Y11.7002
G01 X12.4450 Y11.6125
G01 X12.4493 Y11.5248
G01 X12.4622 Y11.4379
G01 X12.4835 Y11.3527
G01 X12.5131 Y11.2700
G01 X12.5507 Y11.1906
G01 X12.5946 Y11.1172
G01 X12.6482 Y11.0447
G01 X12.7071 Y10.9796
G01 X12.7722 Y10.9207
G01 X12.8428 Y10.8683
G01 X12.9181 Y10.8232
G01 X12.9975 Y10.7856
G01 X13.0802 Y10.7560
G01 X13.1631 Y10.7352
G01 X13.2523 Y10.7218
G01 X13.3400 Y10.7175
G01 X13.4277 Y10.7218
G01 X13.5146 Y10.7347
G01 X13.5998 Y10.7560
G01 X13.6825 Y10.7856
G01 X13.7619 Y10.8232
G01 X13.8192 Y10.8574
G00 Z2.0000
G00 X12.1345 Y11.5176
G01 F60.00
G01 Z-0.0500
G01 F120.00
G01 X12.1642 Y11.3302
G01 X12.2228 Y11.1497
G01 X12.3090 Y10.9807
G01 X12.4205 Y10.8272
G01 X12.5547 Y10.6930
G01 X12.7082 Y10.5815
G01 X12.8772 Y10.4953
G01 X13.0577 Y10.4367
G01 X13.2451 Y10.4070
G01 X13.4349 Y10.4070
G01 X13.6223 Y10.4367
G01 X13.6361 Y10.4409
G01 X13.6496 Y10.4432
G01 X13.7235 Y10.4469
G01 X13.7306 Y10.4466
G01 X13.7377 Y10.4458
G01 X13.7447 Y10.4445
G01 X13.7538 Y10.4419
G01 X13.7605 Y10.4394
G01 X13.7670 Y10.4364
G01 X13.8304 Y10.4018
G01 X13.8399 Y10.3958
G01 X13.8487 Y10.3887
G01 X14.1306 Y10.1070
G01 X14.2459 Y10.0404
G01 X14.3744 Y10.0060
G01 X18.3281 Y10.0060
G01 X18.4566 Y10.0404
G01 X18.5719 Y10.1070
G01 X18.9425 Y10.4775
G01 X18.9513 Y10.4850
G01 X18.9841 Y10.5092
G01 X18.9959 Y10.5160
G01 X19.0065 Y10.5203
G01 X19.0175 Y10.5233
G01 X19.0858 Y10.5376
G01 X19.0948 Y10.5391
G01 X19.1015 Y10.5396
G01 X19.1106 Y10.5395
G01 X19.1430 Y10.5370
G01 X19.5670 Y10.5370
G01 X19.5904 Y10.5388
G01 X19.7311 Y10.5797
G01 X19.7458 Y10.5850
G01 X19.7541 Y10.5870
G01 X19.7991 Y10.6003
G01 X19.8083 Y10.6025
G01 X19.8199 Y10.6039
G01 X19.8270 Y10.6041
G01 X19.8341 Y10.6037
G01 X19.8411 Y10.6029
G01 X19.8480 Y10.6015
G01 X19.9120 Y10.5861
G01 X19.9188 Y10.5841
G01 X19.9278 Y10.5806
G01 X19.9600 Y10.5712
G01 X19.9600 Y10.7107
G01 X19.9604 Y10.7199
G01 X19.9618 Y10.7290
G01 X19.9806 Y10.7989
G01 X19.9835 Y10.8076
G01 X19.9862 Y10.8140
G01 X19.9893 Y10.8202
G01 X20.0189 Y10.8701
G01 X20.0235 Y10.8859
G01 X20.0170 Y10.8901
G01 X20.0014 Y10.9017
G01 X19.9818 Y10.9193
G01 X19.9656 Y10.9371
G01 X19.9540 Y10.9526
G01 X19.9488 Y10.9603
G01 X19.9389 Y10.9770
G01 X19.9305 Y10.9945
G01 X19.9278 Y11.0009
G01 X19.9213 Y11.0192
G01 X19.9147 Y11.0447
G01 X19.9110 Y11.0708
G01 X19.9100 Y11.0925
G01 X19.9100 Y12.1175
G01 X19.9112 Y12.1415
G01 X19.9139 Y12.1607
G01 X19.9152 Y12.1676
G01 X19.9193 Y12.1841
G01 X19.9220 Y12.1930
G01 X19.9286 Y12.2113
G01 X19.9368 Y12.2288
G01 X19.9412 Y12.2370
G01 X19.9513 Y12.2536
G01 X19.9627 Y12.2693
G01 X19.9687 Y12.2765
G01 X19.9818 Y12.2907
G01 X19.9960 Y12.3038
G01 X20.0032 Y12.3098
G01 X20.0189 Y12.3212
G01 X20.0416 Y12.3346
G01 X20.0612 Y12.3439
G01 X20.0795 Y12.3505
G01 X20.0861 Y12.3526
G01 X20.1049 Y12.3573
G01 X20.1310 Y12.3613
G01 X20.1550 Y12.3625
G01 X20.4550 Y12.3625
G01 X20.4744 Y12.3617
G01 X20.4836 Y12.3607
G01 X20.5028 Y12.3578
G01 X20.5261 Y12.3520
G01 X20.5488 Y12.3439
G01 X20.5705 Y12.3336
G01 X20.5872 Y12.3237
G01 X20.5949 Y12.3185
G01 X20.6104 Y12.3069
G01 X20.6249 Y12.2940
G01 X20.6315 Y12.2874
G01 X20.6444 Y12.2729
G01 X20.6560 Y12.2574
G01 X20.6612 Y12.2497
G01 X20.6711 Y12.2330
G01 X20.6795 Y12.2155
G01 X20.6830 Y12.2069
G01 X20.6895 Y12.1886
G01 X20.6943 Y12.1698
G01 X20.6961 Y12.1607
G01 X20.6988 Y12.1415
G01 X20.7000 Y12.1198
G01 X20.7000 Y11.0925
G01 X20.6990 Y11.0708
G01 X20.6953 Y11.0447
G01 X20.6887 Y11.0192
G01 X20.6822 Y11.0009
G01 X20.6795 Y10.9945
G01 X20.6711 Y10.9770
G01 X20.6612 Y10.9603
G01 X20.6560 Y10.9526
G01 X20.6444 Y10.9371
G01 X20.6282 Y10.9193
G01 X20.6086 Y10.9017
G01 X20.5930 Y10.8901
G01 X20.5865 Y10.8859
G01 X20.5911 Y10.8701
G01 X20.6135 Y10.8324
G01 X20.8596 Y10.5862
G01 X20.8682 Y10.5837
G01 X20.8789 Y10.5797
G01 X21.0196 Y10.5388
G01 X21.0430 Y10.5370
G01 X21.4670 Y10.5370
G01 X21.5041 Y10.5397
G01 X21.5517 Y10.5366
G01 X21.5607 Y10.5351
G01 X21.5695 Y10.5328
G01 X21.5759 Y10.5304
G01 X21.5842 Y10.5267
G01 X21.6495 Y10.4910
G01 X21.6571 Y10.4861
G01 X21.6659 Y10.4790
G01 X28.7268 Y3.4183
G01 X28.7362 Y3.4078
G01 X28.7404 Y3.4020
G01 X28.7442 Y3.3959
G01 X28.7788 Y3.3270
G01 X28.7824 Y3.3183
G01 X28.7856 Y3.3070
G01 X28.7872 Y3.2977
G01 X28.7878 Y3.2883
G01 X28.7873 Y3.2765
G01 X28.7798 Y3.2070
G01 X28.7779 Y3.1959
G01 X28.7740 Y3.1829
G01 X28.7374 Y3.0945
G01 X28.7045 Y2.9293
G01 X28.7045 Y2.7607
G01 X28.7374 Y2.5955
G01 X28.8019 Y2.4398
G01 X28.8955 Y2.2996
G01 X29.0147 Y2.1805
G01 X29.1548 Y2.0869
G01 X29.3105 Y2.0224
G01 X29.4757 Y1.9895
G01 X29.6443 Y1.9895
G01 X29.6580 Y1.9920
G01 X29.6701 Y1.9926
G01 X29.7336 Y1.9905
G01 X29.7432 Y1.9892
G01 X29.7503 Y1.9876
G01 X29.8802 Y1.9527
G01 X30.0568 Y1.9526
G01 X30.0952 Y1.9484
G01 X30.1119 Y1.9443
G01 X30.1210 Y1.9413
G01 X30.1276 Y1.9385
G01 X30.1339 Y1.9351
G01 X30.1610 Y1.9179
G01 X30.1888 Y1.9025
G01 X30.1963 Y1.8975
G01 X30.2033 Y1.8917
G01 X30.4882 Y1.6070
G01 X30.6034 Y1.5404
G01 X30.7320 Y1.5060
G01 X32.5584 Y1.5060
G01 X32.6870 Y1.5404
G01 X32.8022 Y1.6070
G01 X34.0631 Y2.8679
G01 X34.0706 Y2.8747
G01 X34.0931 Y2.8927
G01 X34.1008 Y2.8980
G01 X34.1089 Y2.9025
G01 X34.1153 Y2.9054
G01 X34.1219 Y2.9078
G01 X34.1912 Y2.9282
G01 X34.2000 Y2.9303
G01 X34.2112 Y2.9318
G01 X34.5529 Y2.9320
G01 X34.5605 Y2.9317
G01 X34.5963 Y2.9276
G01 X34.6076 Y2.9248
G01 X34.6185 Y2.9207
G01 X34.6881 Y2.8830
G01 X34.6957 Y2.8781
G01 X34.7027 Y2.8725
G01 X34.7279 Y2.8577
G01 X34.7706 Y2.8831
G01 X34.8189 Y2.9060
G01 X34.8693 Y2.9240
G01 X34.9166 Y2.9360
G01 X34.9258 Y2.9378
G01 X34.9695 Y2.9443
G01 X34.9787 Y2.9452
G01 X35.0275 Y2.9475
G01 X35.0809 Y2.9449
G01 X35.1338 Y2.9370
G01 X35.1812 Y2.9253
G01 X35.1901 Y2.9226
G01 X35.2382 Y2.9051
G01 X35.2844 Y2.8831
G01 X35.3322 Y2.8543
G01 X35.3696 Y2.8267
G01 X35.3768 Y2.8207
G01 X35.4129 Y2.7879
G01 X35.4365 Y2.7620
G01 X35.4679 Y2.7620
G01 X35.4906 Y2.7638
G01 X35.6239 Y2.8025
G01 X35.7414 Y2.8720
G01 X35.8380 Y2.9686
G01 X35.9075 Y3.0861
G01 X35.9462 Y3.2195
G01 X35.9480 Y3.2421
G01 X35.9480 Y3.6329
G01 X35.9462 Y3.6555
G01 X35.9075 Y3.7889
G01 X35.8784 Y3.8381
G01 X35.8752 Y3.8444
G01 X35.8725 Y3.8509
G01 X35.8518 Y3.9206
G01 X35.8505 Y3.9274
G01 X35.8496 Y3.9342
G01 X35.8492 Y3.9457
G01 X35.8500 Y3.9549
G01 X35.8516 Y3.9640
G01 X35.8712 Y4.0405
G01 X35.8744 Y4.0489
G01 X35.8785 Y4.0570
G01 X35.9075 Y4.1061
G01 X35.9462 Y4.2395
G01 X35.9480 Y4.2621
G01 X35.9480 Y4.6529
G01 X35.9462 Y4.6755
G01 X35.9075 Y4.8089
G01 X35.8380 Y4.9264
G01 X35.7886 Y4.9759
G01 X35.7673 Y5.0023
G01 X35.7608 Y5.0119
G01 X35.7555 Y5.0223
G01 X35.7515 Y5.0333
G01 X35.7312 Y5.1025
G01 X35.7293 Y5.1113
G01 X35.7281 Y5.1226
G01 X35.7280 Y7.7916
G01 X35.6936 Y7.9201
G01 X35.6270 Y8.0354
G01 X35.5329 Y8.1295
G01 X35.4176 Y8.1961
G01 X35.2891 Y8.2305
G01 X34.5948 Y8.2305
G01 X34.5846 Y8.2310
G01 X34.5424 Y8.2370
G01 X34.5355 Y8.2387
G01 X34.5289 Y8.2409
G01 X34.5182 Y8.2456
G01 X34.4526 Y8.2858
G01 X34.4467 Y8.2898
G01 X34.4394 Y8.2957
G01 X34.4343 Y8.3006
G01 X34.4281 Y8.3077
G01 X34.4239 Y8.3134
G01 X34.4201 Y8.3194
G01 X34.4168 Y8.3256
G01 X34.3848 Y8.3930
G01 X34.3823 Y8.3996
G01 X34.3803 Y8.4064
G01 X34.3788 Y8.4133
G01 X34.3778 Y8.4203
G01 X34.3774 Y8.4297
G01 X34.3779 Y8.4392
G01 X34.3875 Y8.5155
G01 X34.3890 Y8.5224
G01 X34.3918 Y8.5314
G01 X34.3955 Y8.5401
G01 X34.3988 Y8.5464
G01 X34.4025 Y8.5524
G01 X34.4067 Y8.5581
G01 X34.4575 Y8.6186
G01 X34.4676 Y8.6276
G01 X34.4842 Y8.6390
G01 X34.6033 Y8.7582
G01 X34.6970 Y8.8983
G01 X34.7136 Y8.9383
G01 X34.7176 Y8.9469
G01 X34.7364 Y8.9798
G01 X34.7403 Y8.9854
G01 X34.7461 Y8.9925
G01 X34.7509 Y8.9975
G01 X34.7579 Y9.0035
G01 X34.8214 Y9.0508
G01 X34.8318 Y9.0565
G01 X34.8405 Y9.0601
G01 X34.8495 Y9.0628
G01 X34.8587 Y9.0647
G01 X34.8658 Y9.0654
G01 X34.9425 Y9.0707
G01 X34.9496 Y9.0704
G01 X34.9590 Y9.0692
G01 X34.9682 Y9.0671
G01 X34.9771 Y9.0641
G01 X34.9878 Y9.0591
G01 X35.0549 Y9.0221
G01 X35.0623 Y9.0169
G01 X35.0691 Y9.0109
G01 X35.1087 Y8.9714
G01 X35.2240 Y8.9048
G01 X35.3526 Y8.8704
G01 X42.5890 Y8.8704
G01 X42.5992 Y8.8698
G01 X42.6325 Y8.8660
G01 X42.6438 Y8.8632
G01 X42.6546 Y8.8591
G01 X42.7242 Y8.8213
G01 X42.7336 Y8.8151
G01 X42.7439 Y8.8062
G01 X43.3939 Y8.1562
G01 X43.3987 Y8.1507
G01 X43.4031 Y8.1449
G01 X43.4334 Y8.0986
G01 X43.4379 Y8.0905
G01 X43.4416 Y8.0819
G01 X43.4445 Y8.0730
G01 X43.4464 Y8.0639
G01 X43.4535 Y7.9874
G01 X43.4539 Y7.9783
G01 X43.4534 Y7.9693
G01 X43.4525 Y7.9626
G01 X43.4295 Y7.8468
G01 X43.4295 Y7.6782
G01 X43.4624 Y7.5130
G01 X43.5269 Y7.3573
G01 X43.6205 Y7.2171
G01 X43.7397 Y7.0980
G01 X43.8798 Y7.0044
G01 X44.0355 Y6.9399
G01 X44.2007 Y6.9070
G01 X44.3693 Y6.9070
G01 X44.5053 Y6.9341
G01 X44.5166 Y6.9360
G01 X44.5257 Y6.9369
G01 X44.5348 Y6.9369
G01 X44.5416 Y6.9363
G01 X44.6154 Y6.9257
G01 X44.6268 Y6.9230
G01 X44.6379 Y6.9190
G01 X44.6443 Y6.9159
G01 X44.6504 Y6.9123
G01 X44.6599 Y6.9054
G01 X44.7145 Y6.8581
G01 X44.7213 Y6.8516
G01 X44.7275 Y6.8444
G01 X44.7329 Y6.8367
G01 X44.7375 Y6.8284
G01 X44.7412 Y6.8198
G01 X44.7638 Y6.7439
G01 X44.7663 Y6.7305
G01 X44.7670 Y6.7193
G01 X44.7670 Y4.9476
G01 X44.7665 Y4.9374
G01 X44.7633 Y4.9087
G01 X44.7617 Y4.8996
G01 X44.7598 Y4.8928
G01 X44.7575 Y4.8862
G01 X44.7547 Y4.8798
G01 X44.7191 Y4.8144
G01 X44.7131 Y4.8048
G01 X44.7075 Y4.7977
G01 X44.7029 Y4.7927
G01 X44.6080 Y4.6978
G01 X44.5144 Y4.5577
G01 X44.4499 Y4.4020
G01 X44.4170 Y4.2368
G01 X44.4170 Y4.0682
G01 X44.4499 Y3.9030
G01 X44.5144 Y3.7473
G01 X44.6080 Y3.6071
G01 X44.7272 Y3.4880
G01 X44.8673 Y3.3944
G01 X45.0230 Y3.3299
G01 X45.1882 Y3.2970
G01 X45.3568 Y3.2970
G01 X45.5220 Y3.3299
G01 X45.6777 Y3.3944
G01 X45.8179 Y3.4880
G01 X45.9370 Y3.6072
G01 X46.0306 Y3.7473
G01 X46.0951 Y3.9030
G01 X46.1280 Y4.0682
G01 X46.1280 Y4.2368
G01 X46.0951 Y4.4020
G01 X46.0306 Y4.5577
G01 X45.9370 Y4.6978
G01 X45.8404 Y4.7945
G01 X45.8173 Y4.8228
G01 X45.8108 Y4.8324
G01 X45.8055 Y4.8428
G01 X45.8015 Y4.8538
G01 X45.7812 Y4.9230
G01 X45.7793 Y4.9318
G01 X45.7781 Y4.9431
G01 X45.7780 Y11.9191
G01 X45.7436 Y12.0476
G01 X45.6770 Y12.1629
G01 X42.9386 Y14.9014
G01 X42.9159 Y14.9296
G01 X42.9108 Y14.9374
G01 X42.9064 Y14.9457
G01 X42.9037 Y14.9522
G01 X42.9015 Y14.9588
G01 X42.8812 Y15.0280
G01 X42.8790 Y15.0391
G01 X42.8780 Y15.0503
G01 X42.8780 Y15.1868
G01 X42.8451 Y15.3520
G01 X42.7806 Y15.5077
G01 X42.6870 Y15.6478
G01 X42.5678 Y15.7670
G01 X42.4277 Y15.8606
G01 X42.2720 Y15.9251
G01 X42.1068 Y15.9580
G01 X41.9382 Y15.9580
G01 X41.7730 Y15.9251
G01 X41.6173 Y15.8606
G01 X41.4771 Y15.7670
G01 X41.3580 Y15.6478
G01 X41.2644 Y15.5077
G01 X41.1999 Y15.3520
G01 X41.1670 Y15.1868
G01 X41.1670 Y15.0182
G01 X41.1999 Y14.8530
G01 X41.2644 Y14.6973
G01 X41.3580 Y14.5571
G01 X41.4772 Y14.4380
G01 X41.6173 Y14.3444
G01 X41.7730 Y14.2799
G01 X41.9382 Y14.2470
G01 X42.0749 Y14.2470
G01 X42.1112 Y14.2433
G01 X42.1227 Y14.2411
G01 X42.1337 Y14.2375
G01 X42.1443 Y14.2325
G01 X42.2076 Y14.1980
G01 X42.2170 Y14.1917
G01 X42.2240 Y14.1860
G01 X44.7029 Y11.7073
G01 X44.7097 Y11.6997
G01 X44.7277 Y11.6772
G01 X44.7318 Y11.6715
G01 X44.7354 Y11.6655
G01 X44.7395 Y11.6572
G01 X44.7428 Y11.6484
G01 X44.7638 Y11.5770
G01 X44.7660 Y11.5659
G01 X44.7670 Y11.5524
G01 X44.7670 Y8.8057
G01 X44.7667 Y8.7943
G01 X44.7661 Y8.7875
G01 X44.7635 Y8.7740
G01 X44.7382 Y8.7016
G01 X44.7346 Y8.6929
G01 X44.7289 Y8.6825
G01 X44.7235 Y8.6748
G01 X44.7174 Y8.6677
G01 X44.7123 Y8.6627
G01 X44.7069 Y8.6582
G01 X44.6517 Y8.6153
G01 X44.6440 Y8.6099
G01 X44.6357 Y8.6053
G01 X44.6249 Y8.6007
G01 X44.6135 Y8.5975
G01 X44.6019 Y8.5957
G01 X44.5300 Y8.5893
G01 X44.5187 Y8.5893
G01 X44.5097 Y8.5902
G01 X44.4252 Y8.6069
G01 X44.4154 Y8.6092
G01 X44.3744 Y8.6239
G01 X44.3657 Y8.6280
G01 X44.3575 Y8.6329
G01 X44.3498 Y8.6386
G01 X44.3401 Y8.6477
G01 X44.3308 Y8.6529
G01 X44.3251 Y8.6566
G01 X44.3180 Y8.6622
G01 X44.3131 Y8.6668
G01 X43.1995 Y9.7804
G01 X43.0842 Y9.8469
G01 X42.9557 Y9.8814
G01 X35.7141 Y9.8815
G01 X35.6781 Y9.8854
G01 X35.6667 Y9.8879
G01 X35.6579 Y9.8909
G01 X35.6473 Y9.8958
G01 X35.5860 Y9.9293
G01 X35.5746 Y9.9366
G01 X35.5644 Y9.9455
G01 X35.2654 Y10.2445
G01 X35.1501 Y10.3111
G01 X35.0216 Y10.3455
G01 X34.2588 Y10.3455
G01 X34.1302 Y10.3111
G01 X34.0150 Y10.2445
G01 X33.9859 Y10.2155
G01 X33.9789 Y10.2091
G01 X33.9604 Y10.1959
G01 X33.9540 Y10.1923
G01 X33.9474 Y10.1892
G01 X33.8839 Y10.1655
G01 X33.8746 Y10.1626
G01 X33.8674 Y10.1610
G01 X33.8592 Y10.1599
G01 X33.6893 Y10.1261
G01 X33.5336 Y10.0616
G01 X33.3935 Y9.9680
G01 X33.2743 Y9.8488
G01 X33.1807 Y9.7087
G01 X33.1162 Y9.5530
G01 X33.0833 Y9.3878
G01 X33.0833 Y9.2511
G01 X33.0828 Y9.2434
G01 X33.0790 Y9.2102
G01 X33.0774 Y9.2033
G01 X33.0754 Y9.1966
G01 X33.0710 Y9.1859
G01 X33.0354 Y9.1204
G01 X33.0307 Y9.1127
G01 X33.0253 Y9.1054
G01 X33.0192 Y9.0987
G01 X32.4355 Y8.5150
G01 X32.4077 Y8.4674
G01 X32.4022 Y8.4600
G01 X32.3876 Y8.4437
G01 X32.3594 Y8.4187
G01 X32.3535 Y8.4140
G01 X32.2946 Y8.3745
G01 X32.1755 Y8.2553
G01 X32.0819 Y8.1152
G01 X32.0174 Y7.9595
G01 X31.9845 Y7.7943
G01 X31.9845 Y7.6257
G01 X32.0174 Y7.4605
G01 X32.0819 Y7.3048
G01 X32.1755 Y7.1647
G01 X32.2605 Y7.0796
G01 X32.2651 Y7.0747
G01 X32.2707 Y7.0676
G01 X32.3017 Y7.0195
G01 X32.3065 Y7.0112
G01 X32.3104 Y7.0026
G01 X32.3133 Y6.9936
G01 X32.3154 Y6.9843
G01 X32.3166 Y6.9749
G01 X32.3218 Y6.8981
G01 X32.3213 Y6.8887
G01 X32.3203 Y6.8817
G01 X32.3188 Y6.8748
G01 X32.3160 Y6.8658
G01 X32.3113 Y6.8550
G01 X32.2942 Y6.8235
G01 X32.2903 Y6.8119
G01 X32.2853 Y6.8014
G01 X32.2817 Y6.7954
G01 X32.2764 Y6.7882
G01 X32.2104 Y6.6737
G01 X32.2030 Y6.6628
G01 X32.1795 Y6.6329
G01 X32.1730 Y6.6258
G01 X32.1658 Y6.6195
G01 X32.1570 Y6.6131
G01 X32.1483 Y6.6054
G01 X32.1325 Y6.5945
G01 X32.0133 Y6.4754
G01 X31.9843 Y6.4324
G01 X31.9614 Y6.4053
G01 X31.9547 Y6.3986
G01 X31.9454 Y6.3911
G01 X31.9352 Y6.3848
G01 X31.8706 Y6.3525
G01 X31.8642 Y6.3495
G01 X31.8576 Y6.3471
G01 X31.8485 Y6.3446
G01 X31.8415 Y6.3434
G01 X31.8321 Y6.3425
G01 X31.8250 Y6.3425
G01 X31.7463 Y6.3507
G01 X31.7352 Y6.3528
G01 X31.7259 Y6.3557
G01 X31.5602 Y6.3887
G01 X31.3917 Y6.3887
G01 X31.2264 Y6.3558
G01 X31.0707 Y6.2913
G01 X30.9306 Y6.1977
G01 X30.8114 Y6.0785
G01 X30.7178 Y5.9384
G01 X30.6533 Y5.7827
G01 X30.6204 Y5.6175
G01 X30.6204 Y5.4489
G01 X30.6533 Y5.2836
G01 X30.7178 Y5.1280
G01 X30.8114 Y4.9878
G01 X30.8190 Y4.9803
G01 X30.8302 Y4.9867
G01 X30.8764 Y5.0085
G01 X30.9268 Y5.0265
G01 X30.9787 Y5.0395
G01 X31.0339 Y5.0476
G01 X31.0850 Y5.0500
G01 X31.1338 Y5.0477
G01 X31.1430 Y5.0468
G01 X31.1867 Y5.0403
G01 X31.1959 Y5.0385
G01 X31.2432 Y5.0265
G01 X31.2892 Y5.0102
G01 X31.2978 Y5.0066
G01 X31.3419 Y4.9856
G01 X31.3878 Y4.9582
G01 X31.4307 Y4.9263
G01 X31.4720 Y4.8887
G01 X31.5063 Y4.8507
G01 X31.5394 Y4.8058
G01 X31.5667 Y4.7598
G01 X31.5876 Y4.7157
G01 X31.5987 Y4.6854
G01 X31.6242 Y4.6903
G01 X31.6338 Y4.6912
G01 X31.6411 Y4.6912
G01 X31.6974 Y4.6894
G01 X31.7070 Y4.6886
G01 X31.7165 Y4.6868
G01 X31.7626 Y4.6745
G01 X32.0075 Y4.6744
G01 X32.0165 Y4.6735
G01 X32.0232 Y4.6723
G01 X32.0747 Y4.6611
G01 X32.0839 Y4.6586
G01 X32.0927 Y4.6553
G01 X32.0991 Y4.6522
G01 X32.1073 Y4.6473
G01 X32.1131 Y4.6431
G01 X32.1713 Y4.5928
G01 X32.1779 Y4.5861
G01 X32.1839 Y4.5788
G01 X32.1879 Y4.5729
G01 X32.1914 Y4.5668
G01 X32.1945 Y4.5604
G01 X32.1970 Y4.5538
G01 X32.2198 Y4.4757
G01 X32.2213 Y4.4668
G01 X32.2220 Y4.4578
G01 X32.2219 Y4.3275
G01 X32.2210 Y4.3185
G01 X32.2156 Y4.2812
G01 X32.2142 Y4.2742
G01 X32.2122 Y4.2673
G01 X32.2075 Y4.2557
G01 X32.2037 Y4.2444
G01 X32.2007 Y4.2380
G01 X32.1973 Y4.2317
G01 X32.1906 Y4.2219
G01 X32.1747 Y4.2034
G01 X32.1628 Y4.1850
G01 X32.1586 Y4.1793
G01 X32.1507 Y4.1705
G01 X32.1418 Y4.1628
G01 X32.1338 Y4.1573
G01 X32.1281 Y4.1525
G01 X32.1224 Y4.1484
G01 X32.1163 Y4.1447
G01 X32.1100 Y4.1415
G01 X32.0991 Y4.1372
G01 X32.0780 Y4.1310
G01 X32.0579 Y4.1219
G01 X32.0468 Y4.1179
G01 X32.0400 Y4.1162
G01 X32.0330 Y4.1151
G01 X32.0260 Y4.1144
G01 X32.0186 Y4.1143
G01 X32.0075 Y4.1131
G01 X31.4632 Y4.1130
G01 X31.4307 Y4.0837
G01 X31.3878 Y4.0518
G01 X31.3419 Y4.0244
G01 X31.2978 Y4.0034
G01 X31.2892 Y3.9998
G01 X31.2476 Y3.9849
G01 X31.2387 Y3.9822
G01 X31.1913 Y3.9705
G01 X31.1430 Y3.9632
G01 X31.1338 Y3.9623
G01 X31.0850 Y3.9600
G01 X31.0316 Y3.9626
G01 X30.9787 Y3.9705
G01 X30.9246 Y3.9842
G01 X30.8764 Y4.0015
G01 X30.8323 Y4.0223
G01 X30.8240 Y4.0267
G01 X30.7862 Y4.0494
G01 X30.7784 Y4.0545
G01 X30.7393 Y4.0837
G01 X30.7068 Y4.1130
G01 X30.1848 Y4.1130
G01 X30.1754 Y4.1135
G01 X30.1355 Y4.1187
G01 X30.1244 Y4.1216
G01 X30.1138 Y4.1259
G01 X30.1057 Y4.1302
G01 X30.0436 Y4.1670
G01 X30.0377 Y4.1710
G01 X30.0322 Y4.1754
G01 X30.0237 Y4.1836
G01 X30.0164 Y4.1928
G01 X30.0102 Y4.2029
G01 X29.9758 Y4.2717
G01 X29.9725 Y4.2805
G01 X29.9700 Y4.2896
G01 X29.9684 Y4.2989
G01 X29.9678 Y4.3084
G01 X29.9683 Y4.3201
G01 X29.9758 Y4.3896
G01 X29.9777 Y4.4007
G01 X29.9817 Y4.4137
G01 X30.0105 Y4.4833
G01 X30.0433 Y4.6486
G01 X30.0433 Y4.8171
G01 X30.0105 Y4.9824
G01 X29.9460 Y5.1381
G01 X29.8523 Y5.2782
G01 X29.7332 Y5.3973
G01 X29.5931 Y5.4910
G01 X29.5554 Y5.5068
G01 X29.5469 Y5.5113
G01 X29.5389 Y5.5166
G01 X29.5333 Y5.5211
G01 X29.4753 Y5.5717
G01 X29.4690 Y5.5787
G01 X29.4647 Y5.5843
G01 X29.4597 Y5.5923
G01 X29.4556 Y5.6008
G01 X29.4515 Y5.6119
G01 X29.4312 Y5.6811
G01 X29.4290 Y5.6921
G01 X29.4281 Y5.7011
G01 X29.4280 Y6.2791
G01 X29.3936 Y6.4076
G01 X29.3270 Y6.5229
G01 X22.0246 Y13.8252
G01 X22.0178 Y13.8328
G01 X21.9984 Y13.8572
G01 X21.9933 Y13.8649
G01 X21.9889 Y13.8732
G01 X21.9862 Y13.8797
G01 X21.9840 Y13.8863
G01 X21.9637 Y13.9555
G01 X21.9615 Y13.9666
G01 X21.9606 Y13.9756
G01 X21.9605 Y14.4545
G01 X21.9587 Y14.4779
G01 X21.9189 Y14.6149
G01 X21.8474 Y14.7357
G01 X21.8360 Y14.7473
G01 X21.8276 Y14.7579
G01 X21.7966 Y14.8062
G01 X21.7931 Y14.8124
G01 X21.7901 Y14.8188
G01 X21.7876 Y14.8255
G01 X21.7857 Y14.8323
G01 X21.7835 Y14.8440
G01 X21.7780 Y14.9184
G01 X21.7778 Y14.9255
G01 X21.7786 Y14.9373
G01 X21.7802 Y14.9465
G01 X21.7828 Y14.9556
G01 X21.7863 Y14.9644
G01 X21.8229 Y15.0320
G01 X21.8264 Y15.0379
G01 X21.8316 Y15.0452
G01 X21.8391 Y15.0537
G01 X21.9586 Y15.1731
G01 X21.9658 Y15.1793
G01 X21.9902 Y15.1983
G01 X21.9977 Y15.2035
G01 X22.0075 Y15.2092
G01 X22.0139 Y15.2123
G01 X22.0206 Y15.2150
G01 X22.0275 Y15.2171
G01 X22.0625 Y15.2249
G01 X22.0973 Y15.2336
G01 X22.1066 Y15.2350
G01 X22.1184 Y15.2355
G01 X22.1285 Y15.2350
G01 X22.1356 Y15.2341
G01 X22.1425 Y15.2327
G01 X22.1493 Y15.2308
G01 X22.1829 Y15.2184
G01 X22.2169 Y15.2070
G01 X22.2234 Y15.2042
G01 X22.2317 Y15.1997
G01 X22.2458 Y15.1898
G01 X22.2528 Y15.1835
G01 X22.2576 Y15.1783
G01 X22.2807 Y15.1479
G01 X22.3003 Y15.1237
G01 X22.3056 Y15.1164
G01 X22.3091 Y15.1106
G01 X22.3132 Y15.1025
G01 X22.3444 Y15.0273
G01 X22.4380 Y14.8871
G01 X22.5572 Y14.7680
G01 X22.6973 Y14.6744
G01 X22.8530 Y14.6099
G01 X23.0182 Y14.5770
G01 X23.1868 Y14.5770
G01 X23.3520 Y14.6099
G01 X23.5077 Y14.6744
G01 X23.6479 Y14.7680
G01 X23.7670 Y14.8872
G01 X23.8606 Y15.0273
G01 X23.9251 Y15.1830
G01 X23.9580 Y15.3482
G01 X23.9580 Y15.5168
G01 X23.9251 Y15.6820
G01 X23.8547 Y15.8520
G01 X23.8523 Y15.8586
G01 X23.8503 Y15.8653
G01 X23.8485 Y15.8744
G01 X23.8476 Y15.8850
G01 X23.8398 Y15.9160
G01 X23.8385 Y15.9229
G01 X23.8378 Y15.9299
G01 X23.8375 Y16.0209
G01 X23.8294 Y16.0302
G01 X23.8158 Y16.0489
G01 X23.8052 Y16.0667
G01 X23.7963 Y16.0854
G01 X23.7891 Y16.1049
G01 X23.7864 Y16.1138
G01 X23.7820 Y16.1317
G01 X23.7789 Y16.1521
G01 X23.7775 Y16.1775
G01 X23.7775 Y16.4575
G01 X23.7784 Y16.4782
G01 X23.7820 Y16.5033
G01 X23.7883 Y16.5279
G01 X23.7945 Y16.5453
G01 X23.7973 Y16.5517
G01 X23.8052 Y16.5683
G01 X23.8146 Y16.5841
G01 X23.8184 Y16.5900
G01 X23.8308 Y16.6066
G01 X23.8463 Y16.6237
G01 X23.8634 Y16.6392
G01 X23.8800 Y16.6516
G01 X23.8859 Y16.6554
G01 X23.9017 Y16.6648
G01 X23.9183 Y16.6727
G01 X23.9247 Y16.6755
G01 X23.9421 Y16.6817
G01 X23.9667 Y16.6880
G01 X23.9918 Y16.6916
G01 X24.0125 Y16.6925
G01 X24.3525 Y16.6925
G01 X24.3732 Y16.6916
G01 X24.3802 Y16.6908
G01 X24.3983 Y16.6880
G01 X24.4207 Y16.6824
G01 X24.4424 Y16.6746
G01 X24.4612 Y16.6658
G01 X24.4811 Y16.6542
G01 X24.4979 Y16.6420
G01 X24.5034 Y16.6377
G01 X24.5153 Y16.6269
G01 X24.5231 Y16.6190
G01 X24.5710 Y16.6329
G01 X24.5796 Y16.6373
G01 X24.5904 Y16.6412
G01 X24.6558 Y16.6591
G01 X24.6625 Y16.6607
G01 X24.6693 Y16.6618
G01 X24.6809 Y16.6625
G01 X24.8605 Y16.6625
G01 X24.8567 Y16.6757
G01 X24.8474 Y16.6917
G01 X24.8445 Y16.6982
G01 X24.8414 Y16.7071
G01 X24.8231 Y16.7701
G01 X24.8217 Y16.7769
G01 X24.8208 Y16.7837
G01 X24.8204 Y16.7906
G01 X24.8205 Y16.7976
G01 X24.8212 Y16.8045
G01 X24.8228 Y16.8135
G01 X24.8417 Y16.8878
G01 X24.8439 Y16.8943
G01 X24.8476 Y16.9025
G01 X24.8571 Y16.9191
G01 X24.8962 Y17.0537
G01 X24.8980 Y17.0765
G01 X24.8980 Y17.4785
G01 X24.8962 Y17.5013
G01 X24.8571 Y17.6359
G01 X24.7870 Y17.7545
G01 X24.6895 Y17.8520
G01 X24.5709 Y17.9221
G01 X24.4363 Y17.9612
G01 X24.4135 Y17.9630
G01 X23.9515 Y17.9630
G01 X23.9287 Y17.9612
G01 X23.7941 Y17.9221
G01 X23.6755 Y17.8520
G01 X23.6657 Y17.8428
G01 X23.6547 Y17.8349
G01 X23.5912 Y17.7985
G01 X23.5850 Y17.7957
G01 X23.5764 Y17.7928
G01 X23.4674 Y17.7636
G01 X23.3521 Y17.6970
G01 X23.2104 Y17.5554
G01 X23.1841 Y17.5337
G01 X23.1765 Y17.5282
G01 X23.1664 Y17.5225
G01 X23.1556 Y17.5180
G01 X23.0820 Y17.4962
G01 X23.0754 Y17.4947
G01 X23.0664 Y17.4934
G01 X23.0597 Y17.4930
G01 X23.0481 Y17.4931
G01 X23.0391 Y17.4940
G01 X22.9971 Y17.5003
G01 X22.9813 Y17.5049
G01 X22.9747 Y17.5075
G01 X22.9683 Y17.5106
G01 X22.9602 Y17.5155
G01 X22.9332 Y17.5344
G01 X22.9075 Y17.5509
G01 X22.8998 Y17.5564
G01 X22.8928 Y17.5626
G01 X22.8879 Y17.5677
G01 X22.8806 Y17.5764
G01 X22.8765 Y17.5822
G01 X22.8728 Y17.5882
G01 X22.8686 Y17.5966
G01 X22.8561 Y17.6271
G01 X22.8425 Y17.6570
G01 X22.8392 Y17.6659
G01 X22.8373 Y17.6727
G01 X22.8357 Y17.6820
G01 X22.8290 Y17.7453
G01 X22.7806 Y17.8914
G01 X22.7002 Y18.0218
G01 X22.5918 Y18.1302
G01 X22.4614 Y18.2106
G01 X22.3153 Y18.2590
G01 X22.2277 Y18.2680
G01 X21.3873 Y18.2680
G01 X21.2997 Y18.2590
G01 X21.1536 Y18.2106
G01 X21.0232 Y18.1302
G01 X20.9148 Y18.0218
G01 X20.8344 Y17.8914
G01 X20.7860 Y17.7453
G01 X20.7770 Y17.6577
G01 X20.7770 Y16.3173
G01 X20.7860 Y16.2297
G01 X20.8344 Y16.0836
G01 X20.9148 Y15.9532
G01 X20.9585 Y15.9094
G01 X20.9658 Y15.9008
G01 X21.0007 Y15.8468
G01 X21.0059 Y15.8362
G01 X21.0098 Y15.8250
G01 X21.0119 Y15.8157
G01 X21.0128 Y15.8086
G01 X21.0182 Y15.7342
G01 X21.0180 Y15.7224
G01 X21.0163 Y15.7108
G01 X21.0147 Y15.7039
G01 X21.0125 Y15.6972
G01 X21.0078 Y15.6864
G01 X20.9732 Y15.6230
G01 X20.9658 Y15.6116
G01 X20.9570 Y15.6013
G01 X20.3678 Y15.0121
G01 X20.3602 Y15.0053
G01 X20.3340 Y14.9845
G01 X20.3240 Y14.9785
G01 X20.3134 Y14.9737
G01 X20.2397 Y14.9518
G01 X20.2309 Y14.9497
G01 X20.2242 Y14.9487
G01 X20.2129 Y14.9480
G01 X20.0930 Y14.9480
G01 X20.0696 Y14.9462
G01 X19.9281 Y14.9050
G01 X19.9142 Y14.9000
G01 X19.9045 Y14.8977
G01 X19.8591 Y14.8844
G01 X19.8475 Y14.8821
G01 X19.8357 Y14.8812
G01 X19.8263 Y14.8815
G01 X19.8146 Y14.8833
G01 X19.7480 Y14.8994
G01 X19.7414 Y14.9014
G01 X19.7319 Y14.9050
G01 X19.5904 Y14.9462
G01 X19.5670 Y14.9480
G01 X19.1430 Y14.9480
G01 X19.1196 Y14.9462
G01 X18.9826 Y14.9064
G01 X18.8618 Y14.8349
G01 X18.7626 Y14.7357
G01 X18.6911 Y14.6149
G01 X18.6513 Y14.4779
G01 X18.6495 Y14.4545
G01 X18.6495 Y13.9801
G01 X18.6490 Y13.9699
G01 X18.6451 Y13.9367
G01 X18.6430 Y13.9276
G01 X18.6391 Y13.9166
G01 X18.6350 Y13.9082
G01 X18.6005 Y13.8449
G01 X18.5956 Y13.8373
G01 X18.5900 Y13.8302
G01 X16.9423 Y12.1821
G01 X16.9347 Y12.1753
G01 X16.9084 Y12.1545
G01 X16.9005 Y12.1496
G01 X16.8900 Y12.1446
G01 X16.8812 Y12.1415
G01 X16.8142 Y12.1218
G01 X16.8076 Y12.1202
G01 X16.7987 Y12.1187
G01 X16.7874 Y12.1180
G01 X16.5673 Y12.1180
G01 X16.5583 Y12.1187
G01 X16.5211 Y12.1240
G01 X16.5141 Y12.1253
G01 X16.5071 Y12.1271
G01 X16.4959 Y12.1313
G01 X16.4895 Y12.1345
G01 X16.4838 Y12.1378
G01 X16.4755 Y12.1403
G01 X16.4689 Y12.1429
G01 X16.4625 Y12.1460
G01 X16.4563 Y12.1496
G01 X16.4504 Y12.1537
G01 X16.4449 Y12.1581
G01 X16.4397 Y12.1630
G01 X16.4320 Y12.1711
G01 X16.4226 Y12.1772
G01 X16.4169 Y12.1814
G01 X16.4115 Y12.1860
G01 X16.4065 Y12.1910
G01 X16.3990 Y12.2001
G01 X16.3938 Y12.2080
G01 X16.3897 Y12.2159
G01 X16.3842 Y12.2223
G01 X16.3802 Y12.2278
G01 X16.3755 Y12.2356
G01 X16.3710 Y12.2443
G01 X16.2595 Y12.3978
G01 X16.1166 Y12.5407
G01 X16.1118 Y12.5459
G01 X16.1075 Y12.5513
G01 X16.1023 Y12.5591
G01 X16.0975 Y12.5682
G01 X16.0740 Y12.6016
G01 X16.0686 Y12.6117
G01 X16.0645 Y12.6224
G01 X16.0622 Y12.6312
G01 X16.0607 Y12.6403
G01 X16.0542 Y12.7122
G01 X16.0539 Y12.7239
G01 X16.0547 Y12.7333
G01 X16.0570 Y12.7449
G01 X16.0599 Y12.7539
G01 X16.0647 Y12.7647
G01 X16.1006 Y12.8327
G01 X16.1060 Y12.8405
G01 X16.1105 Y12.8459
G01 X16.1171 Y12.8526
G01 X16.1225 Y12.8572
G01 X16.1282 Y12.8614
G01 X16.1342 Y12.8651
G01 X16.1949 Y12.8997
G01 X16.2030 Y12.9038
G01 X16.2114 Y12.9071
G01 X16.2198 Y12.9095
G01 X16.3363 Y12.9529
G01 X16.4297 Y13.0228
G01 X16.4996 Y13.1162
G01 X16.5409 Y13.2270
G01 X16.5455 Y13.2697
G01 X16.5456 Y14.5175
G01 X16.5495 Y14.5535
G01 X16.5514 Y14.5627
G01 X16.5550 Y14.5737
G01 X16.5600 Y14.5843
G01 X16.5945 Y14.6476
G01 X16.5994 Y14.6552
G01 X16.6050 Y14.6623
G01 X17.8503 Y15.9079
G01 X17.8570 Y15.9140
G01 X17.8643 Y15.9194
G01 X17.9125 Y15.9504
G01 X17.9230 Y15.9560
G01 X17.9296 Y15.9586
G01 X17.9364 Y15.9608
G01 X17.9433 Y15.9624
G01 X17.9503 Y15.9636
G01 X18.0271 Y15.9691
G01 X18.0389 Y15.9690
G01 X18.0483 Y15.9678
G01 X18.0575 Y15.9656
G01 X18.0686 Y15.9617
G01 X18.0771 Y15.9576
G01 X18.1384 Y15.9241
G01 X18.1461 Y15.9194
G01 X18.1516 Y15.9154
G01 X18.1584 Y15.9095
G01 X18.2232 Y15.8448
G01 X18.3536 Y15.7644
G01 X18.4997 Y15.7160
G01 X18.5873 Y15.7070
G01 X19.4277 Y15.7070
G01 X19.5153 Y15.7160
G01 X19.6614 Y15.7644
G01 X19.7918 Y15.8448
G01 X19.9002 Y15.9532
G01 X19.9806 Y16.0836
G01 X20.0290 Y16.2297
G01 X20.0380 Y16.3173
G01 X20.0380 Y17.6577
G01 X20.0290 Y17.7453
G01 X19.9806 Y17.8914
G01 X19.9002 Y18.0218
G01 X19.7918 Y18.1302
G01 X19.6614 Y18.2106
G01 X19.5153 Y18.2590
G01 X19.4277 Y18.2680
G01 X18.5873 Y18.2680
G01 X18.4997 Y18.2590
G01 X18.3536 Y18.2106
G01 X18.2232 Y18.1302
G01 X18.1148 Y18.0218
G01 X18.0344 Y17.8914
G01 X17.9860 Y17.7453
G01 X17.9770 Y17.6577
G01 X17.9770 Y17.5526
G01 X17.9736 Y17.5186
G01 X17.9717 Y17.5071
G01 X17.9683 Y17.4959
G01 X17.9657 Y17.4895
G01 X17.9625 Y17.4832
G01 X17.9280 Y17.4199
G01 X17.9231 Y17.4123
G01 X17.9175 Y17.4052
G01 X15.8948 Y15.3821
G01 X15.8872 Y15.3753
G01 X15.8647 Y15.3573
G01 X15.8590 Y15.3532
G01 X15.8530 Y15.3496
G01 X15.8447 Y15.3455
G01 X15.8359 Y15.3422
G01 X15.7667 Y15.3218
G01 X15.7534 Y15.3190
G01 X15.7422 Y15.3180
G01 X14.4972 Y15.3180
G01 X14.4545 Y15.3134
G01 X14.3437 Y15.2721
G01 X14.2502 Y15.2021
G01 X14.2439 Y15.1949
G01 X14.2184 Y15.1689
G01 X14.2095 Y15.1615
G01 X14.1998 Y15.1553
G01 X14.1893 Y15.1503
G01 X14.1202 Y15.1224
G01 X14.1134 Y15.1203
G01 X14.1065 Y15.1187
G01 X14.0948 Y15.1172
G01 X14.0830 Y15.1172
G01 X14.0737 Y15.1183
G01 X14.0005 Y15.1320
G01 X13.9874 Y15.1358
G01 X13.9771 Y15.1403
G01 X13.8026 Y15.2292
G01 X13.6222 Y15.2878
G01 X13.4348 Y15.3175
G01 X13.2452 Y15.3175
G01 X13.0578 Y15.2878
G01 X12.8774 Y15.2292
G01 X12.7673 Y15.1731
G01 X13.0000 Y14.9404
G01 X13.0802 Y14.9690
G01 X13.1608 Y14.9893
G01 X13.1700 Y14.9911
G01 X13.2523 Y15.0032
G01 X13.3353 Y15.0074
G01 X13.3447 Y15.0074
G01 X13.4277 Y15.0032
G01 X13.5100 Y14.9911
G01 X13.5192 Y14.9893
G01 X13.5998 Y14.9690
G01 X13.6782 Y14.9411
G01 X13.6868 Y14.9375
G01 X13.7619 Y14.9018
G01 X13.8333 Y14.8592
G01 X13.8410 Y14.8540
G01 X13.9096 Y14.8028
G01 X13.9695 Y14.7486
G01 X13.9761 Y14.7420
G01 X14.0318 Y14.6803
G01 X14.0815 Y14.6135
G01 X14.0867 Y14.6058
G01 X14.1293 Y14.5344
G01 X14.1650 Y14.4593
G01 X14.1686 Y14.4507
G01 X14.1965 Y14.3723
G01 X14.2168 Y14.2917
G01 X14.2186 Y14.2825
G01 X14.2307 Y14.2002
G01 X14.2349 Y14.1172
G01 X14.2349 Y14.1078
G01 X14.2307 Y14.0248
G01 X14.2182 Y13.9402
G01 X14.1965 Y13.8527
G01 X14.1669 Y13.7700
G01 X14.1293 Y13.6906
G01 X14.0842 Y13.6153
G01 X14.0318 Y13.5447
G01 X13.9729 Y13.4796
G01 X13.9078 Y13.4207
G01 X13.8410 Y13.3710
G01 X13.8333 Y13.3658
G01 X13.7619 Y13.3232
G01 X13.6868 Y13.2875
G01 X13.6782 Y13.2839
G01 X13.6042 Y13.2575
G01 X13.5953 Y13.2548
G01 X13.5146 Y13.2347
G01 X13.4277 Y13.2218
G01 X13.3400 Y13.2175
G01 X13.2569 Y13.2215
G01 X13.2476 Y13.2224
G01 X13.1654 Y13.2347
G01 X13.0847 Y13.2548
G01 X13.0758 Y13.2575
G01 X13.0000 Y13.2846
G01 X12.7666 Y13.0512
G01 X12.7746 Y13.0451
G01 X12.8214 Y13.0045
G01 X12.8293 Y12.9963
G01 X12.8362 Y12.9873
G01 X12.8420 Y12.9775
G01 X12.8466 Y12.9670
G01 X12.8713 Y12.8942
G01 X12.8734 Y12.8850
G01 X12.8748 Y12.8733
G01 X12.8749 Y12.8639
G01 X12.8740 Y12.8545
G01 X12.8722 Y12.8453
G01 X12.8554 Y12.7774
G01 X12.8534 Y12.7706
G01 X12.8510 Y12.7640
G01 X12.8469 Y12.7555
G01 X12.8434 Y12.7494
G01 X12.8394 Y12.7435
G01 X12.8334 Y12.7362
G01 X12.7776 Y12.6832
G01 X12.7707 Y12.6773
G01 X12.7634 Y12.6721
G01 X12.7575 Y12.6687
G01 X12.7082 Y12.6435
G01 X12.5547 Y12.5320
G01 X12.4205 Y12.3978
G01 X12.3090 Y12.2443
G01 X12.2228 Y12.0753
G01 X12.1642 Y11.8948
G01 X12.1345 Y11.7074
G01 X12.1345 Y11.5176
G00 Z2.0000
G00 X12.2794 Y14.6852
G01 F60.00
G01 Z-0.0500
G01 F120.00
G01 X12.2233 Y14.5751
G01 X12.1647 Y14.3947
G01 X12.1350 Y14.2073
G01 X12.1350 Y14.0177
G01 X12.1647 Y13.8303
G01 X12.2233 Y13.6499
G01 X12.2794 Y13.5398
G01 X12.5121 Y13.7725
G01 X12.4835 Y13.8527
G01 X12.4622 Y13.9379
G01 X12.4493 Y14.0248
G01 X12.4450 Y14.1125
G01 X12.4493 Y14.2002
G01 X12.4622 Y14.2871
G01 X12.4835 Y14.3723
G01 X12.5121 Y14.4525
G01 X12.2794 Y14.6852
G00 Z2.0000
G00 X14.5400 Y15.0075
G01 F60.00
G01 Z-0.0500
G01 F120.00
G01 X14.5330 Y15.0072
G01 X14.5238 Y15.0061
G01 X14.5147 Y15.0041
G01 X14.5058 Y15.0011
G01 X14.4973 Y14.9974
G01 X14.4892 Y14.9928
G01 X14.4816 Y14.9874
G01 X14.4745 Y14.9813
G01 X14.4681 Y14.9746
G01 X14.4623 Y14.9672
G01 X14.4573 Y14.9593
G01 X14.4532 Y14.9510
G01 X14.4498 Y14.9423
G01 X14.4473 Y14.9333
G01 X14.4457 Y14.9241
G01 X14.4451 Y14.9172
G01 X14.4450 Y13.3102
G01 X14.4455 Y13.3032
G01 X14.4468 Y13.2940
G01 X14.4484 Y13.2872
G01 X14.4514 Y13.2783
G01 X14.4551 Y13.2698
G01 X14.4597 Y13.2617
G01 X14.4651 Y13.2541
G01 X14.4696 Y13.2487
G01 X14.4762 Y13.2421
G01 X14.4853 Y13.2348
G01 X14.4932 Y13.2298
G01 X14.5015 Y13.2257
G01 X14.5124 Y13.2216
G01 X14.5215 Y13.2193
G01 X14.5307 Y13.2180
G01 X14.5400 Y13.2175
G01 X16.1400 Y13.2175
G01 X16.1516 Y13.2182
G01 X16.1631 Y13.2203
G01 X16.1742 Y13.2239
G01 X16.1848 Y13.2287
G01 X16.1947 Y13.2348
G01 X16.2003 Y13.2391
G01 X16.2055 Y13.2437
G01 X16.2104 Y13.2487
G01 X16.2149 Y13.2541
G01 X16.2215 Y13.2637
G01 X16.2268 Y13.2740
G01 X16.2309 Y13.2849
G01 X16.2336 Y13.2963
G01 X16.2345 Y13.3032
G01 X16.2350 Y13.3102
G01 X16.2350 Y14.7317
G01 X18.2875 Y16.7842
G01 X18.2875 Y16.3602
G01 X18.2892 Y16.3287
G01 X18.2933 Y16.2998
G01 X18.2952 Y16.2906
G01 X18.3017 Y16.2646
G01 X18.3138 Y16.2305
G01 X18.3282 Y16.1999
G01 X18.3456 Y16.1708
G01 X18.3629 Y16.1473
G01 X18.3689 Y16.1401
G01 X18.3869 Y16.1202
G01 X18.3919 Y16.1153
G01 X18.4136 Y16.0958
G01 X18.4370 Y16.0783
G01 X18.4448 Y16.0731
G01 X18.4678 Y16.0594
G01 X18.4962 Y16.0457
G01 X18.5048 Y16.0421
G01 X18.5324 Y16.0324
G01 X18.5652 Y16.0241
G01 X18.5987 Y16.0192
G01 X18.6302 Y16.0175
G01 X19.3825 Y16.0175
G01 X19.4163 Y16.0192
G01 X19.4498 Y16.0241
G01 X19.4826 Y16.0324
G01 X19.5145 Y16.0438
G01 X19.5451 Y16.0582
G01 X19.5742 Y16.0756
G01 X19.6014 Y16.0958
G01 X19.6265 Y16.1185
G01 X19.6506 Y16.1455
G01 X19.6694 Y16.1708
G01 X19.6868 Y16.1999
G01 X19.7012 Y16.2305
G01 X19.7112 Y16.2579
G01 X19.7139 Y16.2668
G01 X19.7204 Y16.2929
G01 X19.7217 Y16.2998
G01 X19.7258 Y16.3287
G01 X19.7275 Y16.3602
G01 X19.7275 Y17.6148
G01 X19.7262 Y17.6417
G01 X19.7253 Y17.6509
G01 X19.7209 Y17.6798
G01 X19.7139 Y17.7082
G01 X19.7112 Y17.7171
G01 X19.7012 Y17.7445
G01 X19.6868 Y17.7751
G01 X19.6694 Y17.8042
G01 X19.6521 Y17.8277
G01 X19.6461 Y17.8349
G01 X19.6265 Y17.8565
G01 X19.6049 Y17.8761
G01 X19.5977 Y17.8821
G01 X19.5742 Y17.8994
G01 X19.5451 Y17.9168
G01 X19.5188 Y17.9293
G01 X19.5102 Y17.9329
G01 X19.4826 Y17.9426
G01 X19.4544 Y17.9498
G01 X19.4452 Y17.9517
G01 X19.4186 Y17.9556
G01 X19.3825 Y17.9575
G01 X18.6278 Y17.9574
G01 X18.6010 Y17.9560
G01 X18.5941 Y17.9553
G01 X18.5652 Y17.9509
G01 X18.5368 Y17.9439
G01 X18.5279 Y17.9412
G01 X18.5005 Y17.9312
G01 X18.4699 Y17.9168
G01 X18.4408 Y17.8994
G01 X18.4136 Y17.8792
G01 X18.3885 Y17.8565
G01 X18.3689 Y17.8349
G01 X18.3629 Y17.8277
G01 X18.3456 Y17.8042
G01 X18.3305 Y17.7792
G01 X18.3272 Y17.7731
G01 X18.3157 Y17.7488
G01 X18.3121 Y17.7402
G01 X18.3031 Y17.7149
G01 X18.2952 Y17.6844
G01 X18.2933 Y17.6752
G01 X18.2892 Y17.6463
G01 X18.2875 Y17.6148
G01 X18.2875 Y17.1825
G01 X18.2150 Y17.1825
G01 X18.2005 Y17.1820
G01 X18.1936 Y17.1814
G01 X18.1792 Y17.1792
G01 X18.1606 Y17.1748
G01 X18.1404 Y17.1677
G01 X18.1251 Y17.1606
G01 X18.1190 Y17.1572
G01 X18.1066 Y17.1497
G01 X18.0949 Y17.1411
G01 X18.0895 Y17.1368
G01 X18.0787 Y17.1270
G01 X15.9592 Y15.0075
G01 X14.5400 Y15.0075
G00 Z2.0000
G00 X16.2128 Y11.8075
G01 F60.00
G01 Z-0.0500
G01 F120.00
G01 X16.1965 Y11.8723
G01 X16.1669 Y11.9550
G01 X16.1293 Y12.0344
G01 X16.0842 Y12.1097
G01 X16.0318 Y12.1803
G01 X15.9729 Y12.2454
G01 X15.9078 Y12.3043
G01 X15.8353 Y12.3579
G01 X15.7619 Y12.4018
G01 X15.6825 Y12.4394
G01 X15.5998 Y12.4690
G01 X15.5146 Y12.4903
G01 X15.4277 Y12.5032
G01 X15.3400 Y12.5075
G01 X15.2523 Y12.5032
G01 X15.1631 Y12.4898
G01 X15.0802 Y12.4690
G01 X14.9975 Y12.4394
G01 X14.9181 Y12.4018
G01 X14.8428 Y12.3567
G01 X14.7722 Y12.3043
G01 X14.7071 Y12.2454
G01 X14.6482 Y12.1803
G01 X14.5958 Y12.1097
G01 X14.5507 Y12.0344
G01 X14.5131 Y11.9550
G01 X14.4835 Y11.8723
G01 X14.4622 Y11.7871
G01 X14.4493 Y11.7002
G01 X14.4450 Y11.6125
G01 X14.4493 Y11.5248
G01 X14.4627 Y11.4356
G01 X14.4835 Y11.3527
G01 X14.5131 Y11.2700
G01 X14.5507 Y11.1906
G01 X14.5933 Y11.1192
G01 X14.5985 Y11.1115
G01 X14.6453 Y11.0484
G01 X14.6512 Y11.0412
G01 X14.7071 Y10.9796
G01 X14.7722 Y10.9207
G01 X14.8428 Y10.8683
G01 X14.9140 Y10.8255
G01 X14.9223 Y10.8211
G01 X14.9932 Y10.7875
G01 X15.0018 Y10.7839
G01 X15.0802 Y10.7560
G01 X15.1654 Y10.7347
G01 X15.2523 Y10.7218
G01 X15.3400 Y10.7175
G01 X15.4277 Y10.7218
G01 X15.5146 Y10.7347
G01 X15.5998 Y10.7560
G01 X15.6782 Y10.7839
G01 X15.6868 Y10.7875
G01 X15.7577 Y10.8211
G01 X15.7660 Y10.8255
G01 X15.8372 Y10.8683
G01 X15.9078 Y10.9207
G01 X15.9729 Y10.9796
G01 X16.0288 Y11.0412
G01 X16.0347 Y11.0484
G01 X16.0815 Y11.1115
G01 X16.0867 Y11.1192
G01 X16.1293 Y11.1906
G01 X16.1669 Y11.2700
G01 X16.1965 Y11.3527
G01 X16.2128 Y11.4174
G01 X17.0898 Y11.4175
G01 X17.1066 Y11.4184
G01 X17.1210 Y11.4204
G01 X17.1278 Y11.4217
G01 X17.1419 Y11.4252
G01 X17.1621 Y11.4323
G01 X17.1774 Y11.4394
G01 X17.1835 Y11.4428
G01 X17.1959 Y11.4503
G01 X17.2076 Y11.4589
G01 X17.2130 Y11.4632
G01 X17.2254 Y11.4746
G01 X18.9941 Y13.2432
G01 X19.0013 Y13.2314
G01 X19.0142 Y13.2139
G01 X19.0318 Y13.1943
G01 X19.0460 Y13.1812
G01 X19.0532 Y13.1752
G01 X19.0689 Y13.1638
G01 X19.0855 Y13.1537
G01 X19.0937 Y13.1493
G01 X19.1112 Y13.1411
G01 X19.1361 Y13.1324
G01 X19.1549 Y13.1277
G01 X19.1618 Y13.1264
G01 X19.1810 Y13.1237
G01 X19.2003 Y13.1226
G01 X19.5050 Y13.1225
G01 X19.5290 Y13.1237
G01 X19.5505 Y13.1268
G01 X19.5739 Y13.1324
G01 X19.5944 Y13.1395
G01 X19.6009 Y13.1421
G01 X19.6163 Y13.1493
G01 X19.6245 Y13.1537
G01 X19.6411 Y13.1638
G01 X19.6604 Y13.1781
G01 X19.6782 Y13.1943
G01 X19.6944 Y13.2121
G01 X19.7087 Y13.2314
G01 X19.7211 Y13.2520
G01 X19.7314 Y13.2737
G01 X19.7380 Y13.2920
G01 X19.7407 Y13.3009
G01 X19.7448 Y13.3174
G01 X19.7461 Y13.3243
G01 X19.7488 Y13.3435
G01 X19.7500 Y13.3675
G01 X19.7499 Y14.3972
G01 X19.7488 Y14.4165
G01 X19.7453 Y14.4403
G01 X19.7395 Y14.4636
G01 X19.7330 Y14.4819
G01 X19.7295 Y14.4905
G01 X19.7199 Y14.5100
G01 X19.7087 Y14.5286
G01 X19.6958 Y14.5461
G01 X19.6782 Y14.5657
G01 X19.6604 Y14.5819
G01 X19.6411 Y14.5962
G01 X19.6245 Y14.6063
G01 X19.6163 Y14.6107
G01 X19.5988 Y14.6189
G01 X19.5805 Y14.6255
G01 X19.5739 Y14.6276
G01 X19.5573 Y14.6318
G01 X19.5505 Y14.6332
G01 X19.5313 Y14.6361
G01 X19.5073 Y14.6375
G01 X19.2050 Y14.6375
G01 X19.1810 Y14.6363
G01 X19.1618 Y14.6336
G01 X19.1549 Y14.6323
G01 X19.1384 Y14.6282
G01 X19.1295 Y14.6255
G01 X19.1112 Y14.6189
G01 X19.0895 Y14.6086
G01 X19.0689 Y14.5962
G01 X19.0532 Y14.5848
G01 X19.0460 Y14.5788
G01 X19.0318 Y14.5657
G01 X19.0156 Y14.5479
G01 X19.0013 Y14.5286
G01 X18.9889 Y14.5080
G01 X18.9805 Y14.4905
G01 X18.9778 Y14.4841
G01 X18.9720 Y14.4680
G01 X18.9693 Y14.4591
G01 X18.9647 Y14.4403
G01 X18.9612 Y14.4165
G01 X18.9600 Y14.3925
G01 X18.9600 Y13.7608
G01 X17.0067 Y11.8075
G01 X16.2128 Y11.8075
G00 Z2.0000
G00 X20.4322 Y14.6375
G01 F60.00
G01 Z-0.0500
G01 F120.00
G01 X20.1503 Y14.6374
G01 X20.1310 Y14.6363
G01 X20.1072 Y14.6328
G01 X20.0839 Y14.6270
G01 X20.0634 Y14.6197
G01 X20.0395 Y14.6086
G01 X20.0228 Y14.5987
G01 X20.0151 Y14.5935
G01 X19.9996 Y14.5819
G01 X19.9851 Y14.5690
G01 X19.9785 Y14.5624
G01 X19.9656 Y14.5479
G01 X19.9513 Y14.5286
G01 X19.9412 Y14.5120
G01 X19.9368 Y14.5038
G01 X19.9286 Y14.4863
G01 X19.9220 Y14.4680
G01 X19.9199 Y14.4614
G01 X19.9152 Y14.4426
G01 X19.9112 Y14.4165
G01 X19.9100 Y14.3925
G01 X19.9100 Y13.3675
G01 X19.9108 Y13.3481
G01 X19.9118 Y13.3389
G01 X19.9147 Y13.3197
G01 X19.9205 Y13.2964
G01 X19.9286 Y13.2737
G01 X19.9368 Y13.2562
G01 X19.9412 Y13.2480
G01 X19.9526 Y13.2295
G01 X19.9656 Y13.2121
G01 X19.9785 Y13.1976
G01 X19.9851 Y13.1910
G01 X20.0014 Y13.1767
G01 X20.0189 Y13.1638
G01 X20.0375 Y13.1526
G01 X20.0570 Y13.1430
G01 X20.0656 Y13.1395
G01 X20.0839 Y13.1330
G01 X20.1049 Y13.1277
G01 X20.1310 Y13.1237
G01 X20.1550 Y13.1225
G01 X20.4573 Y13.1225
G01 X20.4790 Y13.1237
G01 X20.5005 Y13.1268
G01 X20.5261 Y13.1330
G01 X20.5466 Y13.1403
G01 X20.5684 Y13.1504
G01 X20.5872 Y13.1613
G01 X20.5930 Y13.1651
G01 X20.6086 Y13.1767
G01 X20.6249 Y13.1910
G01 X20.6299 Y13.1959
G01 X20.6413 Y13.2085
G01 X20.6473 Y13.2157
G01 X20.6587 Y13.2314
G01 X20.6711 Y13.2520
G01 X20.6814 Y13.2737
G01 X20.6880 Y13.2920
G01 X20.6907 Y13.3009
G01 X20.6957 Y13.3220
G01 X20.6988 Y13.3435
G01 X20.6999 Y13.3628
G01 X20.7000 Y14.3532
G01 X21.9938 Y15.6475
G01 X22.6019 Y15.6475
G01 X22.5973 Y15.6367
G01 X22.5810 Y15.5907
G01 X22.5680 Y15.5388
G01 X22.5601 Y15.4859
G01 X22.5575 Y15.4325
G01 X22.5601 Y15.3791
G01 X22.5680 Y15.3262
G01 X22.5810 Y15.2743
G01 X22.5990 Y15.2239
G01 X22.6219 Y15.1756
G01 X22.6493 Y15.1297
G01 X22.6812 Y15.0868
G01 X22.7171 Y15.0471
G01 X22.7568 Y15.0112
G01 X22.7997 Y14.9793
G01 X22.8456 Y14.9519
G01 X22.8939 Y14.9290
G01 X22.9443 Y14.9110
G01 X22.9916 Y14.8990
G01 X23.0008 Y14.8972
G01 X23.0491 Y14.8901
G01 X23.0978 Y14.8876
G01 X23.1072 Y14.8876
G01 X23.1559 Y14.8901
G01 X23.2088 Y14.8980
G01 X23.2607 Y14.9110
G01 X23.3067 Y14.9273
G01 X23.3153 Y14.9309
G01 X23.3594 Y14.9519
G01 X23.4013 Y14.9769
G01 X23.4091 Y14.9820
G01 X23.4482 Y15.0112
G01 X23.4879 Y15.0471
G01 X23.5207 Y15.0832
G01 X23.5267 Y15.0904
G01 X23.5557 Y15.1297
G01 X23.5808 Y15.1715
G01 X23.5852 Y15.1798
G01 X23.6060 Y15.2239
G01 X23.6240 Y15.2743
G01 X23.6360 Y15.3216
G01 X23.6378 Y15.3308
G01 X23.6449 Y15.3791
G01 X23.6474 Y15.4278
G01 X23.6474 Y15.4372
G01 X23.6449 Y15.4859
G01 X23.6365 Y15.5411
G01 X23.6240 Y15.5907
G01 X23.6077 Y15.6367
G01 X23.6041 Y15.6453
G01 X23.5831 Y15.6894
G01 X23.5581 Y15.7313
G01 X23.5530 Y15.7391
G01 X23.5238 Y15.7782
G01 X23.4895 Y15.8162
G01 X23.4518 Y15.8507
G01 X23.4446 Y15.8567
G01 X23.4053 Y15.8857
G01 X23.3615 Y15.9120
G01 X23.3552 Y15.9152
G01 X23.3089 Y15.9369
G01 X23.2629 Y15.9533
G01 X23.2465 Y15.9577
G01 X23.2465 Y16.1017
G01 X24.0473 Y16.9025
G01 X24.3525 Y16.9025
G01 X24.3755 Y16.9036
G01 X24.3961 Y16.9066
G01 X24.4185 Y16.9120
G01 X24.4381 Y16.9187
G01 X24.4467 Y16.9223
G01 X24.4653 Y16.9314
G01 X24.4831 Y16.9421
G01 X24.5016 Y16.9558
G01 X24.5187 Y16.9713
G01 X24.5311 Y16.9849
G01 X24.5370 Y16.9921
G01 X24.5466 Y17.0050
G01 X24.5504 Y17.0109
G01 X24.5608 Y17.0288
G01 X24.5705 Y17.0497
G01 X24.5774 Y17.0693
G01 X24.5830 Y17.0917
G01 X24.5864 Y17.1145
G01 X24.5875 Y17.1352
G01 X24.5875 Y17.4175
G01 X24.5864 Y17.4405
G01 X24.5834 Y17.4611
G01 X24.5820 Y17.4679
G01 X24.5774 Y17.4857
G01 X24.5713 Y17.5031
G01 X24.5687 Y17.5096
G01 X24.5598 Y17.5283
G01 X24.5466 Y17.5500
G01 X24.5342 Y17.5666
G01 X24.5187 Y17.5837
G01 X24.5016 Y17.5992
G01 X24.4831 Y17.6129
G01 X24.4633 Y17.6248
G01 X24.4424 Y17.6346
G01 X24.4207 Y17.6424
G01 X24.3961 Y17.6484
G01 X24.3755 Y17.6514
G01 X24.3525 Y17.6525
G01 X24.0125 Y17.6525
G01 X23.9895 Y17.6514
G01 X23.9689 Y17.6484
G01 X23.9488 Y17.6436
G01 X23.9399 Y17.6409
G01 X23.9226 Y17.6346
G01 X23.9017 Y17.6248
G01 X23.8839 Y17.6142
G01 X23.8781 Y17.6102
G01 X23.8634 Y17.5992
G01 X23.8480 Y17.5853
G01 X23.8339 Y17.5701
G01 X23.8280 Y17.5629
G01 X23.8171 Y17.5481
G01 X23.8064 Y17.5303
G01 X23.7973 Y17.5117
G01 X23.7945 Y17.5053
G01 X23.7876 Y17.4857
G01 X23.7842 Y17.4725
G01 X23.7375 Y17.4725
G01 X23.7191 Y17.4792
G01 X23.7028 Y17.4833
G01 X23.6960 Y17.4846
G01 X23.6816 Y17.4866
G01 X23.6672 Y17.4874
G01 X23.6602 Y17.4875
G01 X23.6457 Y17.4868
G01 X23.6244 Y17.4838
G01 X23.6081 Y17.4798
G01 X23.6015 Y17.4777
G01 X23.5879 Y17.4727
G01 X23.5747 Y17.4666
G01 X23.5685 Y17.4634
G01 X23.5541 Y17.4547
G01 X23.5388 Y17.4433
G01 X23.5246 Y17.4304
G01 X23.2767 Y17.1825
G01 X22.5275 Y17.1825
G01 X22.5275 Y17.6148
G01 X22.5258 Y17.6463
G01 X22.5217 Y17.6752
G01 X22.5198 Y17.6844
G01 X22.5119 Y17.7149
G01 X22.5029 Y17.7402
G01 X22.4993 Y17.7488
G01 X22.4868 Y17.7751
G01 X22.4719 Y17.8002
G01 X22.4680 Y17.8061
G01 X22.4521 Y17.8277
G01 X22.4461 Y17.8349
G01 X22.4265 Y17.8565
G01 X22.4014 Y17.8792
G01 X22.3742 Y17.8994
G01 X22.3472 Y17.9156
G01 X22.3145 Y17.9312
G01 X22.2871 Y17.9412
G01 X22.2782 Y17.9439
G01 X22.2498 Y17.9509
G01 X22.2209 Y17.9553
G01 X22.2140 Y17.9560
G01 X22.1872 Y17.9574
G01 X21.4302 Y17.9575
G01 X21.3987 Y17.9558
G01 X21.3698 Y17.9517
G01 X21.3606 Y17.9498
G01 X21.3324 Y17.9426
G01 X21.3005 Y17.9312
G01 X21.2740 Y17.9189
G01 X21.2658 Y17.9145
G01 X21.2389 Y17.8980
G01 X21.2136 Y17.8792
G01 X21.1919 Y17.8597
G01 X21.1853 Y17.8531
G01 X21.1673 Y17.8331
G01 X21.1629 Y17.8277
G01 X21.1456 Y17.8042
G01 X21.1305 Y17.7792
G01 X21.1261 Y17.7710
G01 X21.1138 Y17.7445
G01 X21.1024 Y17.7126
G01 X21.0941 Y17.6798
G01 X21.0890 Y17.6440
G01 X21.0875 Y17.6125
G01 X21.0875 Y16.3625
G01 X21.0888 Y16.3333
G01 X21.0897 Y16.3241
G01 X21.0941 Y16.2952
G01 X21.1024 Y16.2624
G01 X21.1121 Y16.2348
G01 X21.1157 Y16.2262
G01 X21.1282 Y16.1999
G01 X21.1431 Y16.1748
G01 X21.1483 Y16.1670
G01 X21.1658 Y16.1436
G01 X21.1885 Y16.1185
G01 X21.2136 Y16.0958
G01 X21.2370 Y16.0783
G01 X21.2448 Y16.0731
G01 X21.2699 Y16.0582
G01 X21.2962 Y16.0457
G01 X21.3048 Y16.0421
G01 X21.3301 Y16.0331
G01 X21.3606 Y16.0252
G01 X21.3698 Y16.0233
G01 X21.3987 Y16.0192
G01 X21.4302 Y16.0175
G01 X21.8271 Y16.0175
G01 X21.8190 Y16.0134
G01 X21.8027 Y16.0034
G01 X21.7893 Y15.9933
G01 X21.7751 Y15.9804
G01 X20.4322 Y14.6375
G00 Z2.0000
G00 X21.6159 Y13.2432
G01 F60.00
G01 Z-0.0500
G01 F120.00
G01 X28.7275 Y6.1317
G01 X28.7275 Y5.0238
G01 X28.7072 Y4.9897
G01 X28.6862 Y4.9457
G01 X28.6826 Y4.9370
G01 X28.6663 Y4.8910
G01 X28.6543 Y4.8437
G01 X28.6525 Y4.8346
G01 X28.6455 Y4.7863
G01 X28.6429 Y4.7352
G01 X28.6455 Y4.6794
G01 X28.6533 Y4.6265
G01 X28.6663 Y4.5746
G01 X28.6852 Y4.5221
G01 X28.7051 Y4.4801
G01 X28.7095 Y4.4719
G01 X28.7347 Y4.4300
G01 X28.7637 Y4.3908
G01 X28.7696 Y4.3836
G01 X28.8025 Y4.3475
G01 X28.8421 Y4.3115
G01 X28.8850 Y4.2797
G01 X28.9269 Y4.2545
G01 X28.9351 Y4.2501
G01 X28.9750 Y4.2312
G01 X28.9836 Y4.2276
G01 X29.0296 Y4.2113
G01 X29.0770 Y4.1993
G01 X29.0861 Y4.1975
G01 X29.1344 Y4.1905
G01 X29.1878 Y4.1878
G01 X29.2413 Y4.1905
G01 X29.2896 Y4.1975
G01 X29.2987 Y4.1993
G01 X29.3460 Y4.2113
G01 X29.3920 Y4.2276
G01 X29.4007 Y4.2312
G01 X29.4406 Y4.2501
G01 X29.4488 Y4.2545
G01 X29.4906 Y4.2797
G01 X29.5299 Y4.3087
G01 X29.5371 Y4.3146
G01 X29.5732 Y4.3475
G01 X29.6061 Y4.3836
G01 X29.6120 Y4.3908
G01 X29.6410 Y4.4300
G01 X29.6662 Y4.4719
G01 X29.6706 Y4.4801
G01 X29.6913 Y4.5243
G01 X29.7079 Y4.5702
G01 X29.7106 Y4.5791
G01 X29.7224 Y4.6265
G01 X29.7296 Y4.6748
G01 X29.7305 Y4.6841
G01 X29.7328 Y4.7328
G01 X29.7305 Y4.7816
G01 X29.7296 Y4.7909
G01 X29.7219 Y4.8414
G01 X29.7094 Y4.8910
G01 X29.6913 Y4.9414
G01 X29.6685 Y4.9897
G01 X29.6410 Y5.0356
G01 X29.6091 Y5.0786
G01 X29.5732 Y5.1182
G01 X29.5336 Y5.1541
G01 X29.4925 Y5.1847
G01 X29.4447 Y5.2135
G01 X29.3964 Y5.2363
G01 X29.3460 Y5.2544
G01 X29.2964 Y5.2669
G01 X29.2413 Y5.2752
G01 X29.1902 Y5.2778
G01 X29.1367 Y5.2754
G01 X29.1176 Y5.2728
G01 X29.1174 Y6.2172
G01 X29.1166 Y6.2316
G01 X29.1138 Y6.2506
G01 X29.1092 Y6.2691
G01 X29.1044 Y6.2828
G01 X29.1008 Y6.2914
G01 X29.0934 Y6.3065
G01 X29.0847 Y6.3209
G01 X29.0733 Y6.3362
G01 X29.0604 Y6.3504
G01 X21.6500 Y13.7608
G01 X21.6500 Y14.3925
G01 X21.6488 Y14.4165
G01 X21.6453 Y14.4403
G01 X21.6407 Y14.4591
G01 X21.6380 Y14.4680
G01 X21.6322 Y14.4841
G01 X21.6295 Y14.4905
G01 X21.6211 Y14.5080
G01 X21.6087 Y14.5286
G01 X21.5944 Y14.5479
G01 X21.5799 Y14.5641
G01 X21.5622 Y14.5804
G01 X21.5449 Y14.5935
G01 X21.5392 Y14.5975
G01 X21.5245 Y14.6063
G01 X21.5163 Y14.6107
G01 X21.4988 Y14.6189
G01 X21.4761 Y14.6270
G01 X21.4528 Y14.6328
G01 X21.4290 Y14.6363
G01 X21.4050 Y14.6375
G01 X21.1003 Y14.6374
G01 X21.0787 Y14.6361
G01 X21.0549 Y14.6323
G01 X21.0339 Y14.6270
G01 X21.0091 Y14.6179
G01 X20.9895 Y14.6086
G01 X20.9728 Y14.5987
G01 X20.9651 Y14.5935
G01 X20.9496 Y14.5819
G01 X20.9351 Y14.5690
G01 X20.9285 Y14.5624
G01 X20.9156 Y14.5479
G01 X20.9040 Y14.5324
G01 X20.8988 Y14.5247
G01 X20.8889 Y14.5080
G01 X20.8805 Y14.4905
G01 X20.8770 Y14.4819
G01 X20.8705 Y14.4636
G01 X20.8657 Y14.4448
G01 X20.8639 Y14.4357
G01 X20.8612 Y14.4165
G01 X20.8600 Y14.3925
G01 X20.8600 Y13.3652
G01 X20.8612 Y13.3435
G01 X20.8647 Y13.3197
G01 X20.8705 Y13.2964
G01 X20.8796 Y13.2716
G01 X20.8889 Y13.2520
G01 X20.8988 Y13.2353
G01 X20.9040 Y13.2276
G01 X20.9156 Y13.2121
G01 X20.9285 Y13.1976
G01 X20.9351 Y13.1910
G01 X20.9496 Y13.1781
G01 X20.9689 Y13.1638
G01 X20.9855 Y13.1537
G01 X20.9937 Y13.1493
G01 X21.0112 Y13.1411
G01 X21.0339 Y13.1330
G01 X21.0527 Y13.1282
G01 X21.0618 Y13.1264
G01 X21.0810 Y13.1237
G01 X21.1003 Y13.1226
G01 X21.4073 Y13.1225
G01 X21.4290 Y13.1237
G01 X21.4551 Y13.1277
G01 X21.4761 Y13.1330
G01 X21.4988 Y13.1411
G01 X21.5205 Y13.1514
G01 X21.5430 Y13.1651
G01 X21.5604 Y13.1781
G01 X21.5799 Y13.1959
G01 X21.5958 Y13.2139
G01 X21.6087 Y13.2314
G01 X21.6159 Y13.2432
G00 Z2.0000
G00 X21.4050 Y10.8475
G01 F60.00
G01 Z-0.0500
G01 F120.00
G01 X21.4244 Y10.8483
G01 X21.4336 Y10.8493
G01 X21.4528 Y10.8522
G01 X21.4716 Y10.8568
G01 X21.4805 Y10.8595
G01 X21.4988 Y10.8661
G01 X21.5225 Y10.8776
G01 X21.5411 Y10.8888
G01 X21.5568 Y10.9002
G01 X21.5622 Y10.9046
G01 X21.5766 Y10.9176
G01 X21.5815 Y10.9226
G01 X21.5958 Y10.9389
G01 X21.6087 Y10.9564
G01 X21.6159 Y10.9682
G01 X29.1146 Y3.4696
G01 X29.1288 Y3.4567
G01 X29.1461 Y3.4441
G01 X29.1606 Y3.4355
G01 X29.1736 Y3.4292
G01 X29.1800 Y3.4264
G01 X29.1959 Y3.4208
G01 X29.2144 Y3.4162
G01 X29.2288 Y3.4140
G01 X29.2357 Y3.4132
G01 X29.2525 Y3.4125
G01 X32.5325 Y3.4125
G01 X32.5325 Y3.2725
G01 X32.5334 Y3.2523
G01 X32.5365 Y3.2299
G01 X32.5412 Y3.2102
G01 X32.5439 Y3.2013
G01 X32.5509 Y3.1823
G01 X32.5608 Y3.1620
G01 X32.5700 Y3.1467
G01 X32.5739 Y3.1409
G01 X32.5847 Y3.1266
G01 X32.5967 Y3.1132
G01 X32.6015 Y3.1082
G01 X32.6131 Y3.0978
G01 X32.6184 Y3.0933
G01 X32.6328 Y3.0826
G01 X32.6520 Y3.0708
G01 X32.6745 Y3.0600
G01 X32.6935 Y3.0531
G01 X32.7131 Y3.0479
G01 X32.7222 Y3.0461
G01 X32.7400 Y3.0436
G01 X32.7602 Y3.0425
G01 X33.1325 Y3.0425
G01 X33.1527 Y3.0434
G01 X33.1597 Y3.0442
G01 X33.1774 Y3.0469
G01 X33.1948 Y3.0512
G01 X33.2015 Y3.0531
G01 X33.2162 Y3.0583
G01 X33.2227 Y3.0609
G01 X33.2389 Y3.0686
G01 X33.2583 Y3.0800
G01 X33.2784 Y3.0947
G01 X33.2951 Y3.1099
G01 X33.3103 Y3.1266
G01 X33.3250 Y3.1467
G01 X33.3342 Y3.1620
G01 X33.3374 Y3.1682
G01 X33.3450 Y3.1845
G01 X33.3511 Y3.2013
G01 X33.3532 Y3.2080
G01 X33.3581 Y3.2276
G01 X33.3616 Y3.2523
G01 X33.3625 Y3.2725
G01 X33.3625 Y3.5448
G01 X33.3611 Y3.5674
G01 X33.3585 Y3.5851
G01 X33.3571 Y3.5919
G01 X33.3526 Y3.6093
G01 X33.3459 Y3.6284
G01 X33.3431 Y3.6348
G01 X33.3342 Y3.6530
G01 X33.3237 Y3.6703
G01 X33.3132 Y3.6847
G01 X33.3072 Y3.6919
G01 X33.2935 Y3.7068
G01 X33.2784 Y3.7203
G01 X33.2641 Y3.7311
G01 X33.2583 Y3.7350
G01 X33.2409 Y3.7453
G01 X33.2205 Y3.7550
G01 X33.2037 Y3.7611
G01 X33.1948 Y3.7638
G01 X33.1751 Y3.7685
G01 X33.1550 Y3.7714
G01 X33.1348 Y3.7725
G01 X32.8514 Y3.7725
G01 X32.8394 Y3.7795
G01 X32.8243 Y3.7868
G01 X32.8085 Y3.7927
G01 X32.8019 Y3.7948
G01 X32.7856 Y3.7988
G01 X32.7712 Y3.8010
G01 X32.7643 Y3.8018
G01 X32.7475 Y3.8025
G01 X29.3333 Y3.8025
G01 X21.6500 Y11.4858
G01 X21.6500 Y12.1175
G01 X21.6488 Y12.1415
G01 X21.6453 Y12.1653
G01 X21.6407 Y12.1841
G01 X21.6380 Y12.1930
G01 X21.6322 Y12.2091
G01 X21.6295 Y12.2155
G01 X21.6211 Y12.2330
G01 X21.6087 Y12.2536
G01 X21.5944 Y12.2729
G01 X21.5799 Y12.2891
G01 X21.5622 Y12.3054
G01 X21.5449 Y12.3185
G01 X21.5392 Y12.3225
G01 X21.5245 Y12.3313
G01 X21.5163 Y12.3357
G01 X21.4988 Y12.3439
G01 X21.4761 Y12.3520
G01 X21.4528 Y12.3578
G01 X21.4313 Y12.3611
G01 X21.4050 Y12.3625
G01 X21.1050 Y12.3625
G01 X21.0810 Y12.3613
G01 X21.0549 Y12.3573
G01 X21.0339 Y12.3520
G01 X21.0156 Y12.3455
G01 X21.0070 Y12.3420
G01 X20.9875 Y12.3324
G01 X20.9689 Y12.3212
G01 X20.9514 Y12.3083
G01 X20.9351 Y12.2940
G01 X20.9285 Y12.2874
G01 X20.9156 Y12.2729
G01 X20.9013 Y12.2536
G01 X20.8889 Y12.2330
G01 X20.8805 Y12.2155
G01 X20.8770 Y12.2069
G01 X20.8699 Y12.1864
G01 X20.8647 Y12.1653
G01 X20.8618 Y12.1461
G01 X20.8608 Y12.1369
G01 X20.8600 Y12.1175
G01 X20.8600 Y11.0925
G01 X20.8612 Y11.0685
G01 X20.8652 Y11.0424
G01 X20.8699 Y11.0236
G01 X20.8720 Y11.0170
G01 X20.8786 Y10.9987
G01 X20.8868 Y10.9812
G01 X20.8912 Y10.9730
G01 X20.9013 Y10.9564
G01 X20.9171 Y10.9353
G01 X20.9301 Y10.9209
G01 X20.9351 Y10.9160
G01 X20.9496 Y10.9031
G01 X20.9670 Y10.8901
G01 X20.9895 Y10.8764
G01 X21.0070 Y10.8680
G01 X21.0156 Y10.8645
G01 X21.0339 Y10.8580
G01 X21.0572 Y10.8522
G01 X21.0810 Y10.8487
G01 X21.1003 Y10.8476
G01 X21.4050 Y10.8475
G00 Z2.0000
G00 X22.2975 Y16.0375
G01 F60.00
G01 Z-0.0500
G01 F120.00
G01 X22.8565 Y16.0376
G01 X22.8565 Y16.1825
G01 X22.8576 Y16.2039
G01 X22.8598 Y16.2183
G01 X22.8612 Y16.2251
G01 X22.8648 Y16.2391
G01 X22.8696 Y16.2528
G01 X22.8722 Y16.2593
G01 X22.8795 Y16.2744
G01 X22.8906 Y16.2928
G01 X22.9007 Y16.3062
G01 X22.9136 Y16.3204
G01 X23.3881 Y16.7950
G01 X23.3743 Y16.7932
G01 X23.3575 Y16.7925
G01 X22.5275 Y16.7924
G01 X22.5275 Y16.3602
G01 X22.5258 Y16.3287
G01 X22.5217 Y16.2998
G01 X22.5198 Y16.2906
G01 X22.5126 Y16.2624
G01 X22.5012 Y16.2305
G01 X22.4889 Y16.2040
G01 X22.4845 Y16.1958
G01 X22.4694 Y16.1708
G01 X22.4521 Y16.1473
G01 X22.4461 Y16.1401
G01 X22.4281 Y16.1202
G01 X22.4014 Y16.0958
G01 X22.3722 Y16.0744
G01 X22.3431 Y16.0572
G01 X22.3167 Y16.0447
G01 X22.2975 Y16.0375
G00 Z2.0000
G00 X24.5275 Y15.9725
G01 F60.00
G01 Z-0.0500
G01 F120.00
G01 X24.5275 Y15.6608
G01 X24.5707 Y15.6733
G01 X24.6892 Y15.7434
G01 X24.7866 Y15.8408
G01 X24.8567 Y15.9593
G01 X24.8605 Y15.9725
G01 X24.5275 Y15.9725
G00 Z2.0000
G00 X32.6455 Y8.2187
G01 F60.00
G01 Z-0.0500
G01 F120.00
G01 X32.6293 Y8.2126
G01 X32.5852 Y8.1917
G01 X32.5392 Y8.1644
G01 X32.4943 Y8.1313
G01 X32.4563 Y8.0970
G01 X32.4187 Y8.0557
G01 X32.3868 Y8.0128
G01 X32.3594 Y7.9669
G01 X32.3374 Y7.9207
G01 X32.3185 Y7.8682
G01 X32.3055 Y7.8163
G01 X32.2976 Y7.7634
G01 X32.2950 Y7.7100
G01 X32.2976 Y7.6566
G01 X32.3055 Y7.6037
G01 X32.3185 Y7.5518
G01 X32.3356 Y7.5036
G01 X32.3594 Y7.4531
G01 X32.3868 Y7.4072
G01 X32.4187 Y7.3643
G01 X32.4546 Y7.3246
G01 X32.4943 Y7.2887
G01 X32.5372 Y7.2568
G01 X32.5831 Y7.2294
G01 X32.6314 Y7.2065
G01 X32.6818 Y7.1885
G01 X32.7337 Y7.1755
G01 X32.7866 Y7.1676
G01 X32.8400 Y7.1650
G01 X32.8934 Y7.1676
G01 X32.9463 Y7.1755
G01 X32.9982 Y7.1885
G01 X33.0464 Y7.2056
G01 X33.0927 Y7.2273
G01 X33.1010 Y7.2317
G01 X33.1428 Y7.2568
G01 X33.1857 Y7.2887
G01 X33.2220 Y7.3214
G01 X33.2286 Y7.3280
G01 X33.2613 Y7.3643
G01 X33.2905 Y7.4034
G01 X33.2956 Y7.4112
G01 X33.3183 Y7.4490
G01 X33.3227 Y7.4573
G01 X33.3435 Y7.5014
G01 X33.3601 Y7.5474
G01 X33.3628 Y7.5563
G01 X33.3745 Y7.6037
G01 X33.3818 Y7.6520
G01 X33.3827 Y7.6612
G01 X33.3850 Y7.7100
G01 X33.3827 Y7.7588
G01 X33.3818 Y7.7680
G01 X33.3745 Y7.8163
G01 X33.3628 Y7.8637
G01 X33.3601 Y7.8726
G01 X33.3435 Y7.9186
G01 X33.3206 Y7.9669
G01 X33.2932 Y8.0128
G01 X33.2642 Y8.0521
G01 X33.2582 Y8.0593
G01 X33.2254 Y8.0954
G01 X33.1893 Y8.1282
G01 X33.1821 Y8.1342
G01 X33.1428 Y8.1632
G01 X33.1001 Y8.1889
G01 X33.7172 Y8.8060
G01 X33.7324 Y8.7991
G01 X33.7829 Y8.7813
G01 X33.8325 Y8.7690
G01 X33.8854 Y8.7611
G01 X33.9388 Y8.7585
G01 X33.9876 Y8.7608
G01 X33.9969 Y8.7617
G01 X34.0474 Y8.7695
G01 X34.0970 Y8.7820
G01 X34.1430 Y8.7983
G01 X34.1517 Y8.8019
G01 X34.1916 Y8.8208
G01 X34.1998 Y8.8252
G01 X34.2416 Y8.8503
G01 X34.2846 Y8.8822
G01 X34.3242 Y8.9181
G01 X34.3571 Y8.9542
G01 X34.3630 Y8.9614
G01 X34.3893 Y8.9969
G01 X34.3945 Y9.0047
G01 X34.4195 Y9.0466
G01 X34.4424 Y9.0949
G01 X34.4604 Y9.1453
G01 X34.4723 Y9.1926
G01 X34.4742 Y9.2018
G01 X34.4814 Y9.2524
G01 X34.4838 Y9.3035
G01 X34.4812 Y9.3569
G01 X34.4734 Y9.4098
G01 X34.4610 Y9.4595
G01 X34.4424 Y9.5121
G01 X34.4206 Y9.5583
G01 X34.3933 Y9.6043
G01 X34.3816 Y9.6204
G01 X34.4061 Y9.6450
G01 X34.8742 Y9.6450
G01 X35.2812 Y9.2380
G01 X35.2936 Y9.2266
G01 X35.3069 Y9.2164
G01 X35.3147 Y9.2112
G01 X35.3272 Y9.2039
G01 X35.3445 Y9.1957
G01 X35.3625 Y9.1892
G01 X35.3788 Y9.1851
G01 X35.3954 Y9.1823
G01 X35.4046 Y9.1814
G01 X35.4191 Y9.1808
G01 X42.8083 Y9.1808
G01 X43.8718 Y8.1173
G01 X43.8623 Y8.1064
G01 X43.8332 Y8.0672
G01 X43.8055 Y8.0215
G01 X43.7815 Y7.9711
G01 X43.7635 Y7.9207
G01 X43.7505 Y7.8688
G01 X43.7426 Y7.8159
G01 X43.7400 Y7.7625
G01 X43.7429 Y7.7068
G01 X43.7505 Y7.6562
G01 X43.7635 Y7.6043
G01 X43.7815 Y7.5539
G01 X43.8023 Y7.5098
G01 X43.8067 Y7.5015
G01 X43.8318 Y7.4597
G01 X43.8608 Y7.4204
G01 X43.8668 Y7.4132
G01 X43.8964 Y7.3805
G01 X43.9030 Y7.3739
G01 X43.9393 Y7.3412
G01 X43.9803 Y7.3107
G01 X44.0240 Y7.2842
G01 X44.0323 Y7.2798
G01 X44.0764 Y7.2590
G01 X44.1224 Y7.2424
G01 X44.1313 Y7.2397
G01 X44.1787 Y7.2280
G01 X44.2270 Y7.2207
G01 X44.2362 Y7.2198
G01 X44.2850 Y7.2175
G01 X44.3338 Y7.2198
G01 X44.3430 Y7.2207
G01 X44.3913 Y7.2280
G01 X44.4387 Y7.2397
G01 X44.4476 Y7.2424
G01 X44.4936 Y7.2590
G01 X44.5419 Y7.2819
G01 X44.5838 Y7.3069
G01 X44.5916 Y7.3120
G01 X44.6307 Y7.3412
G01 X44.6670 Y7.3739
G01 X44.6736 Y7.3805
G01 X44.7063 Y7.4168
G01 X44.7355 Y7.4559
G01 X44.7406 Y7.4637
G01 X44.7656 Y7.5056
G01 X44.7866 Y7.5497
G01 X44.7902 Y7.5583
G01 X44.8065 Y7.6043
G01 X44.8185 Y7.6516
G01 X44.8203 Y7.6608
G01 X44.8274 Y7.7091
G01 X44.8299 Y7.7578
G01 X44.8299 Y7.7672
G01 X44.8274 Y7.8159
G01 X44.8195 Y7.8688
G01 X44.8065 Y7.9207
G01 X44.7885 Y7.9711
G01 X44.7656 Y8.0194
G01 X44.7382 Y8.0653
G01 X44.7063 Y8.1082
G01 X44.6687 Y8.1495
G01 X44.6307 Y8.1838
G01 X44.5878 Y8.2157
G01 X44.5419 Y8.2431
G01 X44.4978 Y8.2641
G01 X44.4892 Y8.2677
G01 X44.4476 Y8.2826
G01 X44.4387 Y8.2853
G01 X44.3913 Y8.2970
G01 X44.3430 Y8.3043
G01 X44.3338 Y8.3052
G01 X44.2850 Y8.3075
G01 X44.2357 Y8.3052
G01 X43.0254 Y9.5154
G01 X43.0129 Y9.5267
G01 X43.0013 Y9.5354
G01 X42.9955 Y9.5393
G01 X42.9811 Y9.5479
G01 X42.9659 Y9.5552
G01 X42.9594 Y9.5578
G01 X42.9457 Y9.5625
G01 X42.9294 Y9.5667
G01 X42.9082 Y9.5700
G01 X42.8891 Y9.5709
G01 X35.4999 Y9.5709
G01 X35.0929 Y9.9779
G01 X35.0805 Y9.9893
G01 X35.0653 Y10.0009
G01 X35.0510 Y10.0097
G01 X35.0428 Y10.0141
G01 X35.0275 Y10.0211
G01 X35.0116 Y10.0267
G01 X34.9931 Y10.0313
G01 X34.9741 Y10.0341
G01 X34.9597 Y10.0349
G01 X34.3253 Y10.0350
G01 X34.3062 Y10.0341
G01 X34.2850 Y10.0308
G01 X34.2710 Y10.0273
G01 X34.2643 Y10.0252
G01 X34.2507 Y10.0202
G01 X34.2376 Y10.0141
G01 X34.2314 Y10.0109
G01 X34.2189 Y10.0034
G01 X34.2016 Y9.9908
G01 X34.1874 Y9.9779
G01 X34.0471 Y9.8376
G01 X33.9923 Y9.8459
G01 X33.9388 Y9.8485
G01 X33.8854 Y9.8459
G01 X33.8371 Y9.8388
G01 X33.8280 Y9.8370
G01 X33.7851 Y9.8263
G01 X33.7762 Y9.8236
G01 X33.7303 Y9.8070
G01 X33.6861 Y9.7862
G01 X33.6779 Y9.7818
G01 X33.6361 Y9.7567
G01 X33.5949 Y9.7262
G01 X33.5535 Y9.6889
G01 X33.5206 Y9.6528
G01 X33.5147 Y9.6456
G01 X33.4884 Y9.6101
G01 X33.4832 Y9.6023
G01 X33.4582 Y9.5604
G01 X33.4353 Y9.5121
G01 X33.4173 Y9.4617
G01 X33.4053 Y9.4144
G01 X33.4035 Y9.4052
G01 X33.3970 Y9.3615
G01 X33.3961 Y9.3523
G01 X33.3938 Y9.3035
G01 X33.3965 Y9.2501
G01 X33.4043 Y9.1972
G01 X33.4167 Y9.1475
G01 X33.4345 Y9.0971
G01 X33.4414 Y9.0819
G01 X32.6989 Y8.3392
G01 X32.6892 Y8.3284
G01 X32.6778 Y8.3130
G01 X32.6680 Y8.2966
G01 X32.6607 Y8.2814
G01 X32.6541 Y8.2635
G01 X32.6497 Y8.2473
G01 X32.6483 Y8.2404
G01 X32.6465 Y8.2284
G01 X32.6455 Y8.2187
G00 Z2.0000
G00 X32.4828 Y6.4385
G01 F60.00
G01 Z-0.0500
G01 F120.00
G01 X32.4671 Y6.4326
G01 X32.4230 Y6.4117
G01 X32.3770 Y6.3844
G01 X32.3321 Y6.3513
G01 X32.2941 Y6.3170
G01 X32.2565 Y6.2757
G01 X32.2247 Y6.2328
G01 X32.1972 Y6.1869
G01 X32.1752 Y6.1407
G01 X32.1563 Y6.0882
G01 X32.1433 Y6.0363
G01 X32.1354 Y5.9834
G01 X32.1328 Y5.9300
G01 X32.1354 Y5.8766
G01 X32.1433 Y5.8237
G01 X32.1563 Y5.7718
G01 X32.1734 Y5.7236
G01 X32.1972 Y5.6731
G01 X32.2247 Y5.6272
G01 X32.2565 Y5.5843
G01 X32.2924 Y5.5446
G01 X32.3321 Y5.5087
G01 X32.3750 Y5.4768
G01 X32.4209 Y5.4494
G01 X32.4692 Y5.4265
G01 X32.5196 Y5.4085
G01 X32.5715 Y5.3955
G01 X32.6244 Y5.3876
G01 X32.6778 Y5.3850
G01 X32.7312 Y5.3876
G01 X32.7841 Y5.3955
G01 X32.8360 Y5.4085
G01 X32.8842 Y5.4256
G01 X32.9306 Y5.4473
G01 X32.9388 Y5.4517
G01 X32.9806 Y5.4768
G01 X33.0236 Y5.5087
G01 X33.0632 Y5.5446
G01 X33.0961 Y5.5807
G01 X33.1020 Y5.5879
G01 X33.1310 Y5.6272
G01 X33.1562 Y5.6690
G01 X33.1606 Y5.6773
G01 X33.1813 Y5.7214
G01 X33.1993 Y5.7718
G01 X33.2113 Y5.8191
G01 X33.2131 Y5.8283
G01 X33.2202 Y5.8766
G01 X33.2228 Y5.9277
G01 X33.2205 Y5.9788
G01 X33.2196 Y5.9880
G01 X33.2123 Y6.0363
G01 X33.1993 Y6.0882
G01 X33.1830 Y6.1342
G01 X33.1794 Y6.1428
G01 X33.1585 Y6.1869
G01 X33.1322 Y6.2308
G01 X33.1020 Y6.2721
G01 X33.0961 Y6.2793
G01 X33.0632 Y6.3154
G01 X33.0253 Y6.3498
G01 X33.0199 Y6.3542
G01 X32.9786 Y6.3844
G01 X32.9347 Y6.4106
G01 X32.9058 Y6.4245
G01 X34.0112 Y7.5300
G01 X35.0274 Y7.5300
G01 X35.0275 Y4.8221
G01 X35.0126 Y4.8211
G01 X34.9949 Y4.8185
G01 X34.9752 Y4.8138
G01 X34.9685 Y4.8119
G01 X34.9495 Y4.8050
G01 X34.9332 Y4.7974
G01 X34.9250 Y4.7930
G01 X34.9078 Y4.7824
G01 X34.8916 Y4.7703
G01 X34.8782 Y4.7583
G01 X34.8732 Y4.7535
G01 X34.8597 Y4.7384
G01 X34.8463 Y4.7203
G01 X34.8370 Y4.7050
G01 X34.8326 Y4.6968
G01 X34.8241 Y4.6784
G01 X34.8174 Y4.6593
G01 X34.8119 Y4.6374
G01 X34.8086 Y4.6150
G01 X34.8075 Y4.5948
G01 X34.8075 Y4.3202
G01 X34.8086 Y4.3000
G01 X34.8115 Y4.2799
G01 X34.8162 Y4.2602
G01 X34.8189 Y4.2513
G01 X34.8250 Y4.2345
G01 X34.8347 Y4.2141
G01 X34.8463 Y4.1947
G01 X34.8568 Y4.1803
G01 X34.8612 Y4.1748
G01 X34.8717 Y4.1632
G01 X34.8782 Y4.1567
G01 X34.8916 Y4.1447
G01 X34.9097 Y4.1313
G01 X34.9291 Y4.1197
G01 X34.9452 Y4.1119
G01 X34.9516 Y4.1091
G01 X34.9663 Y4.1039
G01 X34.9752 Y4.1012
G01 X34.9926 Y4.0969
G01 X35.0150 Y4.0936
G01 X35.0375 Y4.0925
G01 X35.4075 Y4.0925
G01 X35.4300 Y4.0936
G01 X35.4501 Y4.0965
G01 X35.4743 Y4.1024
G01 X35.4955 Y4.1100
G01 X35.5159 Y4.1197
G01 X35.5353 Y4.1313
G01 X35.5534 Y4.1447
G01 X35.5701 Y4.1599
G01 X35.5853 Y4.1766
G01 X35.5974 Y4.1928
G01 X35.6103 Y4.2141
G01 X35.6191 Y4.2323
G01 X35.6217 Y4.2388
G01 X35.6276 Y4.2557
G01 X35.6326 Y4.2753
G01 X35.6339 Y4.2822
G01 X35.6366 Y4.3023
G01 X35.6375 Y4.3225
G01 X35.6375 Y4.5948
G01 X35.6366 Y4.6127
G01 X35.6358 Y4.6197
G01 X35.6331 Y4.6374
G01 X35.6282 Y4.6570
G01 X35.6217 Y4.6762
G01 X35.6181 Y4.6848
G01 X35.6103 Y4.7009
G01 X35.5987 Y4.7203
G01 X35.5853 Y4.7384
G01 X35.5733 Y4.7518
G01 X35.5668 Y4.7583
G01 X35.5516 Y4.7717
G01 X35.5353 Y4.7837
G01 X35.5200 Y4.7930
G01 X35.5118 Y4.7974
G01 X35.4934 Y4.8059
G01 X35.4743 Y4.8126
G01 X35.4547 Y4.8176
G01 X35.4324 Y4.8211
G01 X35.4176 Y4.8221
G01 X35.4175 Y7.7273
G01 X35.4168 Y7.7418
G01 X35.4160 Y7.7487
G01 X35.4138 Y7.7631
G01 X35.4104 Y7.7771
G01 X35.4084 Y7.7838
G01 X35.4036 Y7.7975
G01 X35.3945 Y7.8169
G01 X35.3834 Y7.8353
G01 X35.3747 Y7.8469
G01 X35.3702 Y7.8523
G01 X35.3604 Y7.8629
G01 X35.3498 Y7.8727
G01 X35.3444 Y7.8772
G01 X35.3328 Y7.8859
G01 X35.3185 Y7.8947
G01 X35.3103 Y7.8991
G01 X35.2971 Y7.9052
G01 X35.2791 Y7.9117
G01 X35.2606 Y7.9163
G01 X35.2462 Y7.9185
G01 X35.2393 Y7.9193
G01 X35.2225 Y7.9200
G01 X33.9281 Y7.9200
G01 X33.9090 Y7.9189
G01 X33.8947 Y7.9167
G01 X33.8879 Y7.9153
G01 X33.8738 Y7.9117
G01 X33.8602 Y7.9069
G01 X33.8537 Y7.9043
G01 X33.8406 Y7.8981
G01 X33.8260 Y7.8897
G01 X33.8183 Y7.8845
G01 X33.8067 Y7.8758
G01 X33.7925 Y7.8629
G01 X32.5383 Y6.6086
G01 X32.5256 Y6.5943
G01 X32.5170 Y6.5826
G01 X32.5131 Y6.5768
G01 X32.5058 Y6.5643
G01 X32.4995 Y6.5513
G01 X32.4967 Y6.5448
G01 X32.4919 Y6.5312
G01 X32.4865 Y6.5104
G01 X32.4837 Y6.4915
G01 X32.4828 Y6.4747
G01 X32.4828 Y6.4385
G00 Z2.0000
G00 X31.6979 Y5.0359
G01 F60.00
G01 Z-0.0500
G01 F120.00
G01 X31.7072 Y5.0278
G01 X31.7227 Y5.0166
G01 X31.7372 Y5.0080
G01 X31.7545 Y4.9998
G01 X31.7725 Y4.9933
G01 X31.7911 Y4.9887
G01 X31.8100 Y4.9859
G01 X31.8245 Y4.9851
G01 X32.7524 Y4.9850
G01 X32.7525 Y4.7921
G01 X32.7376 Y4.7911
G01 X32.7153 Y4.7876
G01 X32.6957 Y4.7826
G01 X32.6766 Y4.7759
G01 X32.6561 Y4.7664
G01 X32.6387 Y4.7562
G01 X32.6309 Y4.7511
G01 X32.6148 Y4.7388
G01 X32.5999 Y4.7251
G01 X32.5862 Y4.7102
G01 X32.5739 Y4.6941
G01 X32.5688 Y4.6863
G01 X32.5597 Y4.6709
G01 X32.5500 Y4.6505
G01 X32.5424 Y4.6293
G01 X32.5374 Y4.6097
G01 X32.5336 Y4.5850
G01 X32.5325 Y4.5625
G01 X32.5325 Y4.2925
G01 X32.5334 Y4.2723
G01 X32.5361 Y4.2522
G01 X32.5374 Y4.2453
G01 X32.5424 Y4.2257
G01 X32.5483 Y4.2088
G01 X32.5509 Y4.2023
G01 X32.5597 Y4.1841
G01 X32.5700 Y4.1667
G01 X32.5739 Y4.1609
G01 X32.5862 Y4.1448
G01 X32.6015 Y4.1282
G01 X32.6166 Y4.1147
G01 X32.6367 Y4.1000
G01 X32.6541 Y4.0897
G01 X32.6745 Y4.0800
G01 X32.6957 Y4.0724
G01 X32.7199 Y4.0665
G01 X32.7400 Y4.0636
G01 X32.7625 Y4.0625
G01 X33.1348 Y4.0625
G01 X33.1550 Y4.0636
G01 X33.1728 Y4.0661
G01 X33.1797 Y4.0674
G01 X33.1993 Y4.0724
G01 X33.2184 Y4.0791
G01 X33.2248 Y4.0819
G01 X33.2409 Y4.0897
G01 X33.2563 Y4.0988
G01 X33.2622 Y4.1026
G01 X33.2784 Y4.1147
G01 X33.2935 Y4.1282
G01 X33.2983 Y4.1332
G01 X33.3103 Y4.1466
G01 X33.3211 Y4.1609
G01 X33.3250 Y4.1667
G01 X33.3353 Y4.1841
G01 X33.3450 Y4.2045
G01 X33.3526 Y4.2257
G01 X33.3581 Y4.2476
G01 X33.3611 Y4.2676
G01 X33.3617 Y4.2746
G01 X33.3625 Y4.2925
G01 X33.3625 Y4.5648
G01 X33.3614 Y4.5850
G01 X33.3576 Y4.6097
G01 X33.3526 Y4.6293
G01 X33.3450 Y4.6505
G01 X33.3353 Y4.6709
G01 X33.3262 Y4.6863
G01 X33.3211 Y4.6941
G01 X33.3088 Y4.7102
G01 X33.2951 Y4.7251
G01 X33.2802 Y4.7388
G01 X33.2622 Y4.7524
G01 X33.2450 Y4.7630
G01 X33.2368 Y4.7674
G01 X33.2184 Y4.7759
G01 X33.1993 Y4.7826
G01 X33.1797 Y4.7876
G01 X33.1574 Y4.7911
G01 X33.1426 Y4.7921
G01 X33.1425 Y5.1800
G01 X33.1414 Y5.2014
G01 X33.1388 Y5.2181
G01 X33.1342 Y5.2366
G01 X33.1277 Y5.2546
G01 X33.1195 Y5.2719
G01 X33.1097 Y5.2884
G01 X33.0983 Y5.3037
G01 X33.0854 Y5.3179
G01 X33.0748 Y5.3277
G01 X33.0676 Y5.3336
G01 X33.0578 Y5.3409
G01 X33.0519 Y5.3447
G01 X33.0374 Y5.3531
G01 X33.0200 Y5.3611
G01 X33.0041 Y5.3667
G01 X32.9856 Y5.3713
G01 X32.9666 Y5.3741
G01 X32.9522 Y5.3749
G01 X31.9975 Y5.3750
G01 X32.0105 Y5.4269
G01 X32.0177 Y5.4751
G01 X32.0187 Y5.4844
G01 X32.0209 Y5.5332
G01 X32.0183 Y5.5866
G01 X32.0113 Y5.6349
G01 X32.0094 Y5.6441
G01 X31.9975 Y5.6914
G01 X31.9811 Y5.7374
G01 X31.9776 Y5.7460
G01 X31.9566 Y5.7901
G01 X31.9291 Y5.8360
G01 X31.9001 Y5.8753
G01 X31.8942 Y5.8825
G01 X31.8613 Y5.9186
G01 X31.8252 Y5.9514
G01 X31.8180 Y5.9573
G01 X31.7825 Y5.9837
G01 X31.7748 Y5.9888
G01 X31.7328 Y6.0138
G01 X31.6888 Y6.0348
G01 X31.6801 Y6.0384
G01 X31.6341 Y6.0547
G01 X31.5868 Y6.0667
G01 X31.5777 Y6.0685
G01 X31.5294 Y6.0756
G01 X31.4806 Y6.0781
G01 X31.4713 Y6.0781
G01 X31.4225 Y6.0756
G01 X31.3696 Y6.0677
G01 X31.3222 Y6.0560
G01 X31.3133 Y6.0533
G01 X31.2652 Y6.0358
G01 X31.2190 Y6.0138
G01 X31.1731 Y5.9863
G01 X31.1302 Y5.9545
G01 X31.0906 Y5.9186
G01 X31.0546 Y5.8789
G01 X31.0228 Y5.8360
G01 X30.9953 Y5.7901
G01 X30.9724 Y5.7418
G01 X30.9544 Y5.6914
G01 X30.9414 Y5.6395
G01 X30.9336 Y5.5866
G01 X30.9309 Y5.5332
G01 X30.9336 Y5.4798
G01 X30.9414 Y5.4269
G01 X30.9544 Y5.3750
G01 X30.9733 Y5.3225
G01 X30.9953 Y5.2763
G01 X31.0228 Y5.2304
G01 X31.0546 Y5.1874
G01 X31.0906 Y5.1478
G01 X31.1302 Y5.1119
G01 X31.1731 Y5.0800
G01 X31.2190 Y5.0525
G01 X31.2695 Y5.0288
G01 X31.3177 Y5.0117
G01 X31.3696 Y4.9987
G01 X31.4225 Y4.9908
G01 X31.4783 Y4.9882
G01 X31.5294 Y4.9908
G01 X31.5845 Y4.9991
G01 X31.6364 Y5.0124
G01 X31.6823 Y5.0288
G01 X31.6979 Y5.0359
G00 Z2.0000
G00 X31.5987 Y3.1020
G01 F60.00
G01 Z-0.0500
G01 F120.00
G01 X31.5663 Y3.1457
G01 X31.5304 Y3.1854
G01 X31.4907 Y3.2213
G01 X31.4478 Y3.2532
G01 X31.4019 Y3.2806
G01 X31.3536 Y3.3035
G01 X31.3032 Y3.3215
G01 X31.2513 Y3.3345
G01 X31.1984 Y3.3424
G01 X31.1450 Y3.3450
G01 X31.0916 Y3.3424
G01 X31.0387 Y3.3345
G01 X30.9868 Y3.3215
G01 X30.9364 Y3.3035
G01 X30.8881 Y3.2806
G01 X30.8422 Y3.2532
G01 X30.7993 Y3.2213
G01 X30.7596 Y3.1854
G01 X30.7237 Y3.1457
G01 X30.6918 Y3.1028
G01 X30.6644 Y3.0569
G01 X30.6415 Y3.0086
G01 X30.6235 Y2.9582
G01 X30.6105 Y2.9063
G01 X30.6026 Y2.8534
G01 X30.6000 Y2.8000
G01 X30.6026 Y2.7466
G01 X30.6105 Y2.6937
G01 X30.6235 Y2.6418
G01 X30.6415 Y2.5914
G01 X30.6644 Y2.5431
G01 X30.6918 Y2.4972
G01 X30.7208 Y2.4579
G01 X30.7268 Y2.4507
G01 X30.7596 Y2.4146
G01 X30.7957 Y2.3818
G01 X30.8029 Y2.3758
G01 X30.8422 Y2.3468
G01 X30.8840 Y2.3217
G01 X30.8923 Y2.3173
G01 X30.9364 Y2.2965
G01 X30.9824 Y2.2799
G01 X30.9913 Y2.2772
G01 X31.0387 Y2.2655
G01 X31.0870 Y2.2582
G01 X31.0962 Y2.2573
G01 X31.1450 Y2.2550
G01 X31.1961 Y2.2574
G01 X31.2513 Y2.2655
G01 X31.2987 Y2.2772
G01 X31.3076 Y2.2799
G01 X31.3536 Y2.2965
G01 X31.3977 Y2.3173
G01 X31.4060 Y2.3217
G01 X31.4458 Y2.3456
G01 X31.4907 Y2.3787
G01 X31.5320 Y2.4163
G01 X31.5677 Y2.4561
G01 X31.5968 Y2.4953
G01 X31.6101 Y2.5170
G01 X32.1917 Y2.5170
G01 X32.2030 Y2.5177
G01 X32.2163 Y2.5202
G01 X32.2855 Y2.5405
G01 X32.2944 Y2.5436
G01 X32.3049 Y2.5486
G01 X32.3109 Y2.5522
G01 X32.3166 Y2.5563
G01 X32.3429 Y2.5776
G01 X32.3663 Y2.6010
G01 X32.3721 Y2.6080
G01 X32.3759 Y2.6135
G01 X32.4150 Y2.6849
G01 X32.4179 Y2.6914
G01 X32.4202 Y2.6981
G01 X32.4230 Y2.7095
G01 X32.4244 Y2.7212
G01 X32.4244 Y2.7307
G01 X32.4193 Y2.8027
G01 X32.4177 Y2.8145
G01 X32.4146 Y2.8259
G01 X32.4102 Y2.8369
G01 X32.4057 Y2.8453
G01 X32.3747 Y2.8935
G01 X32.3707 Y2.8990
G01 X32.3648 Y2.9058
G01 X32.3320 Y2.9386
G01 X32.2978 Y2.9964
G01 X32.2913 Y3.0056
G01 X32.2820 Y3.0156
G01 X32.2310 Y3.0632
G01 X32.2238 Y3.0693
G01 X32.2161 Y3.0746
G01 X32.2100 Y3.0781
G01 X32.2036 Y3.0811
G01 X32.1971 Y3.0836
G01 X32.1903 Y3.0857
G01 X32.1300 Y3.1000
G01 X32.1227 Y3.1012
G01 X32.1154 Y3.1019
G01 X31.5987 Y3.1020
G00 Z2.0000
G00 X29.7816 Y2.3475
G01 F60.00
G01 Z-0.0500
G01 F120.00
G01 X29.8088 Y2.3203
G01 X29.8195 Y2.3105
G01 X29.8267 Y2.3046
G01 X29.8403 Y2.2948
G01 X29.8548 Y2.2862
G01 X29.8721 Y2.2780
G01 X29.8901 Y2.2716
G01 X29.9110 Y2.2665
G01 X29.9276 Y2.2641
G01 X29.9468 Y2.2632
G01 X30.2710 Y2.2632
G01 X30.6606 Y1.8736
G01 X30.6713 Y1.8638
G01 X30.6766 Y1.8593
G01 X30.6902 Y1.8493
G01 X30.7087 Y1.8384
G01 X30.7239 Y1.8313
G01 X30.7375 Y1.8263
G01 X30.7442 Y1.8242
G01 X30.7605 Y1.8202
G01 X30.7794 Y1.8174
G01 X30.7986 Y1.8165
G01 X32.4918 Y1.8165
G01 X32.5110 Y1.8174
G01 X32.5322 Y1.8207
G01 X32.5485 Y1.8248
G01 X32.5621 Y1.8296
G01 X32.5686 Y1.8322
G01 X32.5838 Y1.8395
G01 X32.5982 Y1.8481
G01 X32.6040 Y1.8520
G01 X32.6156 Y1.8607
G01 X32.6281 Y1.8720
G01 X33.9986 Y3.2425
G01 X34.8156 Y3.2425
G01 X34.8181 Y3.2335
G01 X34.8250 Y3.2145
G01 X34.8358 Y3.1920
G01 X34.8463 Y3.1747
G01 X34.8568 Y3.1603
G01 X34.8612 Y3.1548
G01 X34.8749 Y3.1399
G01 X34.8898 Y3.1262
G01 X34.8953 Y3.1218
G01 X34.9097 Y3.1113
G01 X34.9250 Y3.1020
G01 X34.9311 Y3.0986
G01 X34.9495 Y3.0900
G01 X34.9685 Y3.0831
G01 X34.9752 Y3.0812
G01 X34.9926 Y3.0769
G01 X35.0103 Y3.0742
G01 X35.0173 Y3.0734
G01 X35.0375 Y3.0725
G01 X35.4075 Y3.0725
G01 X35.4300 Y3.0736
G01 X35.4547 Y3.0774
G01 X35.4743 Y3.0824
G01 X35.4912 Y3.0883
G01 X35.4977 Y3.0909
G01 X35.5139 Y3.0986
G01 X35.5353 Y3.1113
G01 X35.5516 Y3.1233
G01 X35.5569 Y3.1278
G01 X35.5701 Y3.1399
G01 X35.5822 Y3.1531
G01 X35.5867 Y3.1584
G01 X35.5987 Y3.1747
G01 X35.6092 Y3.1920
G01 X35.6124 Y3.1982
G01 X35.6200 Y3.2145
G01 X35.6269 Y3.2335
G01 X35.6321 Y3.2531
G01 X35.6339 Y3.2622
G01 X35.6364 Y3.2800
G01 X35.6375 Y3.3002
G01 X35.6375 Y3.5748
G01 X35.6364 Y3.5950
G01 X35.6326 Y3.6197
G01 X35.6276 Y3.6393
G01 X35.6217 Y3.6562
G01 X35.6191 Y3.6627
G01 X35.6103 Y3.6809
G01 X35.6000 Y3.6983
G01 X35.5961 Y3.7041
G01 X35.5853 Y3.7184
G01 X35.5733 Y3.7318
G01 X35.5685 Y3.7368
G01 X35.5534 Y3.7503
G01 X35.5372 Y3.7624
G01 X35.5313 Y3.7662
G01 X35.5159 Y3.7753
G01 X35.4998 Y3.7831
G01 X35.4934 Y3.7859
G01 X35.4743 Y3.7926
G01 X35.4547 Y3.7976
G01 X35.4478 Y3.7989
G01 X35.4300 Y3.8014
G01 X35.4098 Y3.8025
G01 X35.0375 Y3.8025
G01 X35.0150 Y3.8014
G01 X34.9972 Y3.7989
G01 X34.9903 Y3.7976
G01 X34.9752 Y3.7938
G01 X34.9663 Y3.7911
G01 X34.9495 Y3.7850
G01 X34.9291 Y3.7753
G01 X34.9097 Y3.7637
G01 X34.8934 Y3.7517
G01 X34.8782 Y3.7383
G01 X34.8717 Y3.7318
G01 X34.8597 Y3.7184
G01 X34.8463 Y3.7003
G01 X34.8347 Y3.6809
G01 X34.8259 Y3.6627
G01 X34.8181 Y3.6415
G01 X34.8156 Y3.6326
G01 X33.9155 Y3.6325
G01 X33.8987 Y3.6316
G01 X33.8798 Y3.6288
G01 X33.8612 Y3.6242
G01 X33.8411 Y3.6168
G01 X33.8259 Y3.6095
G01 X33.8095 Y3.5997
G01 X33.7941 Y3.5883
G01 X33.7799 Y3.5754
G01 X32.4110 Y2.2065
G01 X30.8793 Y2.2065
G01 X30.4881 Y2.5978
G01 X30.4756 Y2.6090
G01 X30.4640 Y2.6177
G01 X30.4582 Y2.6217
G01 X30.4458 Y2.6291
G01 X30.4265 Y2.6384
G01 X30.4084 Y2.6449
G01 X30.3899 Y2.6495
G01 X30.3686 Y2.6526
G01 X30.3518 Y2.6533
G01 X30.0697 Y2.6533
G01 X30.0815 Y2.6868
G01 X30.0945 Y2.7387
G01 X30.1024 Y2.7916
G01 X30.1050 Y2.8427
G01 X30.1027 Y2.8938
G01 X30.1018 Y2.9030
G01 X30.0945 Y2.9513
G01 X30.0822 Y3.0010
G01 X30.0652 Y3.0492
G01 X30.0616 Y3.0578
G01 X30.0406 Y3.1019
G01 X30.0132 Y3.1478
G01 X29.9813 Y3.1907
G01 X29.9486 Y3.2270
G01 X29.9420 Y3.2336
G01 X29.9093 Y3.2632
G01 X29.9021 Y3.2692
G01 X29.8628 Y3.2982
G01 X29.8210 Y3.3233
G01 X29.8127 Y3.3277
G01 X29.7686 Y3.3485
G01 X29.7226 Y3.3651
G01 X29.7137 Y3.3678
G01 X29.6663 Y3.3795
G01 X29.6180 Y3.3868
G01 X29.6088 Y3.3877
G01 X29.5600 Y3.3900
G01 X29.5112 Y3.3877
G01 X29.5020 Y3.3868
G01 X29.4537 Y3.3795
G01 X29.4063 Y3.3678
G01 X29.3974 Y3.3651
G01 X29.3493 Y3.3476
G01 X29.3031 Y3.3256
G01 X29.2572 Y3.2982
G01 X29.2143 Y3.2663
G01 X29.1746 Y3.2304
G01 X29.1387 Y3.1907
G01 X29.1068 Y3.1478
G01 X29.0794 Y3.1019
G01 X29.0565 Y3.0536
G01 X29.0385 Y3.0032
G01 X29.0255 Y2.9513
G01 X29.0176 Y2.8984
G01 X29.0150 Y2.8450
G01 X29.0176 Y2.7916
G01 X29.0255 Y2.7387
G01 X29.0385 Y2.6868
G01 X29.0574 Y2.6343
G01 X29.0794 Y2.5881
G01 X29.1068 Y2.5422
G01 X29.1387 Y2.4993
G01 X29.1746 Y2.4596
G01 X29.2143 Y2.4237
G01 X29.2572 Y2.3918
G01 X29.3031 Y2.3644
G01 X29.3536 Y2.3406
G01 X29.4018 Y2.3235
G01 X29.4537 Y2.3105
G01 X29.5066 Y2.3026
G01 X29.5623 Y2.3000
G01 X29.6134 Y2.3026
G01 X29.6686 Y2.3110
G01 X29.7204 Y2.3242
G01 X29.7664 Y2.3406
G01 X29.7816 Y2.3475
G00 Z2.0000
G00 X42.2441 Y14.6050
G01 F60.00
G01 Z-0.0500
G01 F120.00
G01 X45.0775 Y11.7717
G01 X45.0775 Y4.6610
G01 X45.0618 Y4.6551
G01 X45.0135 Y4.6320
G01 X44.9697 Y4.6057
G01 X44.9286 Y4.5752
G01 X44.8905 Y4.5411
G01 X44.8839 Y4.5345
G01 X44.8512 Y4.4982
G01 X44.8193 Y4.4553
G01 X44.7942 Y4.4135
G01 X44.7898 Y4.4052
G01 X44.7690 Y4.3611
G01 X44.7510 Y4.3107
G01 X44.7380 Y4.2588
G01 X44.7307 Y4.2105
G01 X44.7298 Y4.2013
G01 X44.7276 Y4.1572
G01 X44.7276 Y4.1478
G01 X44.7298 Y4.1037
G01 X44.7307 Y4.0945
G01 X44.7380 Y4.0462
G01 X44.7497 Y3.9988
G01 X44.7524 Y3.9899
G01 X44.7690 Y3.9439
G01 X44.7919 Y3.8956
G01 X44.8193 Y3.8497
G01 X44.8483 Y3.8104
G01 X44.8543 Y3.8032
G01 X44.8839 Y3.7705
G01 X44.8905 Y3.7639
G01 X44.9268 Y3.7312
G01 X44.9659 Y3.7020
G01 X44.9737 Y3.6969
G01 X45.0156 Y3.6719
G01 X45.0639 Y3.6490
G01 X45.1143 Y3.6310
G01 X45.1616 Y3.6190
G01 X45.1708 Y3.6172
G01 X45.2145 Y3.6107
G01 X45.2237 Y3.6098
G01 X45.2725 Y3.6075
G01 X45.3213 Y3.6098
G01 X45.3305 Y3.6107
G01 X45.3788 Y3.6180
G01 X45.4307 Y3.6310
G01 X45.4811 Y3.6490
G01 X45.5252 Y3.6698
G01 X45.5335 Y3.6742
G01 X45.5713 Y3.6969
G01 X45.5791 Y3.7020
G01 X45.6182 Y3.7312
G01 X45.6579 Y3.7671
G01 X45.6938 Y3.8068
G01 X45.7230 Y3.8459
G01 X45.7281 Y3.8537
G01 X45.7508 Y3.8915
G01 X45.7552 Y3.8998
G01 X45.7760 Y3.9439
G01 X45.7940 Y3.9943
G01 X45.8070 Y4.0462
G01 X45.8143 Y4.0945
G01 X45.8152 Y4.1037
G01 X45.8175 Y4.1525
G01 X45.8149 Y4.2059
G01 X45.8078 Y4.2542
G01 X45.8060 Y4.2634
G01 X45.7940 Y4.3107
G01 X45.7760 Y4.3611
G01 X45.7552 Y4.4052
G01 X45.7508 Y4.4135
G01 X45.7243 Y4.4572
G01 X45.6938 Y4.4982
G01 X45.6611 Y4.5345
G01 X45.6545 Y4.5411
G01 X45.6164 Y4.5752
G01 X45.5753 Y4.6057
G01 X45.5315 Y4.6320
G01 X45.4832 Y4.6551
G01 X45.4676 Y4.6610
G01 X45.4675 Y11.8525
G01 X45.4668 Y11.8693
G01 X45.4660 Y11.8762
G01 X45.4638 Y11.8906
G01 X45.4592 Y11.9091
G01 X45.4536 Y11.9250
G01 X45.4508 Y11.9314
G01 X45.4445 Y11.9444
G01 X45.4372 Y11.9569
G01 X45.4334 Y11.9628
G01 X45.4247 Y11.9744
G01 X45.4104 Y11.9904
G01 X42.5200 Y14.8809
G01 X42.5269 Y14.8961
G01 X42.5447 Y14.9465
G01 X42.5570 Y14.9962
G01 X42.5646 Y15.0468
G01 X42.5674 Y15.0978
G01 X42.5674 Y15.1072
G01 X42.5649 Y15.1559
G01 X42.5575 Y15.2065
G01 X42.5453 Y15.2562
G01 X42.5426 Y15.2651
G01 X42.5260 Y15.3111
G01 X42.5031 Y15.3594
G01 X42.4757 Y15.4053
G01 X42.4467 Y15.4446
G01 X42.4407 Y15.4518
G01 X42.4079 Y15.4879
G01 X42.3718 Y15.5207
G01 X42.3646 Y15.5267
G01 X42.3253 Y15.5557
G01 X42.2794 Y15.5831
G01 X42.2311 Y15.6060
G01 X42.1851 Y15.6226
G01 X42.1762 Y15.6253
G01 X42.1288 Y15.6370
G01 X42.0805 Y15.6443
G01 X42.0713 Y15.6452
G01 X42.0225 Y15.6475
G01 X41.9691 Y15.6449
G01 X41.9162 Y15.6370
G01 X41.8688 Y15.6253
G01 X41.8599 Y15.6226
G01 X41.8118 Y15.6051
G01 X41.7656 Y15.5831
G01 X41.7197 Y15.5557
G01 X41.6768 Y15.5238
G01 X41.6371 Y15.4879
G01 X41.6012 Y15.4482
G01 X41.5693 Y15.4053
G01 X41.5419 Y15.3594
G01 X41.5190 Y15.3111
G01 X41.5010 Y15.2607
G01 X41.4880 Y15.2088
G01 X41.4801 Y15.1559
G01 X41.4775 Y15.1025
G01 X41.4801 Y15.0491
G01 X41.4880 Y14.9962
G01 X41.5010 Y14.9443
G01 X41.5199 Y14.8918
G01 X41.5419 Y14.8456
G01 X41.5693 Y14.7997
G01 X41.6012 Y14.7568
G01 X41.6371 Y14.7171
G01 X41.6768 Y14.6812
G01 X41.7197 Y14.6493
G01 X41.7656 Y14.6219
G01 X41.8161 Y14.5981
G01 X41.8643 Y14.5810
G01 X41.9162 Y14.5680
G01 X41.9691 Y14.5601
G01 X42.0248 Y14.5575
G01 X42.0759 Y14.5601
G01 X42.1311 Y14.5685
G01 X42.1829 Y14.5817
G01 X42.2289 Y14.5981
G01 X42.2441 Y14.6050
G00 Z2.0000
G00 X12.1836 Y20.0782
G01 F60.00
G01 Z-0.0500
G01 F120.00
G01 X12.2232 Y20.0245
G01 X12.3265 Y19.8521
G01 X12.4136 Y19.6685
G01 X12.4164 Y19.6621
G01 X12.4848 Y19.4706
G01 X12.5337 Y19.2758
G01 X12.5355 Y19.2666
G01 X12.5651 Y19.0655
G01 X12.5750 Y18.8625
G01 X12.5649 Y18.6572
G01 X12.5347 Y18.4538
G01 X12.4854 Y18.2566
G01 X12.4833 Y18.2499
G01 X12.4155 Y18.0608
G01 X12.3287 Y17.8770
G01 X12.2232 Y17.7005
G01 X12.1836 Y17.6468
G01 X12.4078 Y17.4226
G01 X12.4445 Y17.4686
G01 X12.5882 Y17.6973
G01 X12.7054 Y17.9407
G01 X12.7946 Y18.1957
G01 X12.8548 Y18.4590
G01 X12.8850 Y18.7274
G01 X12.8850 Y18.9976
G01 X12.8548 Y19.2660
G01 X12.7946 Y19.5293
G01 X12.7054 Y19.7843
G01 X12.5882 Y20.0277
G01 X12.4445 Y20.2564
G01 X12.4078 Y20.3024
G01 X12.1836 Y20.0782
G00 Z2.0000
G00 X9.2643 Y20.5661
G01 F60.00
G01 Z-0.0500
G01 F120.00
G01 X9.3180 Y20.6057
G01 X9.4904 Y20.7090
G01 X9.4966 Y20.7122
G01 X9.6804 Y20.7989
G01 X9.8719 Y20.8673
G01 X10.0667 Y20.9162
G01 X10.0759 Y20.9180
G01 X10.2770 Y20.9476
G01 X10.4800 Y20.9575
G01 X10.6853 Y20.9474
G01 X10.8887 Y20.9172
G01 X11.0859 Y20.8679
G01 X11.0926 Y20.8658
G01 X11.2817 Y20.7980
G01 X11.4655 Y20.7112
G01 X11.6420 Y20.6057
G01 X11.6957 Y20.5661
G01 X11.9199 Y20.7903
G01 X11.8739 Y20.8270
G01 X11.6452 Y20.9707
G01 X11.4018 Y21.0879
G01 X11.1468 Y21.1771
G01 X10.8835 Y21.2373
G01 X10.6151 Y21.2675
G01 X10.3449 Y21.2675
G01 X10.0765 Y21.2373
G01 X9.8132 Y21.1771
G01 X9.5582 Y21.0879
G01 X9.3148 Y20.9707
G01 X9.0861 Y20.8270
G01 X9.0401 Y20.7903
G01 X9.2643 Y20.5661
G00 Z2.0000
G00 X8.0750 Y18.7274
G01 F60.00
G01 Z-0.0500
G01 F120.00
G01 X8.1052 Y18.4590
G01 X8.1654 Y18.1957
G01 X8.2546 Y17.9407
G01 X8.3718 Y17.6973
G01 X8.5155 Y17.4686
G01 X8.5522 Y17.4226
G01 X8.7764 Y17.6468
G01 X8.7368 Y17.7005
G01 X8.6335 Y17.8729
G01 X8.5464 Y18.0565
G01 X8.5436 Y18.0629
G01 X8.4752 Y18.2544
G01 X8.4263 Y18.4492
G01 X8.4245 Y18.4584
G01 X8.3949 Y18.6595
G01 X8.3850 Y18.8625
G01 X8.3951 Y19.0678
G01 X8.4253 Y19.2712
G01 X8.4746 Y19.4684
G01 X8.4767 Y19.4751
G01 X8.5445 Y19.6642
G01 X8.6313 Y19.8480
G01 X8.7368 Y20.0245
G01 X8.7764 Y20.0782
G01 X8.5522 Y20.3024
G01 X8.5155 Y20.2564
G01 X8.3718 Y20.0277
G01 X8.2546 Y19.7843
G01 X8.1654 Y19.5293
G01 X8.1052 Y19.2660
G01 X8.0750 Y18.9976
G01 X8.0750 Y18.7274
G00 Z2.0000
G00 X9.8132 Y16.5479
G01 F60.00
G01 Z-0.0500
G01 F120.00
G01 X10.0765 Y16.4877
G01 X10.3449 Y16.4575
G01 X10.6151 Y16.4575
G01 X10.8835 Y16.4877
G01 X11.1468 Y16.5479
G01 X11.4018 Y16.6371
G01 X11.6452 Y16.7543
G01 X11.8739 Y16.8980
G01 X11.9199 Y16.9347
G01 X11.6957 Y17.1589
G01 X11.6420 Y17.1193
G01 X11.4655 Y17.0138
G01 X11.2817 Y16.9270
G01 X11.0926 Y16.8592
G01 X11.0859 Y16.8571
G01 X10.8887 Y16.8078
G01 X10.6853 Y16.7776
G01 X10.4800 Y16.7675
G01 X10.2770 Y16.7774
G01 X10.0759 Y16.8070
G01 X10.0667 Y16.8088
G01 X9.8719 Y16.8577
G01 X9.6804 Y16.9261
G01 X9.6740 Y16.9289
G01 X9.4904 Y17.0160
G01 X9.3180 Y17.1193
G01 X9.2643 Y17.1589
G01 X9.0401 Y16.9347
G01 X9.0861 Y16.8980
G01 X9.3148 Y16.7543
G01 X9.5582 Y16.6371
G01 X9.8132 Y16.5479
G00 Z2.0000
G00 X9.8132 Y4.5479
G01 F60.00
G01 Z-0.0500
G01 F120.00
G01 X10.0765 Y4.4877
G01 X10.3449 Y4.4575
G01 X10.6151 Y4.4575
G01 X10.8835 Y4.4877
G01 X11.1468 Y4.5479
G01 X11.4018 Y4.6371
G01 X11.6452 Y4.7543
G01 X11.8739 Y4.8980
G01 X11.9199 Y4.9347
G01 X11.6957 Y5.1589
G01 X11.6420 Y5.1193
G01 X11.4655 Y5.0138
G01 X11.2817 Y4.9270
G01 X11.0926 Y4.8592
G01 X11.0859 Y4.8571
G01 X10.8887 Y4.8078
G01 X10.6853 Y4.7776
G01 X10.4800 Y4.7675
G01 X10.2770 Y4.7774
G01 X10.0759 Y4.8070
G01 X10.0667 Y4.8088
G01 X9.8719 Y4.8577
G01 X9.6804 Y4.9261
G01 X9.4966 Y5.0128
G01 X9.4904 Y5.0160
G01 X9.3180 Y5.1193
G01 X9.2643 Y5.1589
G01 X9.0401 Y4.9347
G01 X9.0861 Y4.8980
G01 X9.3148 Y4.7543
G01 X9.5582 Y4.6371
G01 X9.8132 Y4.5479
G00 Z2.0000
M05
G00 Z2.0000
G00 Z15.00


