(G-CODE GENERATED BY FLATCAM v8.994 - www.flatcam.org - Version Date: 2020/11/7)

(Name: rp2040-literal-bare-minimum-F_Cu.gbr_iso_combined_cnc)
(Type: G-code from Geometry)
(Units: MM)

(Created on Sunday, 27 July 2025 at 16:29)

(This preprocessor is the default preprocessor used by FlatCAM.)
(It is made to work with MACH3 compatible motion controllers.)

(TOOL DIAMETER: 0.19 mm)
(Feedrate_XY: 120.0 mm/min)
(Feedrate_Z: 60.0 mm/min)
(Feedrate rapids 1500.0 mm/min)

(Z_Cut: -0.05 mm)
(Z_Move: 2.0 mm)
(Z Start: None mm)
(Z End: 15.0 mm)
(X,Y End: None mm)
(Steps per circle: 64)
(Preprocessor Geometry: default)

(X range:   -0.0970 ...   51.1170  mm)
(Y range:   -0.0970 ...   22.7620  mm)

(Spindle Speed: 15000.0 RPM)
G21
G90
G94

G01 F120.00

M5
G00 Z15.0000
G00 X0.0000 Y0.0000
T1 M6    
(MSG, Change to Tool Dia = 0.1900)
M0
G00 Z15.0000

M03 S15000.0
G01 F120.00
G00 X8.0750 Y3.9376
G01 F60.00
G01 Z-0.0500
G01 F120.00
G01 X8.0750 Y3.6674
G01 X8.1052 Y3.3990
G01 X8.1654 Y3.1357
G01 X8.2546 Y2.8807
G01 X8.3718 Y2.6373
G01 X8.5155 Y2.4086
G01 X8.5522 Y2.3626
G01 X8.7764 Y2.5868
G01 X8.7368 Y2.6405
G01 X8.6313 Y2.8170
G01 X8.5445 Y3.0008
G01 X8.4767 Y3.1899
G01 X8.4746 Y3.1966
G01 X8.4253 Y3.3938
G01 X8.3951 Y3.5972
G01 X8.3850 Y3.8025
G01 X8.3949 Y4.0055
G01 X8.4245 Y4.2066
G01 X8.4263 Y4.2158
G01 X8.4752 Y4.4106
G01 X8.5436 Y4.6021
G01 X8.6303 Y4.7859
G01 X8.6335 Y4.7921
G01 X8.7368 Y4.9645
G01 X8.7764 Y5.0182
G01 X8.5522 Y5.2424
G01 X8.5155 Y5.1964
G01 X8.3718 Y4.9677
G01 X8.2546 Y4.7243
G01 X8.1654 Y4.4693
G01 X8.1052 Y4.2060
G01 X8.0750 Y3.9376
G00 Z2.0000
G00 X9.2643 Y2.0989
G01 F60.00
G01 Z-0.0500
G01 F120.00
G01 X9.0401 Y1.8747
G01 X9.0861 Y1.8380
G01 X9.3148 Y1.6943
G01 X9.5582 Y1.5771
G01 X9.8132 Y1.4879
G01 X10.0765 Y1.4277
G01 X10.3449 Y1.3975
G01 X10.6151 Y1.3975
G01 X10.8835 Y1.4277
G01 X11.1468 Y1.4879
G01 X11.4018 Y1.5771
G01 X11.6452 Y1.6943
G01 X11.8739 Y1.8380
G01 X11.9199 Y1.8747
G01 X11.6957 Y2.0989
G01 X11.6420 Y2.0593
G01 X11.4655 Y1.9538
G01 X11.2817 Y1.8670
G01 X11.0926 Y1.7992
G01 X11.0859 Y1.7971
G01 X10.8887 Y1.7478
G01 X10.6853 Y1.7176
G01 X10.4800 Y1.7075
G01 X10.2770 Y1.7174
G01 X10.0759 Y1.7470
G01 X10.0667 Y1.7488
G01 X9.8719 Y1.7977
G01 X9.6804 Y1.8661
G01 X9.4966 Y1.9528
G01 X9.4904 Y1.9560
G01 X9.3180 Y2.0593
G01 X9.2643 Y2.0989
G00 Z2.0000
G00 X12.1836 Y2.5868
G01 F60.00
G01 Z-0.0500
G01 F120.00
G01 X12.4078 Y2.3626
G01 X12.4445 Y2.4086
G01 X12.5882 Y2.6373
G01 X12.7054 Y2.8807
G01 X12.7946 Y3.1357
G01 X12.8548 Y3.3990
G01 X12.8850 Y3.6674
G01 X12.8850 Y3.9376
G01 X12.8548 Y4.2060
G01 X12.7946 Y4.4693
G01 X12.7054 Y4.7243
G01 X12.5882 Y4.9677
G01 X12.4445 Y5.1964
G01 X12.4078 Y5.2424
G01 X12.1836 Y5.0182
G01 X12.2232 Y4.9645
G01 X12.3287 Y4.7880
G01 X12.4155 Y4.6042
G01 X12.4833 Y4.4151
G01 X12.4854 Y4.4084
G01 X12.5347 Y4.2112
G01 X12.5649 Y4.0078
G01 X12.5750 Y3.8025
G01 X12.5651 Y3.5995
G01 X12.5355 Y3.3984
G01 X12.5337 Y3.3892
G01 X12.4848 Y3.1944
G01 X12.4164 Y3.0029
G01 X12.3297 Y2.8191
G01 X12.3265 Y2.8129
G01 X12.2232 Y2.6405
G01 X12.1836 Y2.5868
G00 Z2.0000
G00 X9.8132 Y6.1171
G01 F60.00
G01 Z-0.0500
G01 F120.00
G01 X9.5582 Y6.0279
G01 X9.3148 Y5.9107
G01 X9.0861 Y5.7670
G01 X9.0401 Y5.7303
G01 X9.2643 Y5.5061
G01 X9.3180 Y5.5457
G01 X9.4904 Y5.6490
G01 X9.4966 Y5.6522
G01 X9.6804 Y5.7389
G01 X9.8719 Y5.8073
G01 X10.0667 Y5.8562
G01 X10.0759 Y5.8580
G01 X10.2770 Y5.8876
G01 X10.4800 Y5.8975
G01 X10.6853 Y5.8874
G01 X10.8887 Y5.8572
G01 X11.0859 Y5.8079
G01 X11.0926 Y5.8058
G01 X11.2817 Y5.7380
G01 X11.4655 Y5.6512
G01 X11.6420 Y5.5457
G01 X11.6957 Y5.5061
G01 X11.9199 Y5.7303
G01 X11.8739 Y5.7670
G01 X11.6452 Y5.9107
G01 X11.4018 Y6.0279
G01 X11.1468 Y6.1171
G01 X10.8835 Y6.1773
G01 X10.6151 Y6.2075
G01 X10.3449 Y6.2075
G01 X10.0765 Y6.1773
G01 X9.8132 Y6.1171
G00 Z2.0000
G00 X12.2794 Y7.9798
G01 F60.00
G01 Z-0.0500
G01 F120.00
G01 X12.5121 Y8.2125
G01 X12.4835 Y8.2927
G01 X12.4622 Y8.3779
G01 X12.4493 Y8.4648
G01 X12.4450 Y8.5525
G01 X12.4493 Y8.6402
G01 X12.4622 Y8.7271
G01 X12.4835 Y8.8123
G01 X12.5121 Y8.8925
G01 X12.2794 Y9.1252
G01 X12.2233 Y9.0151
G01 X12.1647 Y8.8347
G01 X12.1350 Y8.6473
G01 X12.1350 Y8.4577
G01 X12.1647 Y8.2703
G01 X12.2233 Y8.0899
G01 X12.2794 Y7.9798
G00 Z2.0000
G00 X14.5400 Y7.6575
G01 F60.00
G01 Z-0.0500
G01 F120.00
G01 X16.1423 Y7.6575
G01 X16.1516 Y7.6582
G01 X16.1608 Y7.6598
G01 X16.1698 Y7.6623
G01 X16.1785 Y7.6657
G01 X16.1868 Y7.6698
G01 X16.1947 Y7.6748
G01 X16.2021 Y7.6806
G01 X16.2088 Y7.6870
G01 X16.2149 Y7.6941
G01 X16.2203 Y7.7017
G01 X16.2238 Y7.7077
G01 X16.2278 Y7.7161
G01 X16.2309 Y7.7249
G01 X16.2327 Y7.7317
G01 X16.2343 Y7.7409
G01 X16.2350 Y7.7502
G01 X16.2350 Y9.3525
G01 X16.2345 Y9.3618
G01 X16.2332 Y9.3710
G01 X16.2309 Y9.3801
G01 X16.2278 Y9.3889
G01 X16.2238 Y9.3973
G01 X16.2190 Y9.4053
G01 X16.2134 Y9.4128
G01 X16.2055 Y9.4213
G01 X16.2003 Y9.4259
G01 X16.1928 Y9.4315
G01 X16.1848 Y9.4363
G01 X16.1764 Y9.4403
G01 X16.1676 Y9.4434
G01 X16.1585 Y9.4457
G01 X16.1516 Y9.4468
G01 X16.1423 Y9.4475
G01 X14.5400 Y9.4475
G01 X14.5307 Y9.4470
G01 X14.5215 Y9.4457
G01 X14.5124 Y9.4434
G01 X14.5015 Y9.4393
G01 X14.4932 Y9.4352
G01 X14.4853 Y9.4302
G01 X14.4779 Y9.4244
G01 X14.4712 Y9.4180
G01 X14.4651 Y9.4109
G01 X14.4597 Y9.4033
G01 X14.4551 Y9.3952
G01 X14.4522 Y9.3889
G01 X14.4498 Y9.3823
G01 X14.4473 Y9.3733
G01 X14.4457 Y9.3641
G01 X14.4450 Y9.3548
G01 X14.4451 Y7.7478
G01 X14.4460 Y7.7386
G01 X14.4478 Y7.7294
G01 X14.4498 Y7.7227
G01 X14.4532 Y7.7140
G01 X14.4573 Y7.7057
G01 X14.4623 Y7.6978
G01 X14.4681 Y7.6904
G01 X14.4745 Y7.6837
G01 X14.4816 Y7.6776
G01 X14.4892 Y7.6722
G01 X14.4973 Y7.6676
G01 X14.5058 Y7.6639
G01 X14.5147 Y7.6609
G01 X14.5238 Y7.6589
G01 X14.5330 Y7.6578
G01 X14.5400 Y7.6575
G00 Z2.0000
G00 X14.2349 Y11.0572
G01 F60.00
G01 Z-0.0500
G01 F120.00
G01 X14.2307 Y11.1402
G01 X14.2178 Y11.2271
G01 X14.1965 Y11.3123
G01 X14.1669 Y11.3950
G01 X14.1293 Y11.4744
G01 X14.0842 Y11.5497
G01 X14.0318 Y11.6203
G01 X13.9729 Y11.6854
G01 X13.9078 Y11.7443
G01 X13.8372 Y11.7967
G01 X13.7619 Y11.8418
G01 X13.6825 Y11.8794
G01 X13.5998 Y11.9090
G01 X13.5146 Y11.9303
G01 X13.4277 Y11.9432
G01 X13.3400 Y11.9475
G01 X13.2523 Y11.9432
G01 X13.1654 Y11.9303
G01 X13.0802 Y11.9090
G01 X12.9975 Y11.8794
G01 X12.9181 Y11.8418
G01 X12.8428 Y11.7967
G01 X12.7722 Y11.7443
G01 X12.7071 Y11.6854
G01 X12.6482 Y11.6203
G01 X12.5958 Y11.5497
G01 X12.5507 Y11.4744
G01 X12.5131 Y11.3950
G01 X12.4835 Y11.3123
G01 X12.4622 Y11.2271
G01 X12.4493 Y11.1402
G01 X12.4450 Y11.0525
G01 X12.4493 Y10.9648
G01 X12.4622 Y10.8779
G01 X12.4835 Y10.7927
G01 X12.5131 Y10.7100
G01 X12.5507 Y10.6306
G01 X12.5958 Y10.5553
G01 X12.6482 Y10.4847
G01 X12.7071 Y10.4196
G01 X12.7722 Y10.3607
G01 X12.8428 Y10.3083
G01 X12.9181 Y10.2632
G01 X12.9975 Y10.2256
G01 X13.0802 Y10.1960
G01 X13.1654 Y10.1747
G01 X13.2523 Y10.1618
G01 X13.3400 Y10.1575
G01 X13.4277 Y10.1618
G01 X13.5146 Y10.1747
G01 X13.5998 Y10.1960
G01 X13.6825 Y10.2256
G01 X13.7619 Y10.2632
G01 X13.8372 Y10.3083
G01 X13.9078 Y10.3607
G01 X13.9729 Y10.4196
G01 X14.0318 Y10.4847
G01 X14.0842 Y10.5553
G01 X14.1293 Y10.6306
G01 X14.1669 Y10.7100
G01 X14.1965 Y10.7927
G01 X14.2178 Y10.8779
G01 X14.2307 Y10.9648
G01 X14.2349 Y11.0478
G01 X14.2349 Y11.0572
G00 Z2.0000
G00 X16.2349 Y11.0572
G01 F60.00
G01 Z-0.0500
G01 F120.00
G01 X16.2307 Y11.1402
G01 X16.2178 Y11.2271
G01 X16.1965 Y11.3123
G01 X16.1669 Y11.3950
G01 X16.1293 Y11.4744
G01 X16.0842 Y11.5497
G01 X16.0318 Y11.6203
G01 X15.9729 Y11.6854
G01 X15.9078 Y11.7443
G01 X15.8372 Y11.7967
G01 X15.7619 Y11.8418
G01 X15.6825 Y11.8794
G01 X15.5998 Y11.9090
G01 X15.5146 Y11.9303
G01 X15.4277 Y11.9432
G01 X15.3400 Y11.9475
G01 X15.2523 Y11.9432
G01 X15.1654 Y11.9303
G01 X15.0802 Y11.9090
G01 X14.9975 Y11.8794
G01 X14.9181 Y11.8418
G01 X14.8428 Y11.7967
G01 X14.7722 Y11.7443
G01 X14.7071 Y11.6854
G01 X14.6482 Y11.6203
G01 X14.5958 Y11.5497
G01 X14.5507 Y11.4744
G01 X14.5131 Y11.3950
G01 X14.4835 Y11.3123
G01 X14.4622 Y11.2271
G01 X14.4493 Y11.1402
G01 X14.4450 Y11.0525
G01 X14.4493 Y10.9648
G01 X14.4622 Y10.8779
G01 X14.4835 Y10.7927
G01 X14.5131 Y10.7100
G01 X14.5507 Y10.6306
G01 X14.5958 Y10.5553
G01 X14.6482 Y10.4847
G01 X14.7071 Y10.4196
G01 X14.7722 Y10.3607
G01 X14.8428 Y10.3083
G01 X14.9181 Y10.2632
G01 X14.9975 Y10.2256
G01 X15.0802 Y10.1960
G01 X15.1654 Y10.1747
G01 X15.2523 Y10.1618
G01 X15.3400 Y10.1575
G01 X15.4277 Y10.1618
G01 X15.5146 Y10.1747
G01 X15.5998 Y10.1960
G01 X15.6825 Y10.2256
G01 X15.7619 Y10.2632
G01 X15.8372 Y10.3083
G01 X15.9078 Y10.3607
G01 X15.9729 Y10.4196
G01 X16.0318 Y10.4847
G01 X16.0842 Y10.5553
G01 X16.1293 Y10.6306
G01 X16.1669 Y10.7100
G01 X16.1965 Y10.7927
G01 X16.2178 Y10.8779
G01 X16.2307 Y10.9648
G01 X16.2349 Y11.0478
G01 X16.2349 Y11.0572
G00 Z2.0000
G00 X17.5126 Y14.3328
G01 F60.00
G01 Z-0.0500
G01 F120.00
G01 X17.5134 Y14.3184
G01 X17.5162 Y14.2994
G01 X17.5208 Y14.2809
G01 X17.5273 Y14.2629
G01 X17.5355 Y14.2456
G01 X17.5453 Y14.2291
G01 X17.5567 Y14.2138
G01 X17.5680 Y14.2012
G01 X17.5838 Y14.1867
G01 X17.5972 Y14.1766
G01 X17.6135 Y14.1666
G01 X17.6286 Y14.1592
G01 X17.6350 Y14.1564
G01 X17.6487 Y14.1516
G01 X17.6649 Y14.1472
G01 X17.6717 Y14.1458
G01 X17.6838 Y14.1440
G01 X17.6930 Y14.1430
G01 X17.7075 Y14.1425
G01 X21.1567 Y14.1425
G01 X22.9075 Y12.3917
G01 X22.9074 Y7.7410
G01 X22.8918 Y7.7351
G01 X22.8435 Y7.7120
G01 X22.7997 Y7.6857
G01 X22.7568 Y7.6538
G01 X22.7171 Y7.6179
G01 X22.6843 Y7.5818
G01 X22.6783 Y7.5746
G01 X22.6481 Y7.5333
G01 X22.6219 Y7.4894
G01 X22.5990 Y7.4411
G01 X22.5810 Y7.3907
G01 X22.5690 Y7.3434
G01 X22.5672 Y7.3342
G01 X22.5607 Y7.2905
G01 X22.5598 Y7.2813
G01 X22.5575 Y7.2325
G01 X22.5601 Y7.1791
G01 X22.5680 Y7.1262
G01 X22.5797 Y7.0788
G01 X22.5824 Y7.0699
G01 X22.5990 Y7.0239
G01 X22.6198 Y6.9798
G01 X22.6242 Y6.9715
G01 X22.6493 Y6.9297
G01 X22.6783 Y6.8904
G01 X22.6843 Y6.8832
G01 X22.7171 Y6.8471
G01 X22.7532 Y6.8143
G01 X22.7604 Y6.8083
G01 X22.7997 Y6.7793
G01 X22.8415 Y6.7542
G01 X22.8498 Y6.7498
G01 X22.8939 Y6.7290
G01 X22.9399 Y6.7124
G01 X22.9488 Y6.7097
G01 X22.9962 Y6.6980
G01 X23.0445 Y6.6907
G01 X23.0537 Y6.6898
G01 X23.1025 Y6.6875
G01 X23.1513 Y6.6898
G01 X23.1605 Y6.6907
G01 X23.2088 Y6.6980
G01 X23.2562 Y6.7097
G01 X23.2651 Y6.7124
G01 X23.3111 Y6.7290
G01 X23.3552 Y6.7498
G01 X23.3635 Y6.7542
G01 X23.4053 Y6.7793
G01 X23.4464 Y6.8098
G01 X23.4879 Y6.8471
G01 X23.5238 Y6.8868
G01 X23.5557 Y6.9297
G01 X23.5808 Y6.9715
G01 X23.5852 Y6.9798
G01 X23.6060 Y7.0239
G01 X23.6226 Y7.0699
G01 X23.6253 Y7.0788
G01 X23.6360 Y7.1216
G01 X23.6378 Y7.1308
G01 X23.6449 Y7.1791
G01 X23.6475 Y7.2348
G01 X23.6449 Y7.2859
G01 X23.6378 Y7.3342
G01 X23.6360 Y7.3434
G01 X23.6240 Y7.3907
G01 X23.6060 Y7.4411
G01 X23.5852 Y7.4852
G01 X23.5808 Y7.4935
G01 X23.5543 Y7.5372
G01 X23.5238 Y7.5782
G01 X23.4911 Y7.6145
G01 X23.4845 Y7.6211
G01 X23.4464 Y7.6552
G01 X23.4053 Y7.6857
G01 X23.3615 Y7.7120
G01 X23.3132 Y7.7351
G01 X23.2975 Y7.7410
G01 X23.2975 Y12.4725
G01 X23.2968 Y12.4893
G01 X23.2960 Y12.4962
G01 X23.2938 Y12.5106
G01 X23.2892 Y12.5291
G01 X23.2827 Y12.5471
G01 X23.2766 Y12.5603
G01 X23.2722 Y12.5685
G01 X23.2634 Y12.5828
G01 X23.2533 Y12.5962
G01 X23.2404 Y12.6104
G01 X21.3754 Y14.4754
G01 X21.3612 Y14.4883
G01 X21.3439 Y14.5009
G01 X21.3274 Y14.5106
G01 X21.3143 Y14.5168
G01 X21.3078 Y14.5194
G01 X21.2941 Y14.5242
G01 X21.2756 Y14.5288
G01 X21.2566 Y14.5316
G01 X21.2375 Y14.5325
G01 X17.9025 Y14.5326
G01 X17.9025 Y16.2517
G01 X18.1833 Y16.5325
G01 X18.5775 Y16.5325
G01 X18.5943 Y16.5332
G01 X18.6079 Y16.5350
G01 X19.5967 Y16.5349
G01 X19.6018 Y16.5134
G01 X19.6045 Y16.5045
G01 X19.6111 Y16.4862
G01 X19.6214 Y16.4645
G01 X19.6313 Y16.4478
G01 X19.6365 Y16.4401
G01 X19.6481 Y16.4246
G01 X19.6643 Y16.4068
G01 X19.6785 Y16.3937
G01 X19.6857 Y16.3877
G01 X19.7014 Y16.3763
G01 X19.7220 Y16.3639
G01 X19.7437 Y16.3536
G01 X19.7620 Y16.3470
G01 X19.7686 Y16.3449
G01 X19.7852 Y16.3407
G01 X19.7943 Y16.3389
G01 X19.8135 Y16.3362
G01 X19.8375 Y16.3350
G01 X20.8625 Y16.3350
G01 X20.8865 Y16.3362
G01 X20.9080 Y16.3393
G01 X20.9291 Y16.3443
G01 X20.9380 Y16.3470
G01 X20.9563 Y16.3536
G01 X20.9780 Y16.3639
G01 X20.9947 Y16.3738
G01 X21.0024 Y16.3790
G01 X21.0179 Y16.3906
G01 X21.0357 Y16.4068
G01 X21.0488 Y16.4210
G01 X21.0548 Y16.4282
G01 X21.0662 Y16.4439
G01 X21.0786 Y16.4645
G01 X21.0870 Y16.4820
G01 X21.0905 Y16.4906
G01 X21.0970 Y16.5089
G01 X21.1028 Y16.5322
G01 X21.1063 Y16.5560
G01 X21.1075 Y16.5800
G01 X21.1075 Y16.8800
G01 X21.1063 Y16.9040
G01 X21.1036 Y16.9232
G01 X21.1018 Y16.9323
G01 X21.0970 Y16.9511
G01 X21.0889 Y16.9738
G01 X21.0807 Y16.9913
G01 X21.0763 Y16.9995
G01 X21.0662 Y17.0161
G01 X21.0533 Y17.0336
G01 X21.0357 Y17.0532
G01 X21.0179 Y17.0694
G01 X20.9986 Y17.0837
G01 X20.9780 Y17.0961
G01 X20.9563 Y17.1064
G01 X20.9336 Y17.1145
G01 X20.9103 Y17.1203
G01 X20.8842 Y17.1240
G01 X20.8625 Y17.1250
G01 X19.8375 Y17.1250
G01 X19.8181 Y17.1242
G01 X19.8112 Y17.1236
G01 X19.7943 Y17.1211
G01 X19.7852 Y17.1193
G01 X19.7664 Y17.1145
G01 X19.7437 Y17.1064
G01 X19.7220 Y17.0961
G01 X19.7053 Y17.0862
G01 X19.6976 Y17.0810
G01 X19.6839 Y17.0708
G01 X19.6785 Y17.0663
G01 X19.6643 Y17.0532
G01 X19.6481 Y17.0354
G01 X19.6338 Y17.0161
G01 X19.6226 Y16.9975
G01 X19.6121 Y16.9759
G01 X19.6045 Y16.9555
G01 X19.6018 Y16.9466
G01 X19.5967 Y16.9250
G01 X18.5800 Y16.9250
G01 X18.5632 Y16.9243
G01 X18.5496 Y16.9225
G01 X18.1002 Y16.9225
G01 X18.0834 Y16.9216
G01 X18.0667 Y16.9192
G01 X18.0504 Y16.9154
G01 X18.0415 Y16.9127
G01 X18.0279 Y16.9077
G01 X18.0106 Y16.8995
G01 X17.9941 Y16.8897
G01 X17.9806 Y16.8797
G01 X17.9646 Y16.8654
G01 X17.5664 Y16.4670
G01 X17.5567 Y16.4562
G01 X17.5466 Y16.4428
G01 X17.5378 Y16.4285
G01 X17.5344 Y16.4224
G01 X17.5273 Y16.4071
G01 X17.5223 Y16.3935
G01 X17.5196 Y16.3846
G01 X17.5158 Y16.3683
G01 X17.5134 Y16.3516
G01 X17.5125 Y16.3325
G01 X17.5126 Y14.3328
G00 Z2.0000
G00 X21.5912 Y15.4350
G01 F60.00
G01 Z-0.0500
G01 F120.00
G01 X21.5991 Y15.4078
G01 X21.6705 Y15.2871
G01 X21.7696 Y15.1880
G01 X21.8903 Y15.1166
G01 X22.0272 Y15.0768
G01 X22.0506 Y15.0750
G01 X22.2800 Y15.0750
G01 X22.2800 Y15.3850
G01 X22.1102 Y15.3850
G01 X22.0885 Y15.3862
G01 X22.0693 Y15.3889
G01 X22.0602 Y15.3907
G01 X22.0414 Y15.3955
G01 X22.0166 Y15.4046
G01 X21.9991 Y15.4129
G01 X21.9930 Y15.4162
G01 X21.9764 Y15.4263
G01 X21.9644 Y15.4350
G01 X21.5912 Y15.4350
G00 Z2.0000
G00 X22.9700 Y15.3850
G01 F60.00
G01 Z-0.0500
G01 F120.00
G01 X22.9700 Y15.0750
G01 X23.1994 Y15.0750
G01 X23.2228 Y15.0768
G01 X23.3597 Y15.1166
G01 X23.4804 Y15.1880
G01 X23.5795 Y15.2871
G01 X23.6509 Y15.4078
G01 X23.6588 Y15.4350
G01 X23.2856 Y15.4350
G01 X23.2736 Y15.4263
G01 X23.2570 Y15.4162
G01 X23.2509 Y15.4129
G01 X23.2334 Y15.4046
G01 X23.2086 Y15.3955
G01 X23.1898 Y15.3907
G01 X23.1807 Y15.3889
G01 X23.1615 Y15.3862
G01 X23.1398 Y15.3850
G01 X22.9700 Y15.3850
G00 Z2.0000
G00 X23.2856 Y16.1250
G01 F60.00
G01 Z-0.0500
G01 F120.00
G01 X23.6588 Y16.1250
G01 X23.6509 Y16.1522
G01 X23.5795 Y16.2729
G01 X23.4804 Y16.3720
G01 X23.3597 Y16.4434
G01 X23.2228 Y16.4832
G01 X23.1994 Y16.4850
G01 X22.9700 Y16.4850
G01 X22.9700 Y16.1750
G01 X23.1398 Y16.1750
G01 X23.1615 Y16.1738
G01 X23.1807 Y16.1711
G01 X23.1898 Y16.1693
G01 X23.2086 Y16.1645
G01 X23.2334 Y16.1554
G01 X23.2509 Y16.1471
G01 X23.2570 Y16.1438
G01 X23.2736 Y16.1337
G01 X23.2856 Y16.1250
G00 Z2.0000
G00 X24.0575 Y19.1875
G01 F60.00
G01 Z-0.0500
G01 F120.00
G01 X24.0575 Y19.4992
G01 X24.0143 Y19.4867
G01 X23.8958 Y19.4166
G01 X23.7984 Y19.3192
G01 X23.7283 Y19.2007
G01 X23.7245 Y19.1875
G01 X24.0575 Y19.1875
G00 Z2.0000
G00 X24.7475 Y19.1875
G01 F60.00
G01 Z-0.0500
G01 F120.00
G01 X25.0805 Y19.1875
G01 X25.0767 Y19.2007
G01 X25.0066 Y19.3192
G01 X24.9092 Y19.4166
G01 X24.7907 Y19.4867
G01 X24.7475 Y19.4992
G01 X24.7475 Y19.1875
G00 Z2.0000
G00 X27.2625 Y19.1675
G01 F60.00
G01 Z-0.0500
G01 F120.00
G01 X27.2625 Y19.4792
G01 X27.2193 Y19.4667
G01 X27.1008 Y19.3966
G01 X27.0034 Y19.2992
G01 X26.9333 Y19.1807
G01 X26.9295 Y19.1675
G01 X27.2625 Y19.1675
G00 Z2.0000
G00 X29.3396 Y18.4554
G01 F60.00
G01 Z-0.0500
G01 F120.00
G01 X29.2942 Y18.4667
G01 X29.2413 Y18.4745
G01 X29.1878 Y18.4772
G01 X29.1344 Y18.4745
G01 X29.0815 Y18.4667
G01 X29.0296 Y18.4537
G01 X28.9793 Y18.4357
G01 X28.9309 Y18.4128
G01 X28.8850 Y18.3853
G01 X28.8421 Y18.3535
G01 X28.8025 Y18.3175
G01 X28.7665 Y18.2779
G01 X28.7347 Y18.2350
G01 X28.7072 Y18.1891
G01 X28.6843 Y18.1407
G01 X28.6663 Y18.0904
G01 X28.6533 Y18.0385
G01 X28.6455 Y17.9856
G01 X28.6428 Y17.9322
G01 X28.6455 Y17.8787
G01 X28.6533 Y17.8258
G01 X28.6663 Y17.7740
G01 X28.6843 Y17.7236
G01 X28.7072 Y17.6753
G01 X28.7347 Y17.6294
G01 X28.7665 Y17.5864
G01 X28.8025 Y17.5468
G01 X28.8421 Y17.5109
G01 X28.8850 Y17.4790
G01 X28.9309 Y17.4515
G01 X28.9793 Y17.4287
G01 X29.0296 Y17.4106
G01 X29.0815 Y17.3976
G01 X29.1344 Y17.3898
G01 X29.1878 Y17.3872
G01 X29.2413 Y17.3898
G01 X29.2942 Y17.3976
G01 X29.3460 Y17.4106
G01 X29.3964 Y17.4287
G01 X29.4406 Y17.4494
G01 X29.4488 Y17.4538
G01 X29.4906 Y17.4790
G01 X29.5299 Y17.5080
G01 X29.5371 Y17.5139
G01 X29.5732 Y17.5468
G01 X29.6061 Y17.5829
G01 X29.6120 Y17.5901
G01 X29.6383 Y17.6256
G01 X29.6435 Y17.6333
G01 X29.6685 Y17.6753
G01 X29.6913 Y17.7236
G01 X29.7094 Y17.7740
G01 X29.7219 Y17.8236
G01 X29.7302 Y17.8787
G01 X29.7328 Y17.9322
G01 X29.7302 Y17.9856
G01 X29.7228 Y18.0362
G01 X29.7094 Y18.0904
G01 X29.6922 Y18.1386
G01 X29.6696 Y18.1870
G01 X29.6522 Y18.2164
G01 X29.7011 Y18.2655
G01 X29.7122 Y18.2781
G01 X29.7234 Y18.2936
G01 X29.7309 Y18.3060
G01 X29.7341 Y18.3122
G01 X29.7402 Y18.3254
G01 X29.7452 Y18.3390
G01 X29.7473 Y18.3456
G01 X29.7508 Y18.3597
G01 X29.7541 Y18.3809
G01 X29.7550 Y18.4000
G01 X29.7550 Y19.3115
G01 X29.7707 Y19.3174
G01 X29.8190 Y19.3405
G01 X29.8628 Y19.3668
G01 X29.9039 Y19.3973
G01 X29.9420 Y19.4314
G01 X29.9486 Y19.4380
G01 X29.9813 Y19.4743
G01 X30.0132 Y19.5172
G01 X30.0383 Y19.5590
G01 X30.0427 Y19.5673
G01 X30.0635 Y19.6114
G01 X30.0815 Y19.6618
G01 X30.0945 Y19.7137
G01 X30.1018 Y19.7620
G01 X30.1027 Y19.7712
G01 X30.1050 Y19.8223
G01 X30.1024 Y19.8734
G01 X30.0945 Y19.9263
G01 X30.0815 Y19.9782
G01 X30.0652 Y20.0242
G01 X30.0616 Y20.0328
G01 X30.0427 Y20.0727
G01 X30.0383 Y20.0810
G01 X30.0132 Y20.1228
G01 X29.9813 Y20.1657
G01 X29.9454 Y20.2054
G01 X29.9057 Y20.2413
G01 X29.8628 Y20.2732
G01 X29.8210 Y20.2983
G01 X29.8127 Y20.3027
G01 X29.7728 Y20.3216
G01 X29.7642 Y20.3252
G01 X29.7182 Y20.3415
G01 X29.6640 Y20.3550
G01 X29.6134 Y20.3624
G01 X29.5600 Y20.3650
G01 X29.5066 Y20.3624
G01 X29.4537 Y20.3545
G01 X29.4018 Y20.3415
G01 X29.3514 Y20.3235
G01 X29.3031 Y20.3006
G01 X29.2572 Y20.2732
G01 X29.2143 Y20.2413
G01 X29.1746 Y20.2054
G01 X29.1387 Y20.1657
G01 X29.1068 Y20.1228
G01 X29.0794 Y20.0769
G01 X29.0565 Y20.0286
G01 X29.0385 Y19.9782
G01 X29.0250 Y19.9240
G01 X29.0176 Y19.8734
G01 X29.0150 Y19.8200
G01 X29.0176 Y19.7666
G01 X29.0247 Y19.7183
G01 X29.0265 Y19.7091
G01 X29.0372 Y19.6663
G01 X29.0399 Y19.6574
G01 X29.0565 Y19.6114
G01 X29.0805 Y19.5610
G01 X29.1068 Y19.5172
G01 X29.1387 Y19.4743
G01 X29.1746 Y19.4346
G01 X29.2125 Y19.4002
G01 X29.2572 Y19.3668
G01 X29.3010 Y19.3405
G01 X29.3493 Y19.3174
G01 X29.3650 Y19.3115
G01 X29.3650 Y18.4808
G01 X29.3396 Y18.4554
G00 Z2.0000
G00 X30.0777 Y17.7928
G01 F60.00
G01 Z-0.0500
G01 F120.00
G01 X30.1267 Y17.7365
G01 X30.1353 Y17.7285
G01 X30.1449 Y17.7216
G01 X30.1553 Y17.7160
G01 X30.1663 Y17.7117
G01 X30.2356 Y17.6913
G01 X30.2466 Y17.6888
G01 X30.2533 Y17.6879
G01 X30.2623 Y17.6875
G01 X30.4316 Y17.6875
G01 X30.5603 Y17.6530
G01 X30.5886 Y17.6396
G01 X30.5952 Y17.6372
G01 X30.6042 Y17.6347
G01 X30.6111 Y17.6334
G01 X30.6180 Y17.6327
G01 X30.6948 Y17.6274
G01 X30.7066 Y17.6282
G01 X30.7159 Y17.6299
G01 X30.7249 Y17.6324
G01 X30.7337 Y17.6359
G01 X30.8033 Y17.6736
G01 X30.8109 Y17.6785
G01 X30.8188 Y17.6848
G01 X30.8323 Y17.6773
G01 X30.8722 Y17.6584
G01 X30.8808 Y17.6548
G01 X30.9268 Y17.6385
G01 X30.9787 Y17.6255
G01 X31.0316 Y17.6176
G01 X31.0803 Y17.6151
G01 X31.0897 Y17.6151
G01 X31.1407 Y17.6179
G01 X31.1913 Y17.6255
G01 X31.2387 Y17.6372
G01 X31.2476 Y17.6399
G01 X31.2936 Y17.6565
G01 X31.3377 Y17.6773
G01 X31.3460 Y17.6817
G01 X31.3878 Y17.7068
G01 X31.4289 Y17.7373
G01 X31.4670 Y17.7714
G01 X31.4736 Y17.7780
G01 X31.5063 Y17.8143
G01 X31.5368 Y17.8553
G01 X31.5633 Y17.8990
G01 X31.5667 Y17.9052
G01 X31.5876 Y17.9493
G01 X31.5987 Y17.9796
G01 X31.7255 Y17.9544
G01 X31.8812 Y17.8899
G01 X32.0213 Y17.7963
G01 X32.1404 Y17.6772
G01 X32.1694 Y17.6342
G01 X32.1924 Y17.6072
G01 X32.1973 Y17.6020
G01 X32.2027 Y17.5973
G01 X32.2103 Y17.5916
G01 X32.2185 Y17.5867
G01 X32.2831 Y17.5543
G01 X32.2895 Y17.5514
G01 X32.2962 Y17.5489
G01 X32.3030 Y17.5470
G01 X32.3122 Y17.5452
G01 X32.3216 Y17.5443
G01 X32.3287 Y17.5443
G01 X32.4075 Y17.5525
G01 X32.4186 Y17.5547
G01 X32.4279 Y17.5575
G01 X32.5935 Y17.5905
G01 X32.7621 Y17.5905
G01 X32.9274 Y17.5576
G01 X33.0830 Y17.4931
G01 X33.2232 Y17.3995
G01 X33.2448 Y17.3780
G01 X33.2597 Y17.3647
G01 X33.2671 Y17.3590
G01 X33.2730 Y17.3553
G01 X33.2792 Y17.3520
G01 X33.3005 Y17.3432
G01 X33.3005 Y16.4745
G01 X33.3012 Y16.4577
G01 X33.3042 Y16.4364
G01 X33.3088 Y16.4179
G01 X33.3153 Y16.3999
G01 X33.3235 Y16.3826
G01 X33.3333 Y16.3661
G01 X33.3447 Y16.3508
G01 X33.3560 Y16.3382
G01 X33.3725 Y16.3217
G01 X33.3725 Y16.0525
G01 X33.3736 Y16.0295
G01 X33.3766 Y16.0089
G01 X33.3780 Y16.0021
G01 X33.3826 Y15.9843
G01 X33.3887 Y15.9669
G01 X33.3913 Y15.9604
G01 X33.4002 Y15.9417
G01 X33.4134 Y15.9200
G01 X33.4258 Y15.9034
G01 X33.4413 Y15.8863
G01 X33.4584 Y15.8708
G01 X33.4769 Y15.8571
G01 X33.4967 Y15.8452
G01 X33.5176 Y15.8354
G01 X33.5393 Y15.8276
G01 X33.5639 Y15.8216
G01 X33.5845 Y15.8186
G01 X33.6075 Y15.8175
G01 X33.9475 Y15.8175
G01 X33.9659 Y15.8183
G01 X33.9729 Y15.8189
G01 X33.9933 Y15.8220
G01 X34.0135 Y15.8270
G01 X34.0201 Y15.8291
G01 X34.0374 Y15.8354
G01 X34.0562 Y15.8442
G01 X34.0623 Y15.8475
G01 X34.0800 Y15.8584
G01 X34.0966 Y15.8708
G01 X34.1103 Y15.8831
G01 X34.1153 Y15.8880
G01 X34.1292 Y15.9034
G01 X34.1416 Y15.9200
G01 X34.1454 Y15.9259
G01 X34.1548 Y15.9417
G01 X34.1637 Y15.9604
G01 X34.1724 Y15.9843
G01 X34.1775 Y16.0044
G01 X34.1811 Y16.0271
G01 X34.1824 Y16.0478
G01 X34.1825 Y16.3325
G01 X34.1816 Y16.3532
G01 X34.1788 Y16.3738
G01 X34.1770 Y16.3829
G01 X34.1724 Y16.4007
G01 X34.1646 Y16.4224
G01 X34.1558 Y16.4412
G01 X34.1525 Y16.4473
G01 X34.1429 Y16.4631
G01 X34.1306 Y16.4798
G01 X34.1153 Y16.4970
G01 X34.1001 Y16.5111
G01 X34.0929 Y16.5170
G01 X34.0800 Y16.5266
G01 X34.0741 Y16.5304
G01 X34.0583 Y16.5398
G01 X34.0374 Y16.5496
G01 X34.0157 Y16.5574
G01 X33.9933 Y16.5630
G01 X33.9705 Y16.5664
G01 X33.9498 Y16.5675
G01 X33.6905 Y16.5675
G01 X33.6905 Y17.6068
G01 X33.6896 Y17.6236
G01 X33.6876 Y17.6380
G01 X33.6863 Y17.6448
G01 X33.6822 Y17.6611
G01 X33.6757 Y17.6791
G01 X33.6696 Y17.6923
G01 X33.6652 Y17.7005
G01 X33.6570 Y17.7139
G01 X33.6570 Y18.8253
G01 X33.6563 Y18.8343
G01 X33.6553 Y18.8410
G01 X33.6425 Y18.8993
G01 X33.6404 Y18.9061
G01 X33.6378 Y18.9127
G01 X33.6347 Y18.9191
G01 X33.6311 Y18.9253
G01 X33.6270 Y18.9312
G01 X33.6226 Y18.9367
G01 X33.5720 Y18.9947
G01 X33.5650 Y19.0010
G01 X33.5574 Y19.0066
G01 X33.5493 Y19.0114
G01 X33.5407 Y19.0154
G01 X33.5318 Y19.0185
G01 X33.4648 Y19.0382
G01 X33.4538 Y19.0407
G01 X33.4403 Y19.0420
G01 X33.3815 Y19.0420
G01 X33.3587 Y19.0438
G01 X33.2241 Y19.0829
G01 X33.1036 Y19.1542
G01 X33.0954 Y19.1585
G01 X33.0891 Y19.1612
G01 X33.0825 Y19.1634
G01 X33.0253 Y19.1805
G01 X33.0164 Y19.1827
G01 X33.0074 Y19.1841
G01 X32.9983 Y19.1845
G01 X32.9914 Y19.1843
G01 X32.9823 Y19.1832
G01 X32.9034 Y19.1642
G01 X32.8948 Y19.1612
G01 X32.8846 Y19.1564
G01 X32.8326 Y19.1264
G01 X32.7040 Y19.0920
G01 X32.5710 Y19.0920
G01 X32.4424 Y19.1264
G01 X32.3271 Y19.1930
G01 X31.6885 Y19.8316
G01 X31.6900 Y19.8673
G01 X31.6871 Y19.9207
G01 X31.6795 Y19.9713
G01 X31.6672 Y20.0210
G01 X31.6502 Y20.0692
G01 X31.6466 Y20.0778
G01 X31.6256 Y20.1219
G01 X31.5994 Y20.1658
G01 X31.5692 Y20.2071
G01 X31.5632 Y20.2143
G01 X31.5304 Y20.2504
G01 X31.4907 Y20.2863
G01 X31.4516 Y20.3155
G01 X31.4438 Y20.3206
G01 X31.4019 Y20.3456
G01 X31.3557 Y20.3676
G01 X31.3032 Y20.3865
G01 X31.2513 Y20.3995
G01 X31.1984 Y20.4074
G01 X31.1450 Y20.4100
G01 X31.0916 Y20.4074
G01 X31.0387 Y20.3995
G01 X30.9868 Y20.3865
G01 X30.9386 Y20.3694
G01 X30.8923 Y20.3477
G01 X30.8840 Y20.3433
G01 X30.8422 Y20.3182
G01 X30.7975 Y20.2848
G01 X30.7596 Y20.2504
G01 X30.7252 Y20.2125
G01 X30.6932 Y20.1697
G01 X30.6793 Y20.1470
G01 X30.6475 Y20.1469
G01 X30.6340 Y20.1453
G01 X30.5633 Y20.1265
G01 X30.5547 Y20.1236
G01 X30.5465 Y20.1198
G01 X30.5250 Y20.1075
G01 X30.5174 Y20.1027
G01 X30.4806 Y20.0735
G01 X30.4723 Y20.0649
G01 X30.4678 Y20.0592
G01 X30.4634 Y20.0525
G01 X30.4551 Y20.0431
G01 X30.4497 Y20.0354
G01 X30.4451 Y20.0271
G01 X30.4405 Y20.0162
G01 X30.4349 Y19.9978
G01 X30.4272 Y19.9828
G01 X30.4236 Y19.9741
G01 X30.4208 Y19.9651
G01 X30.4185 Y19.9535
G01 X30.4179 Y19.9465
G01 X30.4178 Y19.9386
G01 X30.4162 Y19.9292
G01 X30.4155 Y19.9201
G01 X30.4155 Y19.7357
G01 X30.3826 Y19.5705
G01 X30.3181 Y19.4148
G01 X30.2245 Y19.2747
G01 X30.1279 Y19.1780
G01 X30.1062 Y19.1516
G01 X30.1007 Y19.1440
G01 X30.0971 Y19.1381
G01 X30.0939 Y19.1318
G01 X30.0897 Y19.1210
G01 X30.0693 Y19.0517
G01 X30.0668 Y19.0407
G01 X30.0657 Y19.0317
G01 X30.0655 Y19.0249
G01 X30.0655 Y18.3335
G01 X30.0298 Y18.2002
G01 X30.0282 Y18.1931
G01 X30.0267 Y18.1811
G01 X30.0247 Y18.1176
G01 X30.0251 Y18.1104
G01 X30.0261 Y18.1032
G01 X30.0433 Y18.0164
G01 X30.0433 Y17.9065
G01 X30.0436 Y17.8997
G01 X30.0446 Y17.8907
G01 X30.0567 Y17.8348
G01 X30.0592 Y17.8256
G01 X30.0626 Y17.8168
G01 X30.0668 Y17.8083
G01 X30.0719 Y17.8003
G01 X30.0777 Y17.7928
G00 Z2.0000
G00 X29.7200 Y15.3450
G01 F60.00
G01 Z-0.0500
G01 F120.00
G01 X30.0500 Y15.3450
G01 X30.0670 Y15.3460
G01 X30.0815 Y15.3484
G01 X30.0958 Y15.3522
G01 X30.1095 Y15.3573
G01 X30.1228 Y15.3638
G01 X30.1353 Y15.3716
G01 X30.1469 Y15.3805
G01 X30.1577 Y15.3906
G01 X30.1674 Y15.4017
G01 X30.2360 Y15.3332
G01 X30.2360 Y12.7290
G01 X30.2369 Y12.7099
G01 X30.2397 Y12.6909
G01 X30.2443 Y12.6724
G01 X30.2517 Y12.6522
G01 X30.2590 Y12.6371
G01 X30.2688 Y12.6206
G01 X30.2802 Y12.6053
G01 X30.2931 Y12.5911
G01 X31.3096 Y11.5746
G01 X31.3220 Y11.5632
G01 X31.3274 Y11.5589
G01 X31.3391 Y11.5503
G01 X31.3556 Y11.5405
G01 X31.3707 Y11.5332
G01 X31.3772 Y11.5306
G01 X31.3909 Y11.5258
G01 X31.4049 Y11.5222
G01 X31.4117 Y11.5208
G01 X31.4261 Y11.5186
G01 X31.4475 Y11.5175
G01 X36.7625 Y11.5175
G01 X36.7744 Y11.5180
G01 X36.7813 Y11.5188
G01 X36.7908 Y11.5203
G01 X36.8024 Y11.5231
G01 X36.8090 Y11.5252
G01 X36.8201 Y11.5295
G01 X36.8309 Y11.5346
G01 X36.8391 Y11.5394
G01 X36.8450 Y11.5433
G01 X36.8545 Y11.5504
G01 X36.8667 Y11.5616
G01 X36.8746 Y11.5705
G01 X36.8804 Y11.5781
G01 X36.8843 Y11.5839
G01 X36.8904 Y11.5941
G01 X36.8973 Y11.6092
G01 X36.9025 Y11.6249
G01 X36.9047 Y11.6342
G01 X36.9062 Y11.6437
G01 X36.9075 Y11.6602
G01 X36.9075 Y11.7625
G01 X36.9070 Y11.7744
G01 X36.9055 Y11.7862
G01 X36.9042 Y11.7931
G01 X36.9013 Y11.8046
G01 X36.8973 Y11.8158
G01 X36.8925 Y11.8267
G01 X36.8893 Y11.8329
G01 X36.8831 Y11.8431
G01 X36.8760 Y11.8527
G01 X36.8682 Y11.8617
G01 X36.8634 Y11.8667
G01 X36.8545 Y11.8746
G01 X36.8469 Y11.8804
G01 X36.8391 Y11.8856
G01 X36.8288 Y11.8915
G01 X36.8180 Y11.8965
G01 X36.8090 Y11.8998
G01 X36.8024 Y11.9019
G01 X36.7908 Y11.9047
G01 X36.7790 Y11.9065
G01 X36.7721 Y11.9071
G01 X36.7625 Y11.9075
G01 X36.3750 Y11.9075
G01 X31.5283 Y11.9075
G01 X30.6260 Y12.8098
G01 X30.6260 Y15.4140
G01 X30.6253 Y15.4308
G01 X30.6245 Y15.4377
G01 X30.6223 Y15.4521
G01 X30.6183 Y15.4684
G01 X30.6162 Y15.4750
G01 X30.6103 Y15.4908
G01 X30.6030 Y15.5059
G01 X30.5957 Y15.5184
G01 X30.5905 Y15.5262
G01 X30.5803 Y15.5395
G01 X30.5689 Y15.5519
G01 X30.2000 Y15.9208
G01 X30.2000 Y16.4250
G01 X30.1993 Y16.4397
G01 X30.1975 Y16.4520
G01 X30.1948 Y16.4640
G01 X30.1928 Y16.4708
G01 X30.1886 Y16.4824
G01 X30.1844 Y16.4915
G01 X30.1812 Y16.4978
G01 X30.1747 Y16.5083
G01 X30.1674 Y16.5183
G01 X30.1629 Y16.5237
G01 X30.1561 Y16.5311
G01 X30.1469 Y16.5395
G01 X30.1371 Y16.5470
G01 X30.1314 Y16.5510
G01 X30.1207 Y16.5573
G01 X30.1117 Y16.5617
G01 X30.1052 Y16.5644
G01 X30.0935 Y16.5685
G01 X30.0815 Y16.5716
G01 X30.0693 Y16.5737
G01 X30.0624 Y16.5745
G01 X30.0500 Y16.5750
G01 X29.7200 Y16.5750
G01 X29.7053 Y16.5743
G01 X29.6907 Y16.5721
G01 X29.6787 Y16.5692
G01 X29.6720 Y16.5671
G01 X29.6626 Y16.5636
G01 X29.6514 Y16.5584
G01 X29.6406 Y16.5522
G01 X29.6347 Y16.5484
G01 X29.6248 Y16.5410
G01 X29.6173 Y16.5343
G01 X29.6123 Y16.5294
G01 X29.6040 Y16.5202
G01 X29.5940 Y16.5064
G01 X29.5877 Y16.4957
G01 X29.5833 Y16.4867
G01 X29.5806 Y16.4802
G01 X29.5765 Y16.4685
G01 X29.5734 Y16.4565
G01 X29.5713 Y16.4443
G01 X29.5705 Y16.4374
G01 X29.5700 Y16.4250
G01 X29.5700 Y15.4950
G01 X29.5710 Y15.4780
G01 X29.5729 Y15.4657
G01 X29.5765 Y15.4515
G01 X29.5814 Y15.4376
G01 X29.5877 Y15.4243
G01 X29.5953 Y15.4117
G01 X29.6026 Y15.4017
G01 X29.6123 Y15.3906
G01 X29.6213 Y15.3821
G01 X29.6329 Y15.3730
G01 X29.6406 Y15.3678
G01 X29.6514 Y15.3616
G01 X29.6648 Y15.3556
G01 X29.6765 Y15.3515
G01 X29.6907 Y15.3479
G01 X29.7053 Y15.3457
G01 X29.7200 Y15.3450
G00 Z2.0000
G00 X28.4500 Y15.3450
G01 F60.00
G01 Z-0.0500
G01 F120.00
G01 X28.7800 Y15.3450
G01 X28.7970 Y15.3460
G01 X28.8093 Y15.3479
G01 X28.8235 Y15.3515
G01 X28.8374 Y15.3564
G01 X28.8507 Y15.3627
G01 X28.8633 Y15.3703
G01 X28.8752 Y15.3790
G01 X28.8861 Y15.3889
G01 X28.8945 Y15.3981
G01 X28.9020 Y15.4079
G01 X28.9072 Y15.4156
G01 X28.9134 Y15.4264
G01 X28.9186 Y15.4376
G01 X28.9235 Y15.4515
G01 X28.9266 Y15.4635
G01 X28.9287 Y15.4757
G01 X28.9296 Y15.4849
G01 X28.9300 Y15.4950
G01 X28.9300 Y15.9992
G01 X29.5168 Y16.5860
G01 X30.1182 Y16.5860
G01 X30.6370 Y16.0672
G01 X30.6370 Y14.0680
G01 X30.6377 Y14.0512
G01 X30.6385 Y14.0443
G01 X30.6407 Y14.0299
G01 X30.6441 Y14.0159
G01 X30.6461 Y14.0092
G01 X30.6518 Y13.9934
G01 X30.6611 Y13.9740
G01 X30.6698 Y13.9596
G01 X30.6784 Y13.9479
G01 X30.6827 Y13.9425
G01 X30.6941 Y13.9301
G01 X32.6496 Y11.9746
G01 X32.6638 Y11.9617
G01 X32.6791 Y11.9503
G01 X32.6935 Y11.9416
G01 X32.6997 Y11.9384
G01 X32.7129 Y11.9323
G01 X32.7309 Y11.9258
G01 X32.7494 Y11.9212
G01 X32.7638 Y11.9190
G01 X32.7707 Y11.9182
G01 X32.7875 Y11.9175
G01 X36.7648 Y11.9175
G01 X36.7767 Y11.9182
G01 X36.7885 Y11.9199
G01 X36.8001 Y11.9225
G01 X36.8068 Y11.9244
G01 X36.8180 Y11.9285
G01 X36.8288 Y11.9335
G01 X36.8391 Y11.9394
G01 X36.8450 Y11.9433
G01 X36.8545 Y11.9504
G01 X36.8634 Y11.9583
G01 X36.8682 Y11.9633
G01 X36.8760 Y11.9723
G01 X36.8831 Y11.9819
G01 X36.8893 Y11.9921
G01 X36.8946 Y12.0027
G01 X36.8973 Y12.0092
G01 X36.9013 Y12.0204
G01 X36.9042 Y12.0319
G01 X36.9055 Y12.0388
G01 X36.9070 Y12.0506
G01 X36.9075 Y12.0625
G01 X36.9075 Y12.1625
G01 X36.9068 Y12.1767
G01 X36.9047 Y12.1908
G01 X36.9013 Y12.2046
G01 X36.8965 Y12.2180
G01 X36.8915 Y12.2288
G01 X36.8881 Y12.2349
G01 X36.8831 Y12.2431
G01 X36.8760 Y12.2527
G01 X36.8682 Y12.2617
G01 X36.8634 Y12.2667
G01 X36.8545 Y12.2746
G01 X36.8469 Y12.2804
G01 X36.8411 Y12.2843
G01 X36.8309 Y12.2904
G01 X36.8201 Y12.2955
G01 X36.8136 Y12.2981
G01 X36.8046 Y12.3013
G01 X36.7931 Y12.3042
G01 X36.7862 Y12.3055
G01 X36.7744 Y12.3070
G01 X36.7625 Y12.3075
G01 X32.8683 Y12.3075
G01 X31.0270 Y14.1488
G01 X31.0270 Y16.1480
G01 X31.0263 Y16.1648
G01 X31.0255 Y16.1717
G01 X31.0233 Y16.1860
G01 X31.0193 Y16.2024
G01 X31.0122 Y16.2226
G01 X31.0051 Y16.2379
G01 X31.0017 Y16.2440
G01 X30.9942 Y16.2563
G01 X30.9856 Y16.2680
G01 X30.9813 Y16.2735
G01 X30.9699 Y16.2859
G01 X30.3352 Y16.9205
G01 X30.3227 Y16.9318
G01 X30.3073 Y16.9432
G01 X30.2909 Y16.9530
G01 X30.2715 Y16.9621
G01 X30.2556 Y16.9677
G01 X30.2370 Y16.9723
G01 X30.2181 Y16.9751
G01 X30.1990 Y16.9760
G01 X29.4360 Y16.9760
G01 X29.4169 Y16.9751
G01 X29.3957 Y16.9718
G01 X29.3794 Y16.9677
G01 X29.3657 Y16.9629
G01 X29.3592 Y16.9603
G01 X29.3441 Y16.9530
G01 X29.3296 Y16.9444
G01 X29.3238 Y16.9405
G01 X29.3123 Y16.9318
G01 X29.3015 Y16.9221
G01 X28.8974 Y16.5183
G01 X28.8861 Y16.5311
G01 X28.8752 Y16.5410
G01 X28.8633 Y16.5497
G01 X28.8486 Y16.5584
G01 X28.8352 Y16.5644
G01 X28.8258 Y16.5678
G01 X28.8190 Y16.5698
G01 X28.8093 Y16.5721
G01 X28.7993 Y16.5737
G01 X28.7924 Y16.5745
G01 X28.7823 Y16.5750
G01 X28.4500 Y16.5750
G01 X28.4376 Y16.5745
G01 X28.4253 Y16.5729
G01 X28.4162 Y16.5711
G01 X28.4042 Y16.5678
G01 X28.3926 Y16.5636
G01 X28.3793 Y16.5573
G01 X28.3686 Y16.5510
G01 X28.3585 Y16.5438
G01 X28.3513 Y16.5379
G01 X28.3423 Y16.5294
G01 X28.3355 Y16.5219
G01 X28.3312 Y16.5165
G01 X28.3228 Y16.5044
G01 X28.3177 Y16.4957
G01 X28.3133 Y16.4867
G01 X28.3106 Y16.4802
G01 X28.3072 Y16.4708
G01 X28.3034 Y16.4565
G01 X28.3010 Y16.4420
G01 X28.3001 Y16.4297
G01 X28.3000 Y15.4950
G01 X28.3005 Y15.4826
G01 X28.3025 Y15.4680
G01 X28.3058 Y15.4537
G01 X28.3106 Y15.4398
G01 X28.3156 Y15.4285
G01 X28.3228 Y15.4156
G01 X28.3280 Y15.4079
G01 X28.3355 Y15.3981
G01 X28.3423 Y15.3906
G01 X28.3473 Y15.3857
G01 X28.3567 Y15.3776
G01 X28.3686 Y15.3690
G01 X28.3814 Y15.3616
G01 X28.3948 Y15.3556
G01 X28.4065 Y15.3515
G01 X28.4207 Y15.3479
G01 X28.4353 Y15.3457
G01 X28.4500 Y15.3450
G00 Z2.0000
G00 X27.1800 Y15.3450
G01 F60.00
G01 Z-0.0500
G01 F120.00
G01 X27.5100 Y15.3450
G01 X27.5270 Y15.3460
G01 X27.5393 Y15.3479
G01 X27.5535 Y15.3515
G01 X27.5674 Y15.3564
G01 X27.5807 Y15.3627
G01 X27.5933 Y15.3703
G01 X27.6033 Y15.3776
G01 X27.6144 Y15.3873
G01 X27.6229 Y15.3963
G01 X27.6288 Y15.4035
G01 X27.6360 Y15.4136
G01 X27.6423 Y15.4243
G01 X27.6486 Y15.4376
G01 X27.6528 Y15.4492
G01 X27.6561 Y15.4612
G01 X27.6579 Y15.4703
G01 X27.6595 Y15.4826
G01 X27.6600 Y15.4950
G01 X27.6600 Y15.9992
G01 X28.6478 Y16.9870
G01 X30.2843 Y16.9870
G01 X31.0500 Y16.2213
G01 X31.0500 Y14.3000
G01 X31.0507 Y14.2832
G01 X31.0515 Y14.2763
G01 X31.0537 Y14.2619
G01 X31.0571 Y14.2479
G01 X31.0591 Y14.2412
G01 X31.0648 Y14.2254
G01 X31.0741 Y14.2060
G01 X31.0828 Y14.1916
G01 X31.0914 Y14.1799
G01 X31.0957 Y14.1745
G01 X31.1071 Y14.1621
G01 X32.8936 Y12.3756
G01 X32.9078 Y12.3627
G01 X32.9212 Y12.3526
G01 X32.9355 Y12.3438
G01 X32.9437 Y12.3394
G01 X32.9569 Y12.3333
G01 X32.9749 Y12.3268
G01 X32.9934 Y12.3222
G01 X33.0078 Y12.3200
G01 X33.0147 Y12.3192
G01 X33.0315 Y12.3185
G01 X34.6863 Y12.3185
G01 X34.7060 Y12.3175
G01 X36.7648 Y12.3175
G01 X36.7767 Y12.3182
G01 X36.7885 Y12.3199
G01 X36.8001 Y12.3225
G01 X36.8090 Y12.3252
G01 X36.8201 Y12.3295
G01 X36.8309 Y12.3346
G01 X36.8411 Y12.3407
G01 X36.8508 Y12.3475
G01 X36.8580 Y12.3535
G01 X36.8667 Y12.3616
G01 X36.8746 Y12.3705
G01 X36.8817 Y12.3800
G01 X36.8881 Y12.3901
G01 X36.8925 Y12.3983
G01 X36.8973 Y12.4092
G01 X36.9013 Y12.4204
G01 X36.9051 Y12.4365
G01 X36.9068 Y12.4483
G01 X36.9074 Y12.4578
G01 X36.9075 Y12.5648
G01 X36.9065 Y12.5790
G01 X36.9042 Y12.5931
G01 X36.9006 Y12.6068
G01 X36.8955 Y12.6201
G01 X36.8904 Y12.6309
G01 X36.8856 Y12.6391
G01 X36.8817 Y12.6450
G01 X36.8746 Y12.6545
G01 X36.8667 Y12.6634
G01 X36.8617 Y12.6682
G01 X36.8545 Y12.6746
G01 X36.8450 Y12.6817
G01 X36.8391 Y12.6856
G01 X36.8288 Y12.6915
G01 X36.8180 Y12.6965
G01 X36.8090 Y12.6998
G01 X36.8024 Y12.7019
G01 X36.7908 Y12.7047
G01 X36.7744 Y12.7070
G01 X36.7625 Y12.7075
G01 X34.7247 Y12.7075
G01 X34.7050 Y12.7085
G01 X33.1123 Y12.7085
G01 X31.4400 Y14.3808
G01 X31.4400 Y16.3021
G01 X31.4391 Y16.3212
G01 X31.4371 Y16.3355
G01 X31.4353 Y16.3447
G01 X31.4309 Y16.3609
G01 X31.4261 Y16.3746
G01 X31.4233 Y16.3810
G01 X31.4170 Y16.3940
G01 X31.4097 Y16.4065
G01 X31.4059 Y16.4124
G01 X31.3972 Y16.4240
G01 X31.3845 Y16.4383
G01 X30.5030 Y17.3199
G01 X30.4870 Y17.3342
G01 X30.4754 Y17.3429
G01 X30.4695 Y17.3467
G01 X30.4570 Y17.3540
G01 X30.4440 Y17.3603
G01 X30.4376 Y17.3631
G01 X30.4217 Y17.3687
G01 X30.4031 Y17.3733
G01 X30.3888 Y17.3755
G01 X30.3819 Y17.3763
G01 X30.3651 Y17.3770
G01 X28.5670 Y17.3770
G01 X28.5456 Y17.3759
G01 X28.5312 Y17.3737
G01 X28.5244 Y17.3723
G01 X28.5104 Y17.3687
G01 X28.4967 Y17.3639
G01 X28.4902 Y17.3613
G01 X28.4751 Y17.3540
G01 X28.4606 Y17.3454
G01 X28.4548 Y17.3415
G01 X28.4433 Y17.3328
G01 X28.4307 Y17.3215
G01 X27.6274 Y16.5183
G01 X27.6161 Y16.5311
G01 X27.6052 Y16.5410
G01 X27.5933 Y16.5497
G01 X27.5807 Y16.5573
G01 X27.5674 Y16.5636
G01 X27.5535 Y16.5685
G01 X27.5393 Y16.5721
G01 X27.5224 Y16.5745
G01 X27.5100 Y16.5750
G01 X27.1800 Y16.5750
G01 X27.1699 Y16.5746
G01 X27.1630 Y16.5740
G01 X27.1507 Y16.5721
G01 X27.1342 Y16.5678
G01 X27.1248 Y16.5644
G01 X27.1183 Y16.5617
G01 X27.1093 Y16.5573
G01 X27.0986 Y16.5510
G01 X27.0848 Y16.5410
G01 X27.0739 Y16.5311
G01 X27.0626 Y16.5183
G01 X27.0566 Y16.5103
G01 X27.0528 Y16.5044
G01 X27.0477 Y16.4957
G01 X27.0433 Y16.4867
G01 X27.0406 Y16.4802
G01 X27.0372 Y16.4708
G01 X27.0329 Y16.4543
G01 X27.0305 Y16.4374
G01 X27.0300 Y16.4250
G01 X27.0300 Y15.4950
G01 X27.0305 Y15.4826
G01 X27.0325 Y15.4680
G01 X27.0358 Y15.4537
G01 X27.0406 Y15.4398
G01 X27.0456 Y15.4285
G01 X27.0528 Y15.4156
G01 X27.0580 Y15.4079
G01 X27.0655 Y15.3981
G01 X27.0723 Y15.3906
G01 X27.0773 Y15.3857
G01 X27.0867 Y15.3776
G01 X27.0986 Y15.3690
G01 X27.1114 Y15.3616
G01 X27.1248 Y15.3556
G01 X27.1365 Y15.3515
G01 X27.1507 Y15.3479
G01 X27.1653 Y15.3457
G01 X27.1800 Y15.3450
G00 Z2.0000
G00 X27.1800 Y9.6550
G01 F60.00
G01 Z-0.0500
G01 F120.00
G01 X27.5100 Y9.6550
G01 X27.5270 Y9.6560
G01 X27.5415 Y9.6584
G01 X27.5558 Y9.6622
G01 X27.5695 Y9.6673
G01 X27.5828 Y9.6738
G01 X27.5953 Y9.6816
G01 X27.6069 Y9.6905
G01 X27.6177 Y9.7006
G01 X27.6274 Y9.7117
G01 X28.4307 Y8.9085
G01 X28.4433 Y8.8972
G01 X28.4548 Y8.8885
G01 X28.4626 Y8.8833
G01 X28.4771 Y8.8749
G01 X28.4924 Y8.8678
G01 X28.5082 Y8.8621
G01 X28.5244 Y8.8577
G01 X28.5335 Y8.8559
G01 X28.5479 Y8.8539
G01 X28.5670 Y8.8530
G01 X32.2330 Y8.8530
G01 X32.2498 Y8.8537
G01 X32.2567 Y8.8545
G01 X32.2711 Y8.8567
G01 X32.2896 Y8.8613
G01 X32.3076 Y8.8678
G01 X32.3208 Y8.8739
G01 X32.3290 Y8.8783
G01 X32.3433 Y8.8871
G01 X32.3567 Y8.8972
G01 X32.3693 Y8.9085
G01 X34.1783 Y10.7175
G01 X36.7625 Y10.7175
G01 X36.7767 Y10.7182
G01 X36.7931 Y10.7208
G01 X36.8090 Y10.7252
G01 X36.8180 Y10.7285
G01 X36.8288 Y10.7335
G01 X36.8431 Y10.7419
G01 X36.8563 Y10.7519
G01 X36.8650 Y10.7600
G01 X36.8715 Y10.7670
G01 X36.8760 Y10.7723
G01 X36.8831 Y10.7819
G01 X36.8915 Y10.7962
G01 X36.8973 Y10.8092
G01 X36.9019 Y10.8226
G01 X36.9051 Y10.8365
G01 X36.9070 Y10.8506
G01 X36.9075 Y10.8625
G01 X36.9075 Y10.9625
G01 X36.9070 Y10.9744
G01 X36.9062 Y10.9813
G01 X36.9042 Y10.9931
G01 X36.9013 Y11.0046
G01 X36.8965 Y11.0180
G01 X36.8915 Y11.0288
G01 X36.8843 Y11.0411
G01 X36.8775 Y11.0508
G01 X36.8682 Y11.0617
G01 X36.8617 Y11.0682
G01 X36.8527 Y11.0760
G01 X36.8411 Y11.0843
G01 X36.8309 Y11.0904
G01 X36.8180 Y11.0965
G01 X36.8046 Y11.1013
G01 X36.7931 Y11.1042
G01 X36.7790 Y11.1065
G01 X36.7672 Y11.1074
G01 X34.0975 Y11.1075
G01 X34.0784 Y11.1066
G01 X34.0594 Y11.1038
G01 X34.0409 Y11.0992
G01 X34.0272 Y11.0944
G01 X34.0207 Y11.0918
G01 X34.0076 Y11.0856
G01 X33.9911 Y11.0759
G01 X33.9738 Y11.0633
G01 X33.9596 Y11.0504
G01 X32.1522 Y9.2430
G01 X28.6478 Y9.2430
G01 X27.6600 Y10.2308
G01 X27.6600 Y10.7350
G01 X27.6595 Y10.7474
G01 X27.6575 Y10.7620
G01 X27.6548 Y10.7740
G01 X27.6521 Y10.7830
G01 X27.6477 Y10.7945
G01 X27.6423 Y10.8057
G01 X27.6347 Y10.8183
G01 X27.6274 Y10.8283
G01 X27.6193 Y10.8377
G01 X27.6127 Y10.8443
G01 X27.6015 Y10.8538
G01 X27.5914 Y10.8610
G01 X27.5786 Y10.8684
G01 X27.5674 Y10.8736
G01 X27.5535 Y10.8785
G01 X27.5393 Y10.8821
G01 X27.5247 Y10.8843
G01 X27.5100 Y10.8850
G01 X27.1800 Y10.8850
G01 X27.1676 Y10.8845
G01 X27.1607 Y10.8837
G01 X27.1485 Y10.8816
G01 X27.1365 Y10.8785
G01 X27.1226 Y10.8736
G01 X27.1114 Y10.8684
G01 X27.1006 Y10.8622
G01 X27.0929 Y10.8570
G01 X27.0831 Y10.8495
G01 X27.0739 Y10.8411
G01 X27.0640 Y10.8302
G01 X27.0566 Y10.8203
G01 X27.0500 Y10.8098
G01 X27.0456 Y10.8015
G01 X27.0406 Y10.7902
G01 X27.0365 Y10.7785
G01 X27.0329 Y10.7643
G01 X27.0310 Y10.7520
G01 X27.0300 Y10.7350
G01 X27.0300 Y9.8027
G01 X27.0307 Y9.7903
G01 X27.0329 Y9.7757
G01 X27.0365 Y9.7615
G01 X27.0414 Y9.7476
G01 X27.0477 Y9.7343
G01 X27.0553 Y9.7217
G01 X27.0640 Y9.7098
G01 X27.0739 Y9.6989
G01 X27.0848 Y9.6890
G01 X27.0967 Y9.6803
G01 X27.1093 Y9.6727
G01 X27.1226 Y9.6664
G01 X27.1365 Y9.6615
G01 X27.1507 Y9.6579
G01 X27.1653 Y9.6557
G01 X27.1800 Y9.6550
G00 Z2.0000
G00 X28.4500 Y9.6550
G01 F60.00
G01 Z-0.0500
G01 F120.00
G01 X28.7800 Y9.6550
G01 X28.7970 Y9.6560
G01 X28.8115 Y9.6584
G01 X28.8258 Y9.6622
G01 X28.8395 Y9.6673
G01 X28.8528 Y9.6738
G01 X28.8653 Y9.6816
G01 X28.8769 Y9.6905
G01 X28.8877 Y9.7006
G01 X28.8974 Y9.7117
G01 X29.2981 Y9.3111
G01 X29.3105 Y9.2997
G01 X29.3238 Y9.2895
G01 X29.3316 Y9.2843
G01 X29.3441 Y9.2770
G01 X29.3614 Y9.2688
G01 X29.3794 Y9.2623
G01 X29.3934 Y9.2587
G01 X29.4002 Y9.2573
G01 X29.4169 Y9.2549
G01 X29.4360 Y9.2540
G01 X32.0390 Y9.2540
G01 X32.0581 Y9.2549
G01 X32.0771 Y9.2577
G01 X32.0934 Y9.2617
G01 X32.1000 Y9.2638
G01 X32.1136 Y9.2688
G01 X32.1309 Y9.2770
G01 X32.1454 Y9.2856
G01 X32.1512 Y9.2895
G01 X32.1627 Y9.2982
G01 X32.1753 Y9.3095
G01 X33.9833 Y11.1175
G01 X36.7625 Y11.1175
G01 X36.7767 Y11.1182
G01 X36.7931 Y11.1208
G01 X36.8046 Y11.1237
G01 X36.8136 Y11.1269
G01 X36.8201 Y11.1295
G01 X36.8309 Y11.1346
G01 X36.8450 Y11.1433
G01 X36.8545 Y11.1504
G01 X36.8617 Y11.1568
G01 X36.8667 Y11.1616
G01 X36.8746 Y11.1705
G01 X36.8843 Y11.1839
G01 X36.8904 Y11.1941
G01 X36.8946 Y11.2027
G01 X36.8998 Y11.2160
G01 X36.9025 Y11.2249
G01 X36.9051 Y11.2365
G01 X36.9071 Y11.2529
G01 X36.9075 Y11.2625
G01 X36.9075 Y11.3648
G01 X36.9068 Y11.3767
G01 X36.9047 Y11.3908
G01 X36.9013 Y11.4046
G01 X36.8973 Y11.4158
G01 X36.8915 Y11.4288
G01 X36.8856 Y11.4391
G01 X36.8804 Y11.4469
G01 X36.8731 Y11.4563
G01 X36.8650 Y11.4650
G01 X36.8545 Y11.4746
G01 X36.8431 Y11.4831
G01 X36.8329 Y11.4893
G01 X36.8223 Y11.4946
G01 X36.8136 Y11.4981
G01 X36.8024 Y11.5019
G01 X36.7908 Y11.5047
G01 X36.7767 Y11.5068
G01 X36.7648 Y11.5075
G01 X33.9025 Y11.5075
G01 X33.8834 Y11.5066
G01 X33.8667 Y11.5042
G01 X33.8504 Y11.5004
G01 X33.8415 Y11.4977
G01 X33.8279 Y11.4927
G01 X33.8147 Y11.4866
G01 X33.8085 Y11.4834
G01 X33.7981 Y11.4772
G01 X33.7922 Y11.4734
G01 X33.7806 Y11.4647
G01 X33.7646 Y11.4504
G01 X31.9582 Y9.6440
G01 X29.5168 Y9.6440
G01 X28.9300 Y10.2308
G01 X28.9300 Y10.7350
G01 X28.9295 Y10.7474
G01 X28.9279 Y10.7597
G01 X28.9261 Y10.7688
G01 X28.9228 Y10.7808
G01 X28.9186 Y10.7924
G01 X28.9123 Y10.8057
G01 X28.9060 Y10.8164
G01 X28.8988 Y10.8265
G01 X28.8929 Y10.8337
G01 X28.8844 Y10.8427
G01 X28.8733 Y10.8524
G01 X28.8614 Y10.8610
G01 X28.8486 Y10.8684
G01 X28.8374 Y10.8736
G01 X28.8235 Y10.8785
G01 X28.8093 Y10.8821
G01 X28.7947 Y10.8843
G01 X28.7800 Y10.8850
G01 X28.4500 Y10.8850
G01 X28.4353 Y10.8843
G01 X28.4207 Y10.8821
G01 X28.4087 Y10.8792
G01 X28.3969 Y10.8753
G01 X28.3883 Y10.8717
G01 X28.3772 Y10.8662
G01 X28.3667 Y10.8597
G01 X28.3567 Y10.8524
G01 X28.3473 Y10.8443
G01 X28.3407 Y10.8377
G01 X28.3326 Y10.8283
G01 X28.3253 Y10.8183
G01 X28.3188 Y10.8078
G01 X28.3133 Y10.7967
G01 X28.3097 Y10.7881
G01 X28.3058 Y10.7763
G01 X28.3029 Y10.7643
G01 X28.3010 Y10.7520
G01 X28.3000 Y10.7350
G01 X28.3000 Y9.8027
G01 X28.3007 Y9.7903
G01 X28.3029 Y9.7757
G01 X28.3065 Y9.7615
G01 X28.3114 Y9.7476
G01 X28.3177 Y9.7343
G01 X28.3253 Y9.7217
G01 X28.3340 Y9.7098
G01 X28.3439 Y9.6989
G01 X28.3548 Y9.6890
G01 X28.3667 Y9.6803
G01 X28.3793 Y9.6727
G01 X28.3926 Y9.6664
G01 X28.4065 Y9.6615
G01 X28.4207 Y9.6579
G01 X28.4353 Y9.6557
G01 X28.4500 Y9.6550
G00 Z2.0000
G00 X25.9100 Y9.6550
G01 F60.00
G01 Z-0.0500
G01 F120.00
G01 X26.2400 Y9.6550
G01 X26.2570 Y9.6560
G01 X26.2715 Y9.6584
G01 X26.2858 Y9.6622
G01 X26.2995 Y9.6673
G01 X26.3128 Y9.6738
G01 X26.3253 Y9.6816
G01 X26.3369 Y9.6905
G01 X26.3477 Y9.7006
G01 X26.3574 Y9.7117
G01 X27.3875 Y8.6817
G01 X27.3875 Y8.6221
G01 X27.3726 Y8.6211
G01 X27.3503 Y8.6176
G01 X27.3307 Y8.6126
G01 X27.3116 Y8.6059
G01 X27.2932 Y8.5974
G01 X27.2850 Y8.5930
G01 X27.2697 Y8.5837
G01 X27.2516 Y8.5703
G01 X27.2349 Y8.5551
G01 X27.2228 Y8.5419
G01 X27.2183 Y8.5366
G01 X27.2089 Y8.5241
G01 X27.2038 Y8.5163
G01 X27.1947 Y8.5009
G01 X27.1850 Y8.4805
G01 X27.1774 Y8.4593
G01 X27.1729 Y8.4419
G01 X27.1715 Y8.4351
G01 X27.1689 Y8.4174
G01 X27.1675 Y8.3948
G01 X27.1675 Y8.1225
G01 X27.1686 Y8.1000
G01 X27.1715 Y8.0799
G01 X27.1729 Y8.0731
G01 X27.1774 Y8.0557
G01 X27.1850 Y8.0345
G01 X27.1936 Y8.0161
G01 X27.1970 Y8.0100
G01 X27.2063 Y7.9947
G01 X27.2183 Y7.9784
G01 X27.2349 Y7.9599
G01 X27.2498 Y7.9462
G01 X27.2678 Y7.9326
G01 X27.2850 Y7.9220
G01 X27.2911 Y7.9186
G01 X27.3052 Y7.9119
G01 X27.3138 Y7.9083
G01 X27.3330 Y7.9018
G01 X27.3503 Y7.8974
G01 X27.3572 Y7.8961
G01 X27.3750 Y7.8936
G01 X27.3975 Y7.8925
G01 X27.7675 Y7.8925
G01 X27.7877 Y7.8934
G01 X27.8078 Y7.8961
G01 X27.8147 Y7.8974
G01 X27.8343 Y7.9024
G01 X27.8512 Y7.9083
G01 X27.8577 Y7.9109
G01 X27.8759 Y7.9197
G01 X27.8933 Y7.9300
G01 X27.8991 Y7.9339
G01 X27.9134 Y7.9447
G01 X27.9268 Y7.9567
G01 X27.9318 Y7.9615
G01 X27.9453 Y7.9766
G01 X27.9574 Y7.9928
G01 X27.9612 Y7.9987
G01 X27.9703 Y8.0141
G01 X27.9791 Y8.0323
G01 X27.9869 Y8.0535
G01 X27.9921 Y8.0731
G01 X27.9939 Y8.0822
G01 X27.9961 Y8.0976
G01 X27.9967 Y8.1046
G01 X27.9975 Y8.1225
G01 X27.9975 Y8.3750
G01 X32.4700 Y8.3750
G01 X32.4868 Y8.3757
G01 X32.4937 Y8.3765
G01 X32.5081 Y8.3787
G01 X32.5266 Y8.3833
G01 X32.5468 Y8.3907
G01 X32.5599 Y8.3969
G01 X32.5660 Y8.4003
G01 X32.5784 Y8.4078
G01 X32.5901 Y8.4164
G01 X32.5955 Y8.4207
G01 X32.6079 Y8.4321
G01 X34.4923 Y10.3165
G01 X36.3750 Y10.3165
G01 X36.3951 Y10.3175
G01 X36.7625 Y10.3175
G01 X36.7767 Y10.3182
G01 X36.7931 Y10.3208
G01 X36.8090 Y10.3252
G01 X36.8180 Y10.3285
G01 X36.8288 Y10.3335
G01 X36.8431 Y10.3419
G01 X36.8563 Y10.3519
G01 X36.8650 Y10.3600
G01 X36.8715 Y10.3670
G01 X36.8760 Y10.3723
G01 X36.8831 Y10.3819
G01 X36.8915 Y10.3962
G01 X36.8965 Y10.4070
G01 X36.9013 Y10.4204
G01 X36.9047 Y10.4342
G01 X36.9068 Y10.4483
G01 X36.9075 Y10.4625
G01 X36.9075 Y10.5625
G01 X36.9070 Y10.5744
G01 X36.9051 Y10.5885
G01 X36.9019 Y10.6024
G01 X36.8973 Y10.6158
G01 X36.8925 Y10.6267
G01 X36.8856 Y10.6391
G01 X36.8804 Y10.6469
G01 X36.8731 Y10.6563
G01 X36.8634 Y10.6667
G01 X36.8545 Y10.6746
G01 X36.8431 Y10.6831
G01 X36.8309 Y10.6904
G01 X36.8180 Y10.6965
G01 X36.8046 Y10.7013
G01 X36.7931 Y10.7042
G01 X36.7790 Y10.7065
G01 X36.7672 Y10.7074
G01 X35.9875 Y10.7075
G01 X35.9710 Y10.7065
G01 X34.4115 Y10.7065
G01 X34.3924 Y10.7056
G01 X34.3734 Y10.7028
G01 X34.3549 Y10.6982
G01 X34.3369 Y10.6917
G01 X34.3196 Y10.6835
G01 X34.3031 Y10.6737
G01 X34.2878 Y10.6623
G01 X34.2736 Y10.6494
G01 X32.3892 Y8.7650
G01 X27.8558 Y8.7650
G01 X26.3900 Y10.2308
G01 X26.3900 Y10.7350
G01 X26.3893 Y10.7497
G01 X26.3871 Y10.7643
G01 X26.3842 Y10.7763
G01 X26.3821 Y10.7830
G01 X26.3777 Y10.7945
G01 X26.3723 Y10.8057
G01 X26.3660 Y10.8164
G01 X26.3588 Y10.8265
G01 X26.3529 Y10.8337
G01 X26.3444 Y10.8427
G01 X26.3352 Y10.8510
G01 X26.3253 Y10.8584
G01 X26.3148 Y10.8650
G01 X26.3065 Y10.8694
G01 X26.2952 Y10.8744
G01 X26.2835 Y10.8785
G01 X26.2715 Y10.8816
G01 X26.2593 Y10.8837
G01 X26.2524 Y10.8845
G01 X26.2400 Y10.8850
G01 X25.9100 Y10.8850
G01 X25.8953 Y10.8843
G01 X25.8785 Y10.8816
G01 X25.8665 Y10.8785
G01 X25.8569 Y10.8753
G01 X25.8505 Y10.8727
G01 X25.8393 Y10.8673
G01 X25.8286 Y10.8610
G01 X25.8229 Y10.8570
G01 X25.8148 Y10.8510
G01 X25.8056 Y10.8427
G01 X25.7940 Y10.8302
G01 X25.7866 Y10.8203
G01 X25.7828 Y10.8144
G01 X25.7777 Y10.8057
G01 X25.7723 Y10.7945
G01 X25.7697 Y10.7881
G01 X25.7658 Y10.7763
G01 X25.7629 Y10.7643
G01 X25.7613 Y10.7543
G01 X25.7605 Y10.7474
G01 X25.7600 Y10.7350
G01 X25.7600 Y9.8050
G01 X25.7610 Y9.7880
G01 X25.7629 Y9.7757
G01 X25.7665 Y9.7615
G01 X25.7714 Y9.7476
G01 X25.7777 Y9.7343
G01 X25.7853 Y9.7217
G01 X25.7926 Y9.7117
G01 X25.8023 Y9.7006
G01 X25.8113 Y9.6921
G01 X25.8229 Y9.6830
G01 X25.8306 Y9.6778
G01 X25.8414 Y9.6716
G01 X25.8548 Y9.6656
G01 X25.8665 Y9.6615
G01 X25.8807 Y9.6579
G01 X25.8953 Y9.6557
G01 X25.9100 Y9.6550
G00 Z2.0000
G00 X26.9225 Y4.1225
G01 F60.00
G01 Z-0.0500
G01 F120.00
G01 X28.3725 Y4.1225
G01 X28.3841 Y4.1232
G01 X28.3956 Y4.1253
G01 X28.4023 Y4.1273
G01 X28.4089 Y4.1297
G01 X28.4152 Y4.1326
G01 X28.4213 Y4.1360
G01 X28.4272 Y4.1398
G01 X28.4328 Y4.1441
G01 X28.4413 Y4.1520
G01 X28.4459 Y4.1572
G01 X28.4502 Y4.1628
G01 X28.4540 Y4.1687
G01 X28.4574 Y4.1748
G01 X28.4603 Y4.1811
G01 X28.4627 Y4.1877
G01 X28.4647 Y4.1944
G01 X28.4661 Y4.2013
G01 X28.4670 Y4.2082
G01 X28.4675 Y4.2175
G01 X28.4675 Y4.5225
G01 X31.9775 Y4.5224
G01 X31.9775 Y4.2175
G01 X31.9778 Y4.2105
G01 X31.9789 Y4.2013
G01 X31.9803 Y4.1944
G01 X31.9823 Y4.1877
G01 X31.9847 Y4.1811
G01 X31.9876 Y4.1748
G01 X31.9910 Y4.1687
G01 X31.9948 Y4.1628
G01 X31.9991 Y4.1572
G01 X32.0037 Y4.1520
G01 X32.0087 Y4.1471
G01 X32.0141 Y4.1426
G01 X32.0197 Y4.1385
G01 X32.0257 Y4.1348
G01 X32.0319 Y4.1316
G01 X32.0383 Y4.1289
G01 X32.0494 Y4.1253
G01 X32.0609 Y4.1232
G01 X32.0725 Y4.1225
G01 X33.5225 Y4.1225
G01 X33.5318 Y4.1230
G01 X33.5387 Y4.1239
G01 X33.5456 Y4.1253
G01 X33.5545 Y4.1281
G01 X33.5610 Y4.1307
G01 X33.5673 Y4.1337
G01 X33.5733 Y4.1372
G01 X33.5809 Y4.1426
G01 X33.5863 Y4.1471
G01 X33.5929 Y4.1537
G01 X33.5988 Y4.1609
G01 X33.6028 Y4.1667
G01 X33.6063 Y4.1727
G01 X33.6103 Y4.1811
G01 X33.6127 Y4.1877
G01 X33.6147 Y4.1944
G01 X33.6165 Y4.2036
G01 X33.6172 Y4.2105
G01 X33.6175 Y4.2175
G01 X33.6175 Y5.2175
G01 X33.6170 Y5.2268
G01 X33.6161 Y5.2337
G01 X33.6147 Y5.2406
G01 X33.6119 Y5.2495
G01 X33.6084 Y5.2581
G01 X33.6052 Y5.2643
G01 X33.6015 Y5.2703
G01 X33.5959 Y5.2778
G01 X33.5913 Y5.2830
G01 X33.5846 Y5.2894
G01 X33.5791 Y5.2938
G01 X33.5713 Y5.2990
G01 X33.5652 Y5.3024
G01 X33.5567 Y5.3061
G01 X33.5478 Y5.3091
G01 X33.5410 Y5.3107
G01 X33.5341 Y5.3118
G01 X33.5272 Y5.3124
G01 X32.0725 Y5.3125
G01 X32.0632 Y5.3120
G01 X32.0540 Y5.3107
G01 X32.0472 Y5.3091
G01 X32.0405 Y5.3069
G01 X32.0340 Y5.3043
G01 X32.0277 Y5.3013
G01 X32.0217 Y5.2978
G01 X32.0159 Y5.2938
G01 X32.0104 Y5.2894
G01 X32.0053 Y5.2847
G01 X32.0006 Y5.2796
G01 X31.9962 Y5.2741
G01 X31.9922 Y5.2683
G01 X31.9887 Y5.2623
G01 X31.9857 Y5.2560
G01 X31.9831 Y5.2495
G01 X31.9809 Y5.2428
G01 X31.9793 Y5.2360
G01 X31.9780 Y5.2268
G01 X31.9775 Y5.2175
G01 X31.9775 Y4.9125
G01 X28.4675 Y4.9126
G01 X28.4675 Y5.2175
G01 X28.4668 Y5.2291
G01 X28.4647 Y5.2406
G01 X28.4619 Y5.2495
G01 X28.4574 Y5.2602
G01 X28.4515 Y5.2703
G01 X28.4444 Y5.2796
G01 X28.4380 Y5.2863
G01 X28.4291 Y5.2938
G01 X28.4193 Y5.3002
G01 X28.4089 Y5.3053
G01 X28.3978 Y5.3091
G01 X28.3864 Y5.3115
G01 X28.3748 Y5.3125
G01 X27.7775 Y5.3125
G01 X27.7776 Y6.8729
G01 X27.7924 Y6.8739
G01 X27.8124 Y6.8769
G01 X27.8343 Y6.8824
G01 X27.8512 Y6.8883
G01 X27.8598 Y6.8919
G01 X27.8780 Y6.9008
G01 X27.8953 Y6.9113
G01 X27.9097 Y6.9218
G01 X27.9169 Y6.9278
G01 X27.9318 Y6.9415
G01 X27.9453 Y6.9566
G01 X27.9574 Y6.9728
G01 X27.9612 Y6.9787
G01 X27.9714 Y6.9961
G01 X27.9800 Y7.0145
G01 X27.9861 Y7.0313
G01 X27.9888 Y7.0402
G01 X27.9935 Y7.0599
G01 X27.9964 Y7.0800
G01 X27.9975 Y7.1002
G01 X27.9975 Y7.3748
G01 X27.9964 Y7.3950
G01 X27.9931 Y7.4174
G01 X27.9876 Y7.4393
G01 X27.9800 Y7.4605
G01 X27.9703 Y7.4809
G01 X27.9600 Y7.4983
G01 X27.9561 Y7.5041
G01 X27.9453 Y7.5184
G01 X27.9333 Y7.5318
G01 X27.9285 Y7.5368
G01 X27.9134 Y7.5503
G01 X27.8953 Y7.5637
G01 X27.8780 Y7.5742
G01 X27.8718 Y7.5774
G01 X27.8555 Y7.5850
G01 X27.8387 Y7.5911
G01 X27.8320 Y7.5932
G01 X27.8147 Y7.5976
G01 X27.7900 Y7.6014
G01 X27.7675 Y7.6025
G01 X27.3975 Y7.6025
G01 X27.3750 Y7.6014
G01 X27.3549 Y7.5985
G01 X27.3307 Y7.5926
G01 X27.3116 Y7.5859
G01 X27.3052 Y7.5831
G01 X27.2891 Y7.5753
G01 X27.2737 Y7.5662
G01 X27.2678 Y7.5624
G01 X27.2516 Y7.5503
G01 X27.2365 Y7.5368
G01 X27.2317 Y7.5318
G01 X27.2197 Y7.5184
G01 X27.2089 Y7.5041
G01 X27.2050 Y7.4983
G01 X27.1947 Y7.4809
G01 X27.1841 Y7.4584
G01 X27.1774 Y7.4393
G01 X27.1719 Y7.4174
G01 X27.1686 Y7.3950
G01 X27.1676 Y7.3772
G01 X27.1675 Y7.1002
G01 X27.1686 Y7.0800
G01 X27.1719 Y7.0576
G01 X27.1774 Y7.0357
G01 X27.1850 Y7.0145
G01 X27.1947 Y6.9941
G01 X27.2063 Y6.9747
G01 X27.2197 Y6.9566
G01 X27.2332 Y6.9415
G01 X27.2516 Y6.9247
G01 X27.2697 Y6.9113
G01 X27.2891 Y6.8997
G01 X27.3073 Y6.8909
G01 X27.3307 Y6.8824
G01 X27.3503 Y6.8774
G01 X27.3726 Y6.8739
G01 X27.3875 Y6.8729
G01 X27.3874 Y5.3125
G01 X26.9225 Y5.3125
G01 X26.9132 Y5.3120
G01 X26.9063 Y5.3111
G01 X26.8994 Y5.3097
G01 X26.8927 Y5.3077
G01 X26.8861 Y5.3053
G01 X26.8798 Y5.3024
G01 X26.8737 Y5.2990
G01 X26.8641 Y5.2924
G01 X26.8587 Y5.2879
G01 X26.8537 Y5.2830
G01 X26.8462 Y5.2741
G01 X26.8398 Y5.2643
G01 X26.8366 Y5.2581
G01 X26.8339 Y5.2517
G01 X26.8309 Y5.2428
G01 X26.8289 Y5.2337
G01 X26.8278 Y5.2245
G01 X26.8275 Y5.2175
G01 X26.8275 Y4.2175
G01 X26.8278 Y4.2105
G01 X26.8289 Y4.2013
G01 X26.8309 Y4.1922
G01 X26.8339 Y4.1833
G01 X26.8366 Y4.1769
G01 X26.8410 Y4.1687
G01 X26.8462 Y4.1609
G01 X26.8521 Y4.1537
G01 X26.8587 Y4.1471
G01 X26.8659 Y4.1412
G01 X26.8717 Y4.1372
G01 X26.8798 Y4.1326
G01 X26.8883 Y4.1289
G01 X26.8972 Y4.1259
G01 X26.9040 Y4.1243
G01 X26.9132 Y4.1230
G01 X26.9225 Y4.1225
G00 Z2.0000
G00 X26.9225 Y2.4225
G01 F60.00
G01 Z-0.0500
G01 F120.00
G01 X26.9155 Y2.4228
G01 X26.9086 Y2.4235
G01 X26.9017 Y2.4248
G01 X26.8949 Y2.4266
G01 X26.8861 Y2.4297
G01 X26.8798 Y2.4326
G01 X26.8737 Y2.4360
G01 X26.8678 Y2.4398
G01 X26.8622 Y2.4441
G01 X26.8570 Y2.4487
G01 X26.8521 Y2.4537
G01 X26.8476 Y2.4591
G01 X26.8435 Y2.4647
G01 X26.8398 Y2.4707
G01 X26.8366 Y2.4769
G01 X26.8339 Y2.4833
G01 X26.8309 Y2.4922
G01 X26.8293 Y2.4990
G01 X26.8282 Y2.5059
G01 X26.8275 Y2.5152
G01 X26.8275 Y2.6725
G01 X26.5175 Y2.6725
G01 X26.5175 Y2.4747
G01 X26.5221 Y2.4321
G01 X26.5634 Y2.3214
G01 X26.6332 Y2.2282
G01 X26.7264 Y2.1584
G01 X26.8371 Y2.1171
G01 X26.8797 Y2.1125
G01 X27.3025 Y2.1125
G01 X27.3025 Y2.4225
G01 X26.9225 Y2.4225
G00 Z2.0000
G00 X27.9925 Y2.4225
G01 F60.00
G01 Z-0.0500
G01 F120.00
G01 X27.9925 Y2.1125
G01 X28.4152 Y2.1125
G01 X28.4579 Y2.1171
G01 X28.5686 Y2.1584
G01 X28.6618 Y2.2282
G01 X28.7316 Y2.3214
G01 X28.7729 Y2.4321
G01 X28.7775 Y2.4748
G01 X28.7775 Y2.6725
G01 X28.4675 Y2.6725
G01 X28.4675 Y2.5152
G01 X28.4665 Y2.5036
G01 X28.4641 Y2.4922
G01 X28.4603 Y2.4811
G01 X28.4552 Y2.4707
G01 X28.4488 Y2.4609
G01 X28.4413 Y2.4520
G01 X28.4328 Y2.4441
G01 X28.4233 Y2.4372
G01 X28.4131 Y2.4316
G01 X28.4023 Y2.4273
G01 X28.3956 Y2.4253
G01 X28.3887 Y2.4239
G01 X28.3795 Y2.4228
G01 X28.3725 Y2.4225
G01 X27.9925 Y2.4225
G00 Z2.0000
G00 X32.0725 Y2.4225
G01 F60.00
G01 Z-0.0500
G01 F120.00
G01 X32.0655 Y2.4228
G01 X32.0586 Y2.4235
G01 X32.0517 Y2.4248
G01 X32.0427 Y2.4273
G01 X32.0361 Y2.4297
G01 X32.0298 Y2.4326
G01 X32.0237 Y2.4360
G01 X32.0178 Y2.4398
G01 X32.0122 Y2.4441
G01 X32.0070 Y2.4487
G01 X32.0021 Y2.4537
G01 X31.9976 Y2.4591
G01 X31.9935 Y2.4647
G01 X31.9898 Y2.4707
G01 X31.9866 Y2.4769
G01 X31.9839 Y2.4833
G01 X31.9816 Y2.4899
G01 X31.9793 Y2.4990
G01 X31.9780 Y2.5082
G01 X31.9775 Y2.5152
G01 X31.9775 Y2.6725
G01 X31.6675 Y2.6725
G01 X31.6675 Y2.4747
G01 X31.6721 Y2.4321
G01 X31.7134 Y2.3214
G01 X31.7832 Y2.2282
G01 X31.8764 Y2.1584
G01 X31.9871 Y2.1171
G01 X32.0297 Y2.1125
G01 X32.4525 Y2.1125
G01 X32.4525 Y2.4225
G01 X32.0725 Y2.4225
G00 Z2.0000
G00 X33.1425 Y2.4225
G01 F60.00
G01 Z-0.0500
G01 F120.00
G01 X33.1425 Y2.1125
G01 X33.5652 Y2.1125
G01 X33.6079 Y2.1171
G01 X33.7186 Y2.1584
G01 X33.8118 Y2.2282
G01 X33.8816 Y2.3214
G01 X33.9229 Y2.4321
G01 X33.9275 Y2.4748
G01 X33.9275 Y2.6725
G01 X33.6175 Y2.6725
G01 X33.6175 Y2.5152
G01 X33.6165 Y2.5036
G01 X33.6141 Y2.4922
G01 X33.6103 Y2.4811
G01 X33.6052 Y2.4707
G01 X33.5988 Y2.4609
G01 X33.5913 Y2.4520
G01 X33.5828 Y2.4441
G01 X33.5733 Y2.4372
G01 X33.5631 Y2.4316
G01 X33.5523 Y2.4273
G01 X33.5456 Y2.4253
G01 X33.5387 Y2.4239
G01 X33.5295 Y2.4228
G01 X33.5225 Y2.4225
G01 X33.1425 Y2.4225
G00 Z2.0000
G00 X36.8625 Y5.8158
G01 F60.00
G01 Z-0.0500
G01 F120.00
G01 X36.8625 Y6.1275
G01 X36.5295 Y6.1275
G01 X36.5333 Y6.1143
G01 X36.6034 Y5.9958
G01 X36.7008 Y5.8984
G01 X36.8193 Y5.8283
G01 X36.8625 Y5.8158
G00 Z2.0000
G00 X37.5525 Y6.1275
G01 F60.00
G01 Z-0.0500
G01 F120.00
G01 X37.5525 Y5.8158
G01 X37.5957 Y5.8283
G01 X37.7142 Y5.8984
G01 X37.8116 Y5.9958
G01 X37.8817 Y6.1143
G01 X37.8855 Y6.1275
G01 X37.5525 Y6.1275
G00 Z2.0000
G00 X37.4075 Y7.8054
G01 F60.00
G01 Z-0.0500
G01 F120.00
G01 X37.4233 Y7.8030
G01 X37.4435 Y7.7980
G01 X37.4631 Y7.7913
G01 X37.4696 Y7.7887
G01 X37.4883 Y7.7798
G01 X37.5041 Y7.7704
G01 X37.5100 Y7.7666
G01 X37.5266 Y7.7542
G01 X37.5420 Y7.7403
G01 X37.5469 Y7.7353
G01 X37.5592 Y7.7216
G01 X37.5716 Y7.7050
G01 X37.5825 Y7.6873
G01 X37.5858 Y7.6812
G01 X37.5937 Y7.6646
G01 X37.5983 Y7.6526
G01 X40.3742 Y7.6525
G01 X40.3783 Y7.6679
G01 X40.3863 Y7.6896
G01 X40.3952 Y7.7083
G01 X40.4071 Y7.7281
G01 X40.4208 Y7.7466
G01 X40.4363 Y7.7637
G01 X40.4534 Y7.7792
G01 X40.4681 Y7.7902
G01 X40.4739 Y7.7942
G01 X40.4877 Y7.8025
G01 X40.4959 Y7.8068
G01 X40.5147 Y7.8155
G01 X40.5365 Y7.8230
G01 X40.5567 Y7.8280
G01 X40.5771 Y7.8311
G01 X40.6002 Y7.8325
G01 X40.6174 Y7.8325
G01 X40.6175 Y10.2867
G01 X40.1942 Y10.7100
G01 X37.4435 Y10.7100
G01 X37.4358 Y10.7083
G01 X37.4214 Y10.7061
G01 X37.4076 Y10.7052
G01 X37.4075 Y7.8054
G00 Z2.0000
G00 X37.5625 Y9.1425
G01 F60.00
G01 Z-0.0500
G01 F120.00
G01 X37.6625 Y9.1425
G01 X37.6767 Y9.1432
G01 X37.6908 Y9.1453
G01 X37.7046 Y9.1487
G01 X37.7180 Y9.1535
G01 X37.7309 Y9.1596
G01 X37.7450 Y9.1683
G01 X37.7545 Y9.1754
G01 X37.7617 Y9.1818
G01 X37.7731 Y9.1937
G01 X37.7831 Y9.2069
G01 X37.7915 Y9.2212
G01 X37.7965 Y9.2320
G01 X37.7998 Y9.2410
G01 X37.8042 Y9.2569
G01 X37.8068 Y9.2733
G01 X37.8075 Y9.2875
G01 X37.8075 Y10.0625
G01 X37.8070 Y10.0744
G01 X37.8062 Y10.0813
G01 X37.8042 Y10.0931
G01 X37.8013 Y10.1046
G01 X37.7965 Y10.1180
G01 X37.7915 Y10.1288
G01 X37.7856 Y10.1391
G01 X37.7804 Y10.1469
G01 X37.7731 Y10.1563
G01 X37.7634 Y10.1667
G01 X37.7545 Y10.1746
G01 X37.7431 Y10.1831
G01 X37.7329 Y10.1893
G01 X37.7223 Y10.1946
G01 X37.7136 Y10.1981
G01 X37.7024 Y10.2019
G01 X37.6908 Y10.2047
G01 X37.6767 Y10.2068
G01 X37.6625 Y10.2075
G01 X37.5625 Y10.2075
G01 X37.5506 Y10.2070
G01 X37.5365 Y10.2051
G01 X37.5226 Y10.2019
G01 X37.5092 Y10.1973
G01 X37.4962 Y10.1915
G01 X37.4819 Y10.1831
G01 X37.4723 Y10.1760
G01 X37.4670 Y10.1715
G01 X37.4600 Y10.1650
G01 X37.4519 Y10.1563
G01 X37.4419 Y10.1431
G01 X37.4335 Y10.1288
G01 X37.4285 Y10.1180
G01 X37.4252 Y10.1090
G01 X37.4208 Y10.0931
G01 X37.4182 Y10.0767
G01 X37.4175 Y10.0625
G01 X37.4175 Y9.2875
G01 X37.4180 Y9.2756
G01 X37.4195 Y9.2638
G01 X37.4225 Y9.2499
G01 X37.4252 Y9.2410
G01 X37.4295 Y9.2299
G01 X37.4357 Y9.2171
G01 X37.4419 Y9.2069
G01 X37.4504 Y9.1955
G01 X37.4600 Y9.1850
G01 X37.4687 Y9.1769
G01 X37.4800 Y9.1683
G01 X37.4901 Y9.1619
G01 X37.5027 Y9.1554
G01 X37.5114 Y9.1519
G01 X37.5226 Y9.1481
G01 X37.5365 Y9.1449
G01 X37.5483 Y9.1432
G01 X37.5625 Y9.1425
G00 Z2.0000
G00 X37.9625 Y9.1425
G01 F60.00
G01 Z-0.0500
G01 F120.00
G01 X38.0625 Y9.1425
G01 X38.0767 Y9.1432
G01 X38.0908 Y9.1453
G01 X38.1046 Y9.1487
G01 X38.1180 Y9.1535
G01 X38.1309 Y9.1596
G01 X38.1450 Y9.1683
G01 X38.1545 Y9.1754
G01 X38.1617 Y9.1818
G01 X38.1731 Y9.1937
G01 X38.1831 Y9.2069
G01 X38.1915 Y9.2212
G01 X38.1965 Y9.2320
G01 X38.1998 Y9.2410
G01 X38.2042 Y9.2569
G01 X38.2068 Y9.2733
G01 X38.2075 Y9.2875
G01 X38.2075 Y10.0625
G01 X38.2070 Y10.0744
G01 X38.2062 Y10.0813
G01 X38.2042 Y10.0931
G01 X38.2013 Y10.1046
G01 X38.1965 Y10.1180
G01 X38.1915 Y10.1288
G01 X38.1856 Y10.1391
G01 X38.1804 Y10.1469
G01 X38.1731 Y10.1563
G01 X38.1634 Y10.1667
G01 X38.1545 Y10.1746
G01 X38.1431 Y10.1831
G01 X38.1329 Y10.1893
G01 X38.1223 Y10.1946
G01 X38.1136 Y10.1981
G01 X38.1024 Y10.2019
G01 X38.0908 Y10.2047
G01 X38.0767 Y10.2068
G01 X38.0625 Y10.2075
G01 X37.9625 Y10.2075
G01 X37.9506 Y10.2070
G01 X37.9365 Y10.2051
G01 X37.9226 Y10.2019
G01 X37.9092 Y10.1973
G01 X37.8962 Y10.1915
G01 X37.8819 Y10.1831
G01 X37.8723 Y10.1760
G01 X37.8670 Y10.1715
G01 X37.8600 Y10.1650
G01 X37.8519 Y10.1563
G01 X37.8419 Y10.1431
G01 X37.8335 Y10.1288
G01 X37.8285 Y10.1180
G01 X37.8252 Y10.1090
G01 X37.8208 Y10.0931
G01 X37.8182 Y10.0767
G01 X37.8175 Y10.0625
G01 X37.8175 Y9.2875
G01 X37.8180 Y9.2756
G01 X37.8195 Y9.2638
G01 X37.8225 Y9.2499
G01 X37.8252 Y9.2410
G01 X37.8295 Y9.2299
G01 X37.8357 Y9.2171
G01 X37.8419 Y9.2069
G01 X37.8504 Y9.1955
G01 X37.8600 Y9.1850
G01 X37.8687 Y9.1769
G01 X37.8800 Y9.1683
G01 X37.8901 Y9.1619
G01 X37.9027 Y9.1554
G01 X37.9114 Y9.1519
G01 X37.9226 Y9.1481
G01 X37.9365 Y9.1449
G01 X37.9483 Y9.1432
G01 X37.9625 Y9.1425
G00 Z2.0000
G00 X38.3625 Y9.1425
G01 F60.00
G01 Z-0.0500
G01 F120.00
G01 X38.4625 Y9.1425
G01 X38.4767 Y9.1432
G01 X38.4908 Y9.1453
G01 X38.5046 Y9.1487
G01 X38.5180 Y9.1535
G01 X38.5309 Y9.1596
G01 X38.5450 Y9.1683
G01 X38.5545 Y9.1754
G01 X38.5617 Y9.1818
G01 X38.5731 Y9.1937
G01 X38.5831 Y9.2069
G01 X38.5915 Y9.2212
G01 X38.5965 Y9.2320
G01 X38.5998 Y9.2410
G01 X38.6042 Y9.2569
G01 X38.6068 Y9.2733
G01 X38.6075 Y9.2875
G01 X38.6075 Y10.0625
G01 X38.6070 Y10.0744
G01 X38.6062 Y10.0813
G01 X38.6042 Y10.0931
G01 X38.6013 Y10.1046
G01 X38.5965 Y10.1180
G01 X38.5915 Y10.1288
G01 X38.5856 Y10.1391
G01 X38.5804 Y10.1469
G01 X38.5731 Y10.1563
G01 X38.5634 Y10.1667
G01 X38.5545 Y10.1746
G01 X38.5431 Y10.1831
G01 X38.5329 Y10.1893
G01 X38.5223 Y10.1946
G01 X38.5136 Y10.1981
G01 X38.5024 Y10.2019
G01 X38.4908 Y10.2047
G01 X38.4767 Y10.2068
G01 X38.4625 Y10.2075
G01 X38.3625 Y10.2075
G01 X38.3506 Y10.2070
G01 X38.3365 Y10.2051
G01 X38.3226 Y10.2019
G01 X38.3092 Y10.1973
G01 X38.2962 Y10.1915
G01 X38.2819 Y10.1831
G01 X38.2723 Y10.1760
G01 X38.2670 Y10.1715
G01 X38.2600 Y10.1650
G01 X38.2519 Y10.1563
G01 X38.2419 Y10.1431
G01 X38.2335 Y10.1288
G01 X38.2285 Y10.1180
G01 X38.2252 Y10.1090
G01 X38.2208 Y10.0931
G01 X38.2182 Y10.0767
G01 X38.2175 Y10.0625
G01 X38.2175 Y9.2875
G01 X38.2180 Y9.2756
G01 X38.2195 Y9.2638
G01 X38.2225 Y9.2499
G01 X38.2252 Y9.2410
G01 X38.2295 Y9.2299
G01 X38.2357 Y9.2171
G01 X38.2419 Y9.2069
G01 X38.2504 Y9.1955
G01 X38.2600 Y9.1850
G01 X38.2687 Y9.1769
G01 X38.2800 Y9.1683
G01 X38.2901 Y9.1619
G01 X38.3027 Y9.1554
G01 X38.3114 Y9.1519
G01 X38.3226 Y9.1481
G01 X38.3365 Y9.1449
G01 X38.3483 Y9.1432
G01 X38.3625 Y9.1425
G00 Z2.0000
G00 X38.7625 Y9.1425
G01 F60.00
G01 Z-0.0500
G01 F120.00
G01 X38.8625 Y9.1425
G01 X38.8767 Y9.1432
G01 X38.8908 Y9.1453
G01 X38.9046 Y9.1487
G01 X38.9180 Y9.1535
G01 X38.9309 Y9.1596
G01 X38.9450 Y9.1683
G01 X38.9545 Y9.1754
G01 X38.9617 Y9.1818
G01 X38.9731 Y9.1937
G01 X38.9831 Y9.2069
G01 X38.9915 Y9.2212
G01 X38.9965 Y9.2320
G01 X38.9998 Y9.2410
G01 X39.0042 Y9.2569
G01 X39.0068 Y9.2733
G01 X39.0075 Y9.2875
G01 X39.0075 Y10.0625
G01 X39.0070 Y10.0744
G01 X39.0062 Y10.0813
G01 X39.0042 Y10.0931
G01 X39.0013 Y10.1046
G01 X38.9965 Y10.1180
G01 X38.9915 Y10.1288
G01 X38.9856 Y10.1391
G01 X38.9804 Y10.1469
G01 X38.9731 Y10.1563
G01 X38.9634 Y10.1667
G01 X38.9545 Y10.1746
G01 X38.9431 Y10.1831
G01 X38.9329 Y10.1893
G01 X38.9223 Y10.1946
G01 X38.9136 Y10.1981
G01 X38.9024 Y10.2019
G01 X38.8908 Y10.2047
G01 X38.8767 Y10.2068
G01 X38.8625 Y10.2075
G01 X38.7625 Y10.2075
G01 X38.7506 Y10.2070
G01 X38.7365 Y10.2051
G01 X38.7226 Y10.2019
G01 X38.7092 Y10.1973
G01 X38.6962 Y10.1915
G01 X38.6819 Y10.1831
G01 X38.6723 Y10.1760
G01 X38.6670 Y10.1715
G01 X38.6600 Y10.1650
G01 X38.6519 Y10.1563
G01 X38.6419 Y10.1431
G01 X38.6335 Y10.1288
G01 X38.6285 Y10.1180
G01 X38.6252 Y10.1090
G01 X38.6208 Y10.0931
G01 X38.6182 Y10.0767
G01 X38.6175 Y10.0625
G01 X38.6175 Y9.2875
G01 X38.6180 Y9.2756
G01 X38.6195 Y9.2638
G01 X38.6225 Y9.2499
G01 X38.6252 Y9.2410
G01 X38.6295 Y9.2299
G01 X38.6357 Y9.2171
G01 X38.6419 Y9.2069
G01 X38.6504 Y9.1955
G01 X38.6600 Y9.1850
G01 X38.6687 Y9.1769
G01 X38.6800 Y9.1683
G01 X38.6901 Y9.1619
G01 X38.7027 Y9.1554
G01 X38.7114 Y9.1519
G01 X38.7226 Y9.1481
G01 X38.7365 Y9.1449
G01 X38.7483 Y9.1432
G01 X38.7625 Y9.1425
G00 Z2.0000
G00 X39.1625 Y9.1425
G01 F60.00
G01 Z-0.0500
G01 F120.00
G01 X39.2625 Y9.1425
G01 X39.2767 Y9.1432
G01 X39.2908 Y9.1453
G01 X39.3046 Y9.1487
G01 X39.3180 Y9.1535
G01 X39.3309 Y9.1596
G01 X39.3450 Y9.1683
G01 X39.3545 Y9.1754
G01 X39.3617 Y9.1818
G01 X39.3731 Y9.1937
G01 X39.3831 Y9.2069
G01 X39.3915 Y9.2212
G01 X39.3965 Y9.2320
G01 X39.3998 Y9.2410
G01 X39.4042 Y9.2569
G01 X39.4068 Y9.2733
G01 X39.4075 Y9.2875
G01 X39.4075 Y10.0625
G01 X39.4070 Y10.0744
G01 X39.4062 Y10.0813
G01 X39.4042 Y10.0931
G01 X39.4013 Y10.1046
G01 X39.3965 Y10.1180
G01 X39.3915 Y10.1288
G01 X39.3856 Y10.1391
G01 X39.3804 Y10.1469
G01 X39.3731 Y10.1563
G01 X39.3634 Y10.1667
G01 X39.3545 Y10.1746
G01 X39.3431 Y10.1831
G01 X39.3329 Y10.1893
G01 X39.3223 Y10.1946
G01 X39.3136 Y10.1981
G01 X39.3024 Y10.2019
G01 X39.2908 Y10.2047
G01 X39.2767 Y10.2068
G01 X39.2625 Y10.2075
G01 X39.1625 Y10.2075
G01 X39.1506 Y10.2070
G01 X39.1365 Y10.2051
G01 X39.1226 Y10.2019
G01 X39.1092 Y10.1973
G01 X39.0962 Y10.1915
G01 X39.0819 Y10.1831
G01 X39.0723 Y10.1760
G01 X39.0670 Y10.1715
G01 X39.0600 Y10.1650
G01 X39.0519 Y10.1563
G01 X39.0419 Y10.1431
G01 X39.0335 Y10.1288
G01 X39.0285 Y10.1180
G01 X39.0252 Y10.1090
G01 X39.0208 Y10.0931
G01 X39.0182 Y10.0767
G01 X39.0175 Y10.0625
G01 X39.0175 Y9.2875
G01 X39.0180 Y9.2756
G01 X39.0195 Y9.2638
G01 X39.0225 Y9.2499
G01 X39.0252 Y9.2410
G01 X39.0295 Y9.2299
G01 X39.0357 Y9.2171
G01 X39.0419 Y9.2069
G01 X39.0504 Y9.1955
G01 X39.0600 Y9.1850
G01 X39.0687 Y9.1769
G01 X39.0800 Y9.1683
G01 X39.0901 Y9.1619
G01 X39.1027 Y9.1554
G01 X39.1114 Y9.1519
G01 X39.1226 Y9.1481
G01 X39.1365 Y9.1449
G01 X39.1483 Y9.1432
G01 X39.1625 Y9.1425
G00 Z2.0000
G00 X39.5625 Y9.1425
G01 F60.00
G01 Z-0.0500
G01 F120.00
G01 X39.6625 Y9.1425
G01 X39.6767 Y9.1432
G01 X39.6908 Y9.1453
G01 X39.7046 Y9.1487
G01 X39.7180 Y9.1535
G01 X39.7309 Y9.1596
G01 X39.7450 Y9.1683
G01 X39.7545 Y9.1754
G01 X39.7617 Y9.1818
G01 X39.7731 Y9.1937
G01 X39.7831 Y9.2069
G01 X39.7915 Y9.2212
G01 X39.7965 Y9.2320
G01 X39.7998 Y9.2410
G01 X39.8042 Y9.2569
G01 X39.8068 Y9.2733
G01 X39.8075 Y9.2875
G01 X39.8075 Y10.0625
G01 X39.8070 Y10.0744
G01 X39.8062 Y10.0813
G01 X39.8042 Y10.0931
G01 X39.8013 Y10.1046
G01 X39.7965 Y10.1180
G01 X39.7915 Y10.1288
G01 X39.7856 Y10.1391
G01 X39.7804 Y10.1469
G01 X39.7731 Y10.1563
G01 X39.7634 Y10.1667
G01 X39.7545 Y10.1746
G01 X39.7431 Y10.1831
G01 X39.7329 Y10.1893
G01 X39.7223 Y10.1946
G01 X39.7136 Y10.1981
G01 X39.7024 Y10.2019
G01 X39.6908 Y10.2047
G01 X39.6767 Y10.2068
G01 X39.6625 Y10.2075
G01 X39.5625 Y10.2075
G01 X39.5506 Y10.2070
G01 X39.5365 Y10.2051
G01 X39.5226 Y10.2019
G01 X39.5092 Y10.1973
G01 X39.4962 Y10.1915
G01 X39.4819 Y10.1831
G01 X39.4723 Y10.1760
G01 X39.4670 Y10.1715
G01 X39.4600 Y10.1650
G01 X39.4519 Y10.1563
G01 X39.4419 Y10.1431
G01 X39.4335 Y10.1288
G01 X39.4285 Y10.1180
G01 X39.4252 Y10.1090
G01 X39.4208 Y10.0931
G01 X39.4182 Y10.0767
G01 X39.4175 Y10.0625
G01 X39.4175 Y9.2875
G01 X39.4180 Y9.2756
G01 X39.4195 Y9.2638
G01 X39.4225 Y9.2499
G01 X39.4252 Y9.2410
G01 X39.4295 Y9.2299
G01 X39.4357 Y9.2171
G01 X39.4419 Y9.2069
G01 X39.4504 Y9.1955
G01 X39.4600 Y9.1850
G01 X39.4687 Y9.1769
G01 X39.4800 Y9.1683
G01 X39.4901 Y9.1619
G01 X39.5027 Y9.1554
G01 X39.5114 Y9.1519
G01 X39.5226 Y9.1481
G01 X39.5365 Y9.1449
G01 X39.5483 Y9.1432
G01 X39.5625 Y9.1425
G00 Z2.0000
G00 X39.9625 Y9.1425
G01 F60.00
G01 Z-0.0500
G01 F120.00
G01 X40.0625 Y9.1425
G01 X40.0767 Y9.1432
G01 X40.0908 Y9.1453
G01 X40.1046 Y9.1487
G01 X40.1180 Y9.1535
G01 X40.1309 Y9.1596
G01 X40.1450 Y9.1683
G01 X40.1545 Y9.1754
G01 X40.1617 Y9.1818
G01 X40.1731 Y9.1937
G01 X40.1831 Y9.2069
G01 X40.1915 Y9.2212
G01 X40.1965 Y9.2320
G01 X40.1998 Y9.2410
G01 X40.2042 Y9.2569
G01 X40.2068 Y9.2733
G01 X40.2075 Y9.2875
G01 X40.2075 Y10.0625
G01 X40.2070 Y10.0744
G01 X40.2062 Y10.0813
G01 X40.2042 Y10.0931
G01 X40.2013 Y10.1046
G01 X40.1965 Y10.1180
G01 X40.1915 Y10.1288
G01 X40.1856 Y10.1391
G01 X40.1804 Y10.1469
G01 X40.1731 Y10.1563
G01 X40.1634 Y10.1667
G01 X40.1545 Y10.1746
G01 X40.1431 Y10.1831
G01 X40.1329 Y10.1893
G01 X40.1223 Y10.1946
G01 X40.1136 Y10.1981
G01 X40.1024 Y10.2019
G01 X40.0908 Y10.2047
G01 X40.0767 Y10.2068
G01 X40.0625 Y10.2075
G01 X39.9625 Y10.2075
G01 X39.9506 Y10.2070
G01 X39.9365 Y10.2051
G01 X39.9226 Y10.2019
G01 X39.9092 Y10.1973
G01 X39.8962 Y10.1915
G01 X39.8819 Y10.1831
G01 X39.8723 Y10.1760
G01 X39.8670 Y10.1715
G01 X39.8600 Y10.1650
G01 X39.8519 Y10.1563
G01 X39.8419 Y10.1431
G01 X39.8335 Y10.1288
G01 X39.8285 Y10.1180
G01 X39.8252 Y10.1090
G01 X39.8208 Y10.0931
G01 X39.8182 Y10.0767
G01 X39.8175 Y10.0625
G01 X39.8175 Y9.2875
G01 X39.8180 Y9.2756
G01 X39.8195 Y9.2638
G01 X39.8225 Y9.2499
G01 X39.8252 Y9.2410
G01 X39.8295 Y9.2299
G01 X39.8357 Y9.2171
G01 X39.8419 Y9.2069
G01 X39.8504 Y9.1955
G01 X39.8600 Y9.1850
G01 X39.8687 Y9.1769
G01 X39.8800 Y9.1683
G01 X39.8901 Y9.1619
G01 X39.9027 Y9.1554
G01 X39.9114 Y9.1519
G01 X39.9226 Y9.1481
G01 X39.9365 Y9.1449
G01 X39.9483 Y9.1432
G01 X39.9625 Y9.1425
G00 Z2.0000
G00 X40.3625 Y9.1425
G01 F60.00
G01 Z-0.0500
G01 F120.00
G01 X40.4625 Y9.1425
G01 X40.4767 Y9.1432
G01 X40.4908 Y9.1453
G01 X40.5046 Y9.1487
G01 X40.5180 Y9.1535
G01 X40.5309 Y9.1596
G01 X40.5450 Y9.1683
G01 X40.5545 Y9.1754
G01 X40.5617 Y9.1818
G01 X40.5731 Y9.1937
G01 X40.5831 Y9.2069
G01 X40.5915 Y9.2212
G01 X40.5965 Y9.2320
G01 X40.5998 Y9.2410
G01 X40.6042 Y9.2569
G01 X40.6068 Y9.2733
G01 X40.6075 Y9.2875
G01 X40.6075 Y10.0625
G01 X40.6070 Y10.0744
G01 X40.6062 Y10.0813
G01 X40.6042 Y10.0931
G01 X40.6013 Y10.1046
G01 X40.5965 Y10.1180
G01 X40.5915 Y10.1288
G01 X40.5856 Y10.1391
G01 X40.5804 Y10.1469
G01 X40.5731 Y10.1563
G01 X40.5634 Y10.1667
G01 X40.5545 Y10.1746
G01 X40.5431 Y10.1831
G01 X40.5329 Y10.1893
G01 X40.5223 Y10.1946
G01 X40.5136 Y10.1981
G01 X40.5024 Y10.2019
G01 X40.4908 Y10.2047
G01 X40.4767 Y10.2068
G01 X40.4625 Y10.2075
G01 X40.3625 Y10.2075
G01 X40.3506 Y10.2070
G01 X40.3365 Y10.2051
G01 X40.3226 Y10.2019
G01 X40.3092 Y10.1973
G01 X40.2962 Y10.1915
G01 X40.2819 Y10.1831
G01 X40.2723 Y10.1760
G01 X40.2670 Y10.1715
G01 X40.2600 Y10.1650
G01 X40.2519 Y10.1563
G01 X40.2419 Y10.1431
G01 X40.2335 Y10.1288
G01 X40.2285 Y10.1180
G01 X40.2252 Y10.1090
G01 X40.2208 Y10.0931
G01 X40.2182 Y10.0767
G01 X40.2175 Y10.0625
G01 X40.2175 Y9.2875
G01 X40.2180 Y9.2756
G01 X40.2195 Y9.2638
G01 X40.2225 Y9.2499
G01 X40.2252 Y9.2410
G01 X40.2295 Y9.2299
G01 X40.2357 Y9.2171
G01 X40.2419 Y9.2069
G01 X40.2504 Y9.1955
G01 X40.2600 Y9.1850
G01 X40.2687 Y9.1769
G01 X40.2800 Y9.1683
G01 X40.2901 Y9.1619
G01 X40.3027 Y9.1554
G01 X40.3114 Y9.1519
G01 X40.3226 Y9.1481
G01 X40.3365 Y9.1449
G01 X40.3483 Y9.1432
G01 X40.3625 Y9.1425
G00 Z2.0000
G00 X41.1625 Y9.1425
G01 F60.00
G01 Z-0.0500
G01 F120.00
G01 X41.2625 Y9.1425
G01 X41.2767 Y9.1432
G01 X41.2908 Y9.1453
G01 X41.3046 Y9.1487
G01 X41.3180 Y9.1535
G01 X41.3309 Y9.1596
G01 X41.3450 Y9.1683
G01 X41.3545 Y9.1754
G01 X41.3617 Y9.1818
G01 X41.3731 Y9.1937
G01 X41.3831 Y9.2069
G01 X41.3915 Y9.2212
G01 X41.3965 Y9.2320
G01 X41.3998 Y9.2410
G01 X41.4042 Y9.2569
G01 X41.4068 Y9.2733
G01 X41.4075 Y9.2875
G01 X41.4075 Y10.0625
G01 X41.4070 Y10.0744
G01 X41.4062 Y10.0813
G01 X41.4042 Y10.0931
G01 X41.4013 Y10.1046
G01 X41.3965 Y10.1180
G01 X41.3915 Y10.1288
G01 X41.3856 Y10.1391
G01 X41.3804 Y10.1469
G01 X41.3731 Y10.1563
G01 X41.3634 Y10.1667
G01 X41.3545 Y10.1746
G01 X41.3431 Y10.1831
G01 X41.3329 Y10.1893
G01 X41.3223 Y10.1946
G01 X41.3136 Y10.1981
G01 X41.3024 Y10.2019
G01 X41.2908 Y10.2047
G01 X41.2767 Y10.2068
G01 X41.2625 Y10.2075
G01 X41.1625 Y10.2075
G01 X41.1506 Y10.2070
G01 X41.1365 Y10.2051
G01 X41.1226 Y10.2019
G01 X41.1092 Y10.1973
G01 X41.0962 Y10.1915
G01 X41.0819 Y10.1831
G01 X41.0723 Y10.1760
G01 X41.0670 Y10.1715
G01 X41.0600 Y10.1650
G01 X41.0519 Y10.1563
G01 X41.0419 Y10.1431
G01 X41.0335 Y10.1288
G01 X41.0285 Y10.1180
G01 X41.0252 Y10.1090
G01 X41.0208 Y10.0931
G01 X41.0182 Y10.0767
G01 X41.0175 Y10.0625
G01 X41.0175 Y9.2875
G01 X41.0180 Y9.2756
G01 X41.0195 Y9.2638
G01 X41.0225 Y9.2499
G01 X41.0252 Y9.2410
G01 X41.0295 Y9.2299
G01 X41.0357 Y9.2171
G01 X41.0419 Y9.2069
G01 X41.0504 Y9.1955
G01 X41.0600 Y9.1850
G01 X41.0687 Y9.1769
G01 X41.0800 Y9.1683
G01 X41.0901 Y9.1619
G01 X41.1027 Y9.1554
G01 X41.1114 Y9.1519
G01 X41.1226 Y9.1481
G01 X41.1365 Y9.1449
G01 X41.1483 Y9.1432
G01 X41.1625 Y9.1425
G00 Z2.0000
G00 X41.8180 Y9.2763
G01 F60.00
G01 Z-0.0500
G01 F120.00
G01 X41.8175 Y9.2875
G01 X41.8175 Y10.0625
G01 X41.8179 Y10.0735
G01 X41.8070 Y10.0737
G01 X41.8075 Y10.0625
G01 X41.8075 Y9.2875
G01 X41.8071 Y9.2765
G01 X41.8180 Y9.2763
G00 Z2.0000
G00 X42.2180 Y9.2763
G01 F60.00
G01 Z-0.0500
G01 F120.00
G01 X42.2175 Y9.2875
G01 X42.2175 Y10.0625
G01 X42.2179 Y10.0735
G01 X42.2070 Y10.0737
G01 X42.2075 Y10.0625
G01 X42.2075 Y9.2875
G01 X42.2071 Y9.2765
G01 X42.2180 Y9.2763
G00 Z2.0000
G00 X42.8513 Y10.7070
G01 F60.00
G01 Z-0.0500
G01 F120.00
G01 X42.8625 Y10.7075
G01 X43.6375 Y10.7075
G01 X43.6485 Y10.7071
G01 X43.6487 Y10.7180
G01 X43.6375 Y10.7175
G01 X42.8625 Y10.7175
G01 X42.8515 Y10.7179
G01 X42.8513 Y10.7070
G00 Z2.0000
G00 X42.8513 Y11.1070
G01 F60.00
G01 Z-0.0500
G01 F120.00
G01 X42.8625 Y11.1075
G01 X43.6375 Y11.1075
G01 X43.6485 Y11.1071
G01 X43.6487 Y11.1180
G01 X43.6375 Y11.1175
G01 X42.8625 Y11.1175
G01 X42.8515 Y11.1179
G01 X42.8513 Y11.1070
G00 Z2.0000
G00 X42.8063 Y11.4961
G01 F60.00
G01 Z-0.0500
G01 F120.00
G01 X42.8204 Y11.5013
G01 X42.8342 Y11.5047
G01 X42.8483 Y11.5068
G01 X42.8625 Y11.5075
G01 X43.6375 Y11.5075
G01 X43.6517 Y11.5068
G01 X43.6658 Y11.5047
G01 X43.6796 Y11.5013
G01 X43.6906 Y11.4974
G01 X43.6920 Y11.5046
G01 X43.6946 Y11.5137
G01 X43.6991 Y11.5256
G01 X43.7028 Y11.5331
G01 X43.6886 Y11.5269
G01 X43.6796 Y11.5237
G01 X43.6703 Y11.5213
G01 X43.6540 Y11.5185
G01 X43.6398 Y11.5175
G01 X42.8625 Y11.5175
G01 X42.8460 Y11.5185
G01 X42.8342 Y11.5203
G01 X42.8249 Y11.5225
G01 X42.8182 Y11.5244
G01 X42.8070 Y11.5285
G01 X42.7924 Y11.5356
G01 X42.8063 Y11.4961
G00 Z2.0000
G00 X42.8625 Y12.3175
G01 F60.00
G01 Z-0.0500
G01 F120.00
G01 X43.8117 Y12.3175
G01 X45.4915 Y10.6377
G01 X45.4915 Y10.5265
G01 X45.4924 Y10.5074
G01 X45.4952 Y10.4884
G01 X45.4992 Y10.4721
G01 X45.5046 Y10.4562
G01 X45.5082 Y10.4476
G01 X45.5156 Y10.4325
G01 X45.5231 Y10.4201
G01 X45.5270 Y10.4143
G01 X45.5343 Y10.4046
G01 X45.5388 Y10.3992
G01 X45.5486 Y10.3886
G01 X45.5592 Y10.3788
G01 X45.5646 Y10.3743
G01 X45.5762 Y10.3656
G01 X45.5925 Y10.3556
G01 X45.6119 Y10.3463
G01 X45.6299 Y10.3398
G01 X45.6484 Y10.3352
G01 X45.6628 Y10.3330
G01 X45.6697 Y10.3322
G01 X45.6865 Y10.3315
G01 X47.4885 Y10.3315
G01 X47.5076 Y10.3324
G01 X47.5220 Y10.3344
G01 X47.5288 Y10.3357
G01 X47.5406 Y10.3386
G01 X47.5495 Y10.3413
G01 X47.5653 Y10.3472
G01 X47.5825 Y10.3556
G01 X47.5969 Y10.3643
G01 X47.6122 Y10.3757
G01 X47.6264 Y10.3886
G01 X47.6378 Y10.4010
G01 X47.6507 Y10.4181
G01 X47.6605 Y10.4346
G01 X47.6687 Y10.4519
G01 X47.6752 Y10.4699
G01 X47.6798 Y10.4884
G01 X47.6826 Y10.5074
G01 X47.6835 Y10.5242
G01 X47.6835 Y10.5477
G01 X47.8683 Y10.7325
G01 X48.0925 Y10.7325
G01 X48.0925 Y9.5583
G01 X48.0717 Y9.5375
G01 X47.8002 Y9.5375
G01 X47.7795 Y9.5364
G01 X47.7544 Y9.5325
G01 X47.7343 Y9.5274
G01 X47.7147 Y9.5205
G01 X47.6959 Y9.5118
G01 X47.6877 Y9.5075
G01 X47.6719 Y9.4979
G01 X47.6534 Y9.4842
G01 X47.6363 Y9.4687
G01 X47.6223 Y9.4534
G01 X47.6098 Y9.4369
G01 X47.6046 Y9.4291
G01 X47.5952 Y9.4133
G01 X47.5854 Y9.3924
G01 X47.5776 Y9.3707
G01 X47.5730 Y9.3529
G01 X47.5716 Y9.3461
G01 X47.5686 Y9.3255
G01 X47.5675 Y9.3025
G01 X47.5675 Y8.9625
G01 X47.5686 Y8.9395
G01 X47.5720 Y8.9167
G01 X47.5764 Y8.8988
G01 X47.5783 Y8.8921
G01 X47.5837 Y8.8769
G01 X47.5873 Y8.8683
G01 X47.5952 Y8.8517
G01 X47.6071 Y8.8319
G01 X47.6208 Y8.8134
G01 X47.6331 Y8.7997
G01 X47.6380 Y8.7947
G01 X47.6499 Y8.7839
G01 X47.6571 Y8.7780
G01 X47.6719 Y8.7671
G01 X47.6917 Y8.7552
G01 X47.7126 Y8.7454
G01 X47.7299 Y8.7391
G01 X47.7365 Y8.7370
G01 X47.7521 Y8.7330
G01 X47.7612 Y8.7312
G01 X47.7795 Y8.7286
G01 X47.8025 Y8.7275
G01 X48.0825 Y8.7275
G01 X48.1055 Y8.7286
G01 X48.1283 Y8.7320
G01 X48.1507 Y8.7376
G01 X48.1724 Y8.7454
G01 X48.1933 Y8.7552
G01 X48.2131 Y8.7671
G01 X48.2316 Y8.7808
G01 X48.2487 Y8.7963
G01 X48.2642 Y8.8134
G01 X48.2792 Y8.8339
G01 X48.2886 Y8.8497
G01 X48.2918 Y8.8559
G01 X48.2996 Y8.8726
G01 X48.3059 Y8.8899
G01 X48.3080 Y8.8965
G01 X48.3130 Y8.9167
G01 X48.3164 Y8.9395
G01 X48.3175 Y8.9625
G01 X48.3175 Y9.2317
G01 X48.4270 Y9.3412
G01 X48.4383 Y9.3538
G01 X48.4470 Y9.3653
G01 X48.4509 Y9.3711
G01 X48.4595 Y9.3856
G01 X48.4686 Y9.4050
G01 X48.4742 Y9.4209
G01 X48.4778 Y9.4349
G01 X48.4792 Y9.4417
G01 X48.4816 Y9.4584
G01 X48.4825 Y9.4775
G01 X48.4826 Y10.7325
G01 X48.8875 Y10.7325
G01 X48.8945 Y10.7328
G01 X48.9014 Y10.7335
G01 X48.9083 Y10.7348
G01 X48.9151 Y10.7366
G01 X48.9217 Y10.7389
G01 X48.9281 Y10.7416
G01 X48.9343 Y10.7448
G01 X48.9403 Y10.7485
G01 X48.9459 Y10.7526
G01 X48.9530 Y10.7587
G01 X48.9579 Y10.7637
G01 X48.9624 Y10.7691
G01 X48.9678 Y10.7767
G01 X48.9713 Y10.7827
G01 X48.9743 Y10.7890
G01 X48.9769 Y10.7955
G01 X48.9791 Y10.8022
G01 X48.9807 Y10.8090
G01 X48.9820 Y10.8182
G01 X48.9825 Y10.8275
G01 X48.9825 Y12.2298
G01 X48.9815 Y12.2414
G01 X48.9791 Y12.2528
G01 X48.9753 Y12.2639
G01 X48.9702 Y12.2743
G01 X48.9638 Y12.2841
G01 X48.9563 Y12.2930
G01 X48.9478 Y12.3009
G01 X48.9383 Y12.3078
G01 X48.9323 Y12.3113
G01 X48.9260 Y12.3143
G01 X48.9195 Y12.3169
G01 X48.9128 Y12.3191
G01 X48.9060 Y12.3207
G01 X48.8991 Y12.3218
G01 X48.8875 Y12.3225
G01 X47.6875 Y12.3225
G01 X47.6782 Y12.3220
G01 X47.6690 Y12.3207
G01 X47.6599 Y12.3184
G01 X47.6511 Y12.3153
G01 X47.6427 Y12.3113
G01 X47.6347 Y12.3065
G01 X47.6272 Y12.3009
G01 X47.6203 Y12.2947
G01 X47.6141 Y12.2878
G01 X47.6098 Y12.2822
G01 X47.6048 Y12.2743
G01 X47.6007 Y12.2660
G01 X47.5973 Y12.2573
G01 X47.5948 Y12.2483
G01 X47.5932 Y12.2391
G01 X47.5925 Y12.2298
G01 X47.5925 Y11.0083
G01 X47.3490 Y10.7648
G01 X47.3377 Y10.7522
G01 X47.3290 Y10.7407
G01 X47.3251 Y10.7349
G01 X47.3171 Y10.7215
G01 X45.8815 Y10.7216
G01 X45.8806 Y10.7376
G01 X45.8778 Y10.7566
G01 X45.8732 Y10.7751
G01 X45.8667 Y10.7931
G01 X45.8585 Y10.8104
G01 X45.8487 Y10.8269
G01 X45.8373 Y10.8422
G01 X45.8260 Y10.8548
G01 X44.0304 Y12.6504
G01 X44.0180 Y12.6618
G01 X44.0126 Y12.6661
G01 X44.0009 Y12.6747
G01 X43.9844 Y12.6845
G01 X43.9650 Y12.6936
G01 X43.9513 Y12.6984
G01 X43.9446 Y12.7004
G01 X43.9306 Y12.7038
G01 X43.9162 Y12.7060
G01 X43.9093 Y12.7068
G01 X43.8948 Y12.7075
G01 X42.8625 Y12.7075
G01 X42.8506 Y12.7070
G01 X42.8388 Y12.7055
G01 X42.8297 Y12.7037
G01 X42.8182 Y12.7006
G01 X42.8027 Y12.6946
G01 X42.7941 Y12.6904
G01 X42.7859 Y12.6856
G01 X42.7723 Y12.6760
G01 X42.7616 Y12.6667
G01 X42.7504 Y12.6545
G01 X42.7419 Y12.6431
G01 X42.7346 Y12.6309
G01 X42.7277 Y12.6158
G01 X42.7237 Y12.6046
G01 X42.7208 Y12.5931
G01 X42.7188 Y12.5813
G01 X42.7179 Y12.5721
G01 X42.7175 Y12.5625
G01 X42.7175 Y12.4625
G01 X42.7185 Y12.4460
G01 X42.7203 Y12.4342
G01 X42.7237 Y12.4204
G01 X42.7285 Y12.4070
G01 X42.7346 Y12.3941
G01 X42.7419 Y12.3819
G01 X42.7490 Y12.3723
G01 X42.7583 Y12.3616
G01 X42.7670 Y12.3535
G01 X42.7781 Y12.3446
G01 X42.7859 Y12.3394
G01 X42.7962 Y12.3335
G01 X42.8092 Y12.3277
G01 X42.8204 Y12.3237
G01 X42.8342 Y12.3203
G01 X42.8483 Y12.3182
G01 X42.8625 Y12.3175
G00 Z2.0000
G00 X42.8625 Y12.7175
G01 F60.00
G01 Z-0.0500
G01 F120.00
G01 X44.8325 Y12.7174
G01 X44.8325 Y12.6802
G01 X44.8333 Y12.6646
G01 X44.8339 Y12.6576
G01 X44.8369 Y12.6376
G01 X44.8424 Y12.6157
G01 X44.8483 Y12.5988
G01 X44.8519 Y12.5902
G01 X44.8608 Y12.5720
G01 X44.8713 Y12.5547
G01 X44.8847 Y12.5366
G01 X44.8999 Y12.5199
G01 X44.9131 Y12.5078
G01 X44.9184 Y12.5033
G01 X44.9309 Y12.4939
G01 X44.9387 Y12.4888
G01 X44.9541 Y12.4797
G01 X44.9745 Y12.4700
G01 X44.9957 Y12.4624
G01 X45.0176 Y12.4569
G01 X45.0400 Y12.4536
G01 X45.0602 Y12.4525
G01 X45.4325 Y12.4525
G01 X45.4550 Y12.4536
G01 X45.4751 Y12.4565
G01 X45.4819 Y12.4579
G01 X45.4993 Y12.4624
G01 X45.5205 Y12.4700
G01 X45.5389 Y12.4786
G01 X45.5450 Y12.4820
G01 X45.5603 Y12.4913
G01 X45.5747 Y12.5018
G01 X45.5802 Y12.5062
G01 X45.5951 Y12.5199
G01 X45.6088 Y12.5348
G01 X45.6132 Y12.5403
G01 X45.6237 Y12.5547
G01 X45.6342 Y12.5720
G01 X45.6431 Y12.5902
G01 X45.6459 Y12.5966
G01 X45.6526 Y12.6157
G01 X45.6581 Y12.6376
G01 X45.6614 Y12.6600
G01 X45.6624 Y12.6778
G01 X45.6625 Y12.9525
G01 X45.6614 Y12.9750
G01 X45.6581 Y12.9974
G01 X45.6526 Y13.0193
G01 X45.6450 Y13.0405
G01 X45.6374 Y13.0568
G01 X45.6342 Y13.0630
G01 X45.6262 Y13.0763
G01 X45.6211 Y13.0841
G01 X45.6088 Y13.1002
G01 X45.5968 Y13.1135
G01 X45.5918 Y13.1183
G01 X45.5784 Y13.1303
G01 X45.5603 Y13.1437
G01 X45.5409 Y13.1553
G01 X45.5205 Y13.1650
G01 X45.4993 Y13.1726
G01 X45.4774 Y13.1781
G01 X45.4550 Y13.1814
G01 X45.4372 Y13.1824
G01 X45.0625 Y13.1825
G01 X45.0423 Y13.1816
G01 X45.0353 Y13.1808
G01 X45.0176 Y13.1781
G01 X44.9957 Y13.1726
G01 X44.9745 Y13.1650
G01 X44.9561 Y13.1564
G01 X44.9347 Y13.1437
G01 X44.9184 Y13.1317
G01 X44.9015 Y13.1168
G01 X44.8928 Y13.1075
G01 X42.8625 Y13.1075
G01 X42.8483 Y13.1068
G01 X42.8319 Y13.1042
G01 X42.8160 Y13.0998
G01 X42.8070 Y13.0965
G01 X42.7962 Y13.0915
G01 X42.7819 Y13.0831
G01 X42.7687 Y13.0731
G01 X42.7568 Y13.0617
G01 X42.7504 Y13.0545
G01 X42.7433 Y13.0450
G01 X42.7346 Y13.0309
G01 X42.7285 Y13.0180
G01 X42.7237 Y13.0046
G01 X42.7203 Y12.9908
G01 X42.7182 Y12.9767
G01 X42.7175 Y12.9625
G01 X42.7175 Y12.8602
G01 X42.7182 Y12.8483
G01 X42.7203 Y12.8342
G01 X42.7237 Y12.8204
G01 X42.7285 Y12.8070
G01 X42.7346 Y12.7941
G01 X42.7419 Y12.7819
G01 X42.7504 Y12.7705
G01 X42.7600 Y12.7600
G01 X42.7705 Y12.7504
G01 X42.7819 Y12.7419
G01 X42.7941 Y12.7346
G01 X42.8070 Y12.7285
G01 X42.8204 Y12.7237
G01 X42.8342 Y12.7203
G01 X42.8483 Y12.7182
G01 X42.8625 Y12.7175
G00 Z2.0000
G00 X42.8625 Y13.9175
G01 F60.00
G01 Z-0.0500
G01 F120.00
G01 X43.6375 Y13.9175
G01 X43.6494 Y13.9180
G01 X43.6563 Y13.9188
G01 X43.6681 Y13.9208
G01 X43.6796 Y13.9237
G01 X43.6951 Y13.9295
G01 X43.7099 Y13.9369
G01 X43.7181 Y13.9419
G01 X43.7258 Y13.9475
G01 X43.7384 Y13.9583
G01 X43.7496 Y13.9705
G01 X43.7593 Y13.9839
G01 X43.7675 Y13.9983
G01 X43.7715 Y14.0070
G01 X43.7748 Y14.0160
G01 X43.7775 Y14.0249
G01 X43.7801 Y14.0365
G01 X43.7818 Y14.0483
G01 X43.7825 Y14.0625
G01 X43.7824 Y14.1672
G01 X43.7818 Y14.1767
G01 X43.7801 Y14.1885
G01 X43.7763 Y14.2046
G01 X43.7723 Y14.2158
G01 X43.7675 Y14.2267
G01 X43.7643 Y14.2329
G01 X43.7581 Y14.2431
G01 X43.7510 Y14.2527
G01 X43.7432 Y14.2617
G01 X43.7384 Y14.2667
G01 X43.7295 Y14.2746
G01 X43.7200 Y14.2817
G01 X43.7141 Y14.2856
G01 X43.7038 Y14.2915
G01 X43.6930 Y14.2965
G01 X43.6818 Y14.3006
G01 X43.6751 Y14.3025
G01 X43.6635 Y14.3051
G01 X43.6517 Y14.3068
G01 X43.6375 Y14.3075
G01 X42.8625 Y14.3075
G01 X42.8506 Y14.3070
G01 X42.8437 Y14.3062
G01 X42.8319 Y14.3042
G01 X42.8204 Y14.3013
G01 X42.8070 Y14.2965
G01 X42.7921 Y14.2893
G01 X42.7781 Y14.2804
G01 X42.7705 Y14.2746
G01 X42.7633 Y14.2682
G01 X42.7519 Y14.2563
G01 X42.7433 Y14.2450
G01 X42.7346 Y14.2309
G01 X42.7285 Y14.2180
G01 X42.7237 Y14.2046
G01 X42.7208 Y14.1931
G01 X42.7188 Y14.1813
G01 X42.7179 Y14.1721
G01 X42.7175 Y14.1625
G01 X42.7175 Y14.0625
G01 X42.7182 Y14.0483
G01 X42.7203 Y14.0342
G01 X42.7237 Y14.0204
G01 X42.7285 Y14.0070
G01 X42.7335 Y13.9962
G01 X42.7407 Y13.9839
G01 X42.7475 Y13.9742
G01 X42.7568 Y13.9633
G01 X42.7633 Y13.9568
G01 X42.7723 Y13.9490
G01 X42.7839 Y13.9407
G01 X42.7962 Y13.9335
G01 X42.8092 Y13.9277
G01 X42.8204 Y13.9237
G01 X42.8342 Y13.9203
G01 X42.8483 Y13.9182
G01 X42.8625 Y13.9175
G00 Z2.0000
G00 X42.8625 Y14.3175
G01 F60.00
G01 Z-0.0500
G01 F120.00
G01 X43.6375 Y14.3175
G01 X43.6494 Y14.3180
G01 X43.6563 Y14.3188
G01 X43.6681 Y14.3208
G01 X43.6796 Y14.3237
G01 X43.6951 Y14.3295
G01 X43.7099 Y14.3369
G01 X43.7181 Y14.3419
G01 X43.7258 Y14.3475
G01 X43.7384 Y14.3583
G01 X43.7496 Y14.3705
G01 X43.7593 Y14.3839
G01 X43.7675 Y14.3983
G01 X43.7715 Y14.4070
G01 X43.7748 Y14.4160
G01 X43.7775 Y14.4249
G01 X43.7801 Y14.4365
G01 X43.7818 Y14.4483
G01 X43.7825 Y14.4625
G01 X43.7824 Y14.5672
G01 X43.7818 Y14.5767
G01 X43.7801 Y14.5885
G01 X43.7763 Y14.6046
G01 X43.7723 Y14.6158
G01 X43.7675 Y14.6267
G01 X43.7643 Y14.6329
G01 X43.7581 Y14.6431
G01 X43.7510 Y14.6527
G01 X43.7432 Y14.6617
G01 X43.7384 Y14.6667
G01 X43.7295 Y14.6746
G01 X43.7200 Y14.6817
G01 X43.7141 Y14.6856
G01 X43.7038 Y14.6915
G01 X43.6930 Y14.6965
G01 X43.6818 Y14.7006
G01 X43.6751 Y14.7025
G01 X43.6635 Y14.7051
G01 X43.6517 Y14.7068
G01 X43.6375 Y14.7075
G01 X42.8625 Y14.7075
G01 X42.8506 Y14.7070
G01 X42.8437 Y14.7062
G01 X42.8319 Y14.7042
G01 X42.8204 Y14.7013
G01 X42.8070 Y14.6965
G01 X42.7921 Y14.6893
G01 X42.7781 Y14.6804
G01 X42.7705 Y14.6746
G01 X42.7633 Y14.6682
G01 X42.7519 Y14.6563
G01 X42.7433 Y14.6450
G01 X42.7346 Y14.6309
G01 X42.7285 Y14.6180
G01 X42.7237 Y14.6046
G01 X42.7208 Y14.5931
G01 X42.7188 Y14.5813
G01 X42.7179 Y14.5721
G01 X42.7175 Y14.5625
G01 X42.7175 Y14.4625
G01 X42.7182 Y14.4483
G01 X42.7203 Y14.4342
G01 X42.7237 Y14.4204
G01 X42.7285 Y14.4070
G01 X42.7335 Y14.3962
G01 X42.7407 Y14.3839
G01 X42.7475 Y14.3742
G01 X42.7568 Y14.3633
G01 X42.7633 Y14.3568
G01 X42.7723 Y14.3490
G01 X42.7839 Y14.3407
G01 X42.7962 Y14.3335
G01 X42.8092 Y14.3277
G01 X42.8204 Y14.3237
G01 X42.8342 Y14.3203
G01 X42.8483 Y14.3182
G01 X42.8625 Y14.3175
G00 Z2.0000
G00 X42.3625 Y16.0175
G01 F60.00
G01 Z-0.0500
G01 F120.00
G01 X42.3483 Y16.0182
G01 X42.3342 Y16.0203
G01 X42.3204 Y16.0237
G01 X42.3092 Y16.0277
G01 X42.2962 Y16.0335
G01 X42.2859 Y16.0394
G01 X42.2781 Y16.0446
G01 X42.2670 Y16.0535
G01 X42.2583 Y16.0616
G01 X42.2490 Y16.0723
G01 X42.2419 Y16.0819
G01 X42.2346 Y16.0941
G01 X42.2285 Y16.1070
G01 X42.2237 Y16.1204
G01 X42.2203 Y16.1342
G01 X42.2185 Y16.1460
G01 X42.2175 Y16.1625
G01 X42.2175 Y16.9398
G01 X42.2182 Y16.9517
G01 X42.2195 Y16.9612
G01 X42.2208 Y16.9681
G01 X42.2237 Y16.9796
G01 X42.2295 Y16.9951
G01 X42.2346 Y17.0059
G01 X42.2394 Y17.0141
G01 X42.2446 Y17.0219
G01 X42.2535 Y17.0330
G01 X42.2616 Y17.0417
G01 X42.2723 Y17.0510
G01 X42.2819 Y17.0581
G01 X42.2941 Y17.0654
G01 X42.3070 Y17.0715
G01 X42.3204 Y17.0763
G01 X42.3365 Y17.0801
G01 X42.3483 Y17.0818
G01 X42.3578 Y17.0824
G01 X42.4672 Y17.0824
G01 X42.4767 Y17.0818
G01 X42.4885 Y17.0801
G01 X42.5001 Y17.0775
G01 X42.5068 Y17.0756
G01 X42.5180 Y17.0715
G01 X42.5267 Y17.0675
G01 X42.5329 Y17.0643
G01 X42.5431 Y17.0581
G01 X42.5527 Y17.0510
G01 X42.5580 Y17.0465
G01 X42.5650 Y17.0400
G01 X42.5731 Y17.0313
G01 X42.5804 Y17.0219
G01 X42.5843 Y17.0161
G01 X42.5904 Y17.0059
G01 X42.5946 Y16.9973
G01 X42.6006 Y16.9818
G01 X42.6042 Y16.9681
G01 X42.6065 Y16.9540
G01 X42.6075 Y16.9398
G01 X42.6075 Y16.2270
G01 X43.5775 Y17.1969
G01 X43.5775 Y18.0039
G01 X43.5567 Y18.0070
G01 X43.5321 Y18.0133
G01 X43.5104 Y18.0213
G01 X43.4938 Y18.0292
G01 X43.4878 Y18.0325
G01 X41.3658 Y18.0325
G01 X41.3624 Y18.0193
G01 X41.3555 Y17.9997
G01 X41.3458 Y17.9788
G01 X41.3329 Y17.9569
G01 X41.3206 Y17.9402
G01 X41.3037 Y17.9213
G01 X41.2866 Y17.9058
G01 X41.2681 Y17.8921
G01 X41.2462 Y17.8792
G01 X41.2274 Y17.8704
G01 X41.2057 Y17.8626
G01 X41.1833 Y17.8570
G01 X41.1629 Y17.8539
G01 X41.1375 Y17.8525
G01 X41.0076 Y17.8525
G01 X41.0075 Y16.1933
G01 X41.0175 Y16.1833
G01 X41.0175 Y16.9375
G01 X41.0180 Y16.9494
G01 X41.0195 Y16.9612
G01 X41.0213 Y16.9703
G01 X41.0244 Y16.9818
G01 X41.0304 Y16.9973
G01 X41.0346 Y17.0059
G01 X41.0394 Y17.0141
G01 X41.0490 Y17.0277
G01 X41.0600 Y17.0400
G01 X41.0723 Y17.0510
G01 X41.0859 Y17.0606
G01 X41.0941 Y17.0654
G01 X41.1027 Y17.0696
G01 X41.1182 Y17.0756
G01 X41.1297 Y17.0787
G01 X41.1388 Y17.0805
G01 X41.1506 Y17.0820
G01 X41.1625 Y17.0825
G01 X41.2672 Y17.0824
G01 X41.2767 Y17.0818
G01 X41.2885 Y17.0801
G01 X41.3001 Y17.0775
G01 X41.3068 Y17.0756
G01 X41.3180 Y17.0715
G01 X41.3267 Y17.0675
G01 X41.3329 Y17.0643
G01 X41.3431 Y17.0581
G01 X41.3527 Y17.0510
G01 X41.3617 Y17.0432
G01 X41.3667 Y17.0384
G01 X41.3746 Y17.0295
G01 X41.3817 Y17.0200
G01 X41.3856 Y17.0141
G01 X41.3915 Y17.0038
G01 X41.3965 Y16.9930
G01 X41.4006 Y16.9818
G01 X41.4025 Y16.9751
G01 X41.4051 Y16.9635
G01 X41.4068 Y16.9517
G01 X41.4075 Y16.9375
G01 X41.4075 Y16.1625
G01 X41.4065 Y16.1460
G01 X41.4037 Y16.1297
G01 X41.4013 Y16.1204
G01 X41.3981 Y16.1114
G01 X41.3915 Y16.0962
G01 X41.3831 Y16.0819
G01 X41.3731 Y16.0687
G01 X41.3617 Y16.0568
G01 X41.3545 Y16.0504
G01 X41.3469 Y16.0446
G01 X41.3329 Y16.0357
G01 X41.3201 Y16.0295
G01 X41.3068 Y16.0244
G01 X41.2931 Y16.0208
G01 X41.2790 Y16.0185
G01 X41.2625 Y16.0175
G01 X41.1833 Y16.0175
G01 X42.0933 Y15.1075
G01 X42.4166 Y15.1075
G01 X42.4165 Y15.9551
G01 X42.4174 Y15.9743
G01 X42.4198 Y15.9909
G01 X42.4236 Y16.0073
G01 X42.4268 Y16.0175
G01 X42.3625 Y16.0175
G00 Z2.0000
G00 X41.9625 Y16.0175
G01 F60.00
G01 Z-0.0500
G01 F120.00
G01 X42.0625 Y16.0175
G01 X42.0767 Y16.0182
G01 X42.0908 Y16.0203
G01 X42.1046 Y16.0237
G01 X42.1180 Y16.0285
G01 X42.1309 Y16.0346
G01 X42.1450 Y16.0433
G01 X42.1545 Y16.0504
G01 X42.1617 Y16.0568
G01 X42.1731 Y16.0687
G01 X42.1831 Y16.0819
G01 X42.1915 Y16.0962
G01 X42.1965 Y16.1070
G01 X42.1998 Y16.1160
G01 X42.2042 Y16.1319
G01 X42.2068 Y16.1483
G01 X42.2075 Y16.1625
G01 X42.2075 Y16.9375
G01 X42.2070 Y16.9494
G01 X42.2062 Y16.9563
G01 X42.2042 Y16.9681
G01 X42.2013 Y16.9796
G01 X42.1965 Y16.9930
G01 X42.1915 Y17.0038
G01 X42.1856 Y17.0141
G01 X42.1804 Y17.0219
G01 X42.1731 Y17.0313
G01 X42.1634 Y17.0417
G01 X42.1545 Y17.0496
G01 X42.1431 Y17.0581
G01 X42.1329 Y17.0643
G01 X42.1223 Y17.0696
G01 X42.1136 Y17.0731
G01 X42.1024 Y17.0769
G01 X42.0908 Y17.0797
G01 X42.0767 Y17.0818
G01 X42.0625 Y17.0825
G01 X41.9625 Y17.0825
G01 X41.9506 Y17.0820
G01 X41.9365 Y17.0801
G01 X41.9226 Y17.0769
G01 X41.9092 Y17.0723
G01 X41.8962 Y17.0665
G01 X41.8819 Y17.0581
G01 X41.8723 Y17.0510
G01 X41.8670 Y17.0465
G01 X41.8600 Y17.0400
G01 X41.8519 Y17.0313
G01 X41.8419 Y17.0181
G01 X41.8335 Y17.0038
G01 X41.8285 Y16.9930
G01 X41.8252 Y16.9840
G01 X41.8208 Y16.9681
G01 X41.8182 Y16.9517
G01 X41.8175 Y16.9375
G01 X41.8175 Y16.1625
G01 X41.8180 Y16.1506
G01 X41.8195 Y16.1388
G01 X41.8225 Y16.1249
G01 X41.8252 Y16.1160
G01 X41.8295 Y16.1049
G01 X41.8357 Y16.0921
G01 X41.8419 Y16.0819
G01 X41.8504 Y16.0705
G01 X41.8600 Y16.0600
G01 X41.8687 Y16.0519
G01 X41.8800 Y16.0433
G01 X41.8901 Y16.0369
G01 X41.9027 Y16.0304
G01 X41.9114 Y16.0269
G01 X41.9226 Y16.0231
G01 X41.9365 Y16.0199
G01 X41.9483 Y16.0182
G01 X41.9625 Y16.0175
G00 Z2.0000
G00 X41.5625 Y16.0175
G01 F60.00
G01 Z-0.0500
G01 F120.00
G01 X41.6625 Y16.0175
G01 X41.6767 Y16.0182
G01 X41.6908 Y16.0203
G01 X41.7046 Y16.0237
G01 X41.7180 Y16.0285
G01 X41.7309 Y16.0346
G01 X41.7450 Y16.0433
G01 X41.7545 Y16.0504
G01 X41.7617 Y16.0568
G01 X41.7731 Y16.0687
G01 X41.7831 Y16.0819
G01 X41.7915 Y16.0962
G01 X41.7965 Y16.1070
G01 X41.7998 Y16.1160
G01 X41.8042 Y16.1319
G01 X41.8068 Y16.1483
G01 X41.8075 Y16.1625
G01 X41.8075 Y16.9375
G01 X41.8070 Y16.9494
G01 X41.8062 Y16.9563
G01 X41.8042 Y16.9681
G01 X41.8013 Y16.9796
G01 X41.7965 Y16.9930
G01 X41.7915 Y17.0038
G01 X41.7856 Y17.0141
G01 X41.7804 Y17.0219
G01 X41.7731 Y17.0313
G01 X41.7634 Y17.0417
G01 X41.7545 Y17.0496
G01 X41.7431 Y17.0581
G01 X41.7329 Y17.0643
G01 X41.7223 Y17.0696
G01 X41.7136 Y17.0731
G01 X41.7024 Y17.0769
G01 X41.6908 Y17.0797
G01 X41.6767 Y17.0818
G01 X41.6625 Y17.0825
G01 X41.5625 Y17.0825
G01 X41.5506 Y17.0820
G01 X41.5365 Y17.0801
G01 X41.5226 Y17.0769
G01 X41.5092 Y17.0723
G01 X41.4962 Y17.0665
G01 X41.4819 Y17.0581
G01 X41.4723 Y17.0510
G01 X41.4670 Y17.0465
G01 X41.4600 Y17.0400
G01 X41.4519 Y17.0313
G01 X41.4419 Y17.0181
G01 X41.4335 Y17.0038
G01 X41.4285 Y16.9930
G01 X41.4252 Y16.9840
G01 X41.4208 Y16.9681
G01 X41.4182 Y16.9517
G01 X41.4175 Y16.9375
G01 X41.4175 Y16.1625
G01 X41.4180 Y16.1506
G01 X41.4195 Y16.1388
G01 X41.4225 Y16.1249
G01 X41.4252 Y16.1160
G01 X41.4295 Y16.1049
G01 X41.4357 Y16.0921
G01 X41.4419 Y16.0819
G01 X41.4504 Y16.0705
G01 X41.4600 Y16.0600
G01 X41.4687 Y16.0519
G01 X41.4800 Y16.0433
G01 X41.4901 Y16.0369
G01 X41.5027 Y16.0304
G01 X41.5114 Y16.0269
G01 X41.5226 Y16.0231
G01 X41.5365 Y16.0199
G01 X41.5483 Y16.0182
G01 X41.5625 Y16.0175
G00 Z2.0000
G00 X41.3125 Y19.5325
G01 F60.00
G01 Z-0.0500
G01 F120.00
G01 X41.6455 Y19.5325
G01 X41.6417 Y19.5457
G01 X41.5716 Y19.6642
G01 X41.4742 Y19.7616
G01 X41.3557 Y19.8317
G01 X41.3125 Y19.8442
G01 X41.3125 Y19.5325
G00 Z2.0000
G00 X43.4275 Y19.6825
G01 F60.00
G01 Z-0.0500
G01 F120.00
G01 X43.4275 Y19.9942
G01 X43.3843 Y19.9817
G01 X43.2658 Y19.9116
G01 X43.1684 Y19.8142
G01 X43.0983 Y19.6957
G01 X43.0945 Y19.6825
G01 X43.4275 Y19.6825
G00 Z2.0000
G00 X44.1175 Y19.6825
G01 F60.00
G01 Z-0.0500
G01 F120.00
G01 X44.4505 Y19.6825
G01 X44.4467 Y19.6957
G01 X44.3766 Y19.8142
G01 X44.2792 Y19.9116
G01 X44.1607 Y19.9817
G01 X44.1175 Y19.9942
G01 X44.1175 Y19.6825
G00 Z2.0000
G00 X48.2775 Y16.1825
G01 F60.00
G01 Z-0.0500
G01 F120.00
G01 X48.5892 Y16.1825
G01 X48.5767 Y16.2257
G01 X48.5066 Y16.3442
G01 X48.4092 Y16.4416
G01 X48.2907 Y16.5117
G01 X48.2775 Y16.5155
G01 X48.2775 Y16.1825
G00 Z2.0000
G00 X45.5871 Y13.5325
G01 F60.00
G01 Z-0.0500
G01 F120.00
G01 X45.8925 Y13.5324
G01 X45.8925 Y13.0275
G01 X45.8930 Y13.0182
G01 X45.8948 Y13.0067
G01 X45.8966 Y12.9999
G01 X45.8989 Y12.9933
G01 X45.9016 Y12.9869
G01 X45.9048 Y12.9807
G01 X45.9085 Y12.9747
G01 X45.9126 Y12.9691
G01 X45.9171 Y12.9637
G01 X45.9220 Y12.9587
G01 X45.9272 Y12.9541
G01 X45.9328 Y12.9498
G01 X45.9387 Y12.9460
G01 X45.9448 Y12.9426
G01 X45.9511 Y12.9397
G01 X45.9577 Y12.9373
G01 X45.9644 Y12.9353
G01 X45.9713 Y12.9339
G01 X45.9782 Y12.9330
G01 X45.9875 Y12.9325
G01 X47.1898 Y12.9325
G01 X47.2014 Y12.9335
G01 X47.2128 Y12.9359
G01 X47.2239 Y12.9397
G01 X47.2343 Y12.9448
G01 X47.2441 Y12.9512
G01 X47.2530 Y12.9587
G01 X47.2609 Y12.9672
G01 X47.2678 Y12.9767
G01 X47.2713 Y12.9827
G01 X47.2743 Y12.9890
G01 X47.2769 Y12.9955
G01 X47.2791 Y13.0022
G01 X47.2815 Y13.0136
G01 X47.2822 Y13.0205
G01 X47.2825 Y13.0275
G01 X47.2825 Y14.4275
G01 X47.2822 Y14.4345
G01 X47.2815 Y14.4414
G01 X47.2802 Y14.4483
G01 X47.2784 Y14.4551
G01 X47.2761 Y14.4617
G01 X47.2734 Y14.4681
G01 X47.2702 Y14.4743
G01 X47.2665 Y14.4803
G01 X47.2624 Y14.4859
G01 X47.2579 Y14.4913
G01 X47.2496 Y14.4994
G01 X47.2441 Y14.5038
G01 X47.2383 Y14.5078
G01 X47.2281 Y14.5134
G01 X47.2217 Y14.5161
G01 X47.2151 Y14.5184
G01 X47.2083 Y14.5202
G01 X47.2014 Y14.5215
G01 X47.1945 Y14.5222
G01 X47.1875 Y14.5225
G01 X46.7825 Y14.5225
G01 X46.7825 Y15.3717
G01 X46.8433 Y15.4325
G01 X47.1125 Y15.4325
G01 X47.1309 Y15.4333
G01 X47.1379 Y15.4339
G01 X47.1538 Y15.4362
G01 X47.1629 Y15.4380
G01 X47.1807 Y15.4426
G01 X47.2024 Y15.4504
G01 X47.2233 Y15.4602
G01 X47.2411 Y15.4708
G01 X47.2469 Y15.4748
G01 X47.2598 Y15.4844
G01 X47.2651 Y15.4889
G01 X47.2787 Y15.5013
G01 X47.2911 Y15.5149
G01 X47.2956 Y15.5202
G01 X47.3079 Y15.5369
G01 X47.3198 Y15.5567
G01 X47.3296 Y15.5776
G01 X47.3380 Y15.6015
G01 X47.3425 Y15.6194
G01 X47.3438 Y15.6262
G01 X47.3464 Y15.6445
G01 X47.3475 Y15.6652
G01 X47.3475 Y16.0075
G01 X47.3464 Y16.0305
G01 X47.3438 Y16.0488
G01 X47.3425 Y16.0556
G01 X47.3374 Y16.0757
G01 X47.3296 Y16.0974
G01 X47.3198 Y16.1183
G01 X47.3079 Y16.1381
G01 X47.2942 Y16.1566
G01 X47.2787 Y16.1737
G01 X47.2616 Y16.1892
G01 X47.2411 Y16.2042
G01 X47.2253 Y16.2136
G01 X47.2191 Y16.2168
G01 X47.2024 Y16.2246
G01 X47.1851 Y16.2309
G01 X47.1785 Y16.2330
G01 X47.1583 Y16.2380
G01 X47.1332 Y16.2416
G01 X47.1125 Y16.2425
G01 X46.8325 Y16.2425
G01 X46.8071 Y16.2411
G01 X46.7889 Y16.2384
G01 X46.7821 Y16.2370
G01 X46.7643 Y16.2324
G01 X46.7469 Y16.2263
G01 X46.7404 Y16.2237
G01 X46.7217 Y16.2148
G01 X46.7019 Y16.2029
G01 X46.6834 Y16.1892
G01 X46.6680 Y16.1753
G01 X46.6631 Y16.1703
G01 X46.6523 Y16.1584
G01 X46.6480 Y16.1529
G01 X46.6371 Y16.1381
G01 X46.6275 Y16.1223
G01 X46.6242 Y16.1162
G01 X46.6154 Y16.0974
G01 X46.6076 Y16.0757
G01 X46.6020 Y16.0533
G01 X46.5984 Y16.0282
G01 X46.5975 Y16.0075
G01 X46.5975 Y15.7383
G01 X46.4496 Y15.5904
G01 X46.4353 Y15.5744
G01 X46.4253 Y15.5609
G01 X46.4178 Y15.5485
G01 X46.4144 Y15.5424
G01 X46.4073 Y15.5271
G01 X46.4016 Y15.5113
G01 X46.3996 Y15.5046
G01 X46.3962 Y15.4906
G01 X46.3940 Y15.4762
G01 X46.3932 Y15.4693
G01 X46.3925 Y15.4525
G01 X46.3924 Y14.5225
G01 X45.9875 Y14.5225
G01 X45.9805 Y14.5222
G01 X45.9690 Y14.5207
G01 X45.9599 Y14.5184
G01 X45.9511 Y14.5153
G01 X45.9427 Y14.5113
G01 X45.9347 Y14.5065
G01 X45.9272 Y14.5009
G01 X45.9203 Y14.4947
G01 X45.9141 Y14.4878
G01 X45.9098 Y14.4822
G01 X45.9060 Y14.4763
G01 X45.9026 Y14.4702
G01 X45.8989 Y14.4617
G01 X45.8959 Y14.4528
G01 X45.8943 Y14.4460
G01 X45.8932 Y14.4391
G01 X45.8926 Y14.4322
G01 X45.8925 Y13.9225
G01 X45.6625 Y13.9226
G01 X45.6625 Y13.9725
G01 X45.6617 Y13.9904
G01 X45.6608 Y13.9997
G01 X45.6576 Y14.0197
G01 X45.6526 Y14.0393
G01 X45.6450 Y14.0605
G01 X45.6353 Y14.0809
G01 X45.6237 Y14.1003
G01 X45.6103 Y14.1184
G01 X45.5951 Y14.1351
G01 X45.5784 Y14.1503
G01 X45.5603 Y14.1637
G01 X45.5409 Y14.1753
G01 X45.5205 Y14.1850
G01 X45.4993 Y14.1926
G01 X45.4751 Y14.1985
G01 X45.4550 Y14.2014
G01 X45.4325 Y14.2025
G01 X45.0625 Y14.2025
G01 X45.0400 Y14.2014
G01 X45.0199 Y14.1985
G01 X44.9957 Y14.1926
G01 X44.9745 Y14.1850
G01 X44.9541 Y14.1753
G01 X44.9347 Y14.1637
G01 X44.9166 Y14.1503
G01 X44.8999 Y14.1351
G01 X44.8847 Y14.1184
G01 X44.8700 Y14.0983
G01 X44.8608 Y14.0830
G01 X44.8576 Y14.0768
G01 X44.8500 Y14.0605
G01 X44.8439 Y14.0437
G01 X44.8418 Y14.0370
G01 X44.8369 Y14.0174
G01 X44.8336 Y13.9950
G01 X44.8325 Y13.9725
G01 X44.8325 Y13.7025
G01 X44.8334 Y13.6823
G01 X44.8369 Y13.6576
G01 X44.8424 Y13.6357
G01 X44.8500 Y13.6145
G01 X44.8597 Y13.5941
G01 X44.8713 Y13.5747
G01 X44.8847 Y13.5566
G01 X44.8999 Y13.5399
G01 X44.9184 Y13.5233
G01 X44.9347 Y13.5113
G01 X44.9500 Y13.5020
G01 X44.9561 Y13.4986
G01 X44.9745 Y13.4900
G01 X44.9957 Y13.4824
G01 X45.0131 Y13.4779
G01 X45.0199 Y13.4765
G01 X45.0400 Y13.4736
G01 X45.0625 Y13.4725
G01 X45.4348 Y13.4725
G01 X45.4550 Y13.4736
G01 X45.4774 Y13.4769
G01 X45.4993 Y13.4824
G01 X45.5184 Y13.4891
G01 X45.5409 Y13.4997
G01 X45.5583 Y13.5100
G01 X45.5766 Y13.5233
G01 X45.5871 Y13.5325
G00 Z2.0000
G00 X46.3258 Y8.7875
G01 F60.00
G01 Z-0.0500
G01 F120.00
G01 X46.3383 Y8.7443
G01 X46.4084 Y8.6258
G01 X46.5058 Y8.5284
G01 X46.6243 Y8.4583
G01 X46.6375 Y8.4545
G01 X46.6375 Y8.7875
G01 X46.3258 Y8.7875
G00 Z2.0000
G00 X41.1175 Y6.1525
G01 F60.00
G01 Z-0.0500
G01 F120.00
G01 X41.1175 Y5.8408
G01 X41.1607 Y5.8533
G01 X41.2792 Y5.9234
G01 X41.3766 Y6.0208
G01 X41.4467 Y6.1393
G01 X41.4505 Y6.1525
G01 X41.1175 Y6.1525
G00 Z2.0000
G00 X40.4275 Y5.8408
G01 F60.00
G01 Z-0.0500
G01 F120.00
G01 X40.4275 Y6.1525
G01 X40.0945 Y6.1525
G01 X40.0983 Y6.1393
G01 X40.1684 Y6.0208
G01 X40.2658 Y5.9234
G01 X40.3843 Y5.8533
G01 X40.4275 Y5.8408
G00 Z2.0000
G00 X35.9875 Y13.1175
G01 F60.00
G01 Z-0.0500
G01 F120.00
G01 X35.9756 Y13.1180
G01 X35.9638 Y13.1195
G01 X35.9569 Y13.1208
G01 X35.9454 Y13.1237
G01 X35.9342 Y13.1277
G01 X35.9277 Y13.1304
G01 X35.9171 Y13.1357
G01 X35.9069 Y13.1419
G01 X35.8973 Y13.1490
G01 X35.8883 Y13.1568
G01 X35.8833 Y13.1616
G01 X35.8754 Y13.1705
G01 X35.8683 Y13.1800
G01 X35.8644 Y13.1859
G01 X35.8585 Y13.1962
G01 X35.8535 Y13.2070
G01 X35.8494 Y13.2182
G01 X35.8463 Y13.2297
G01 X35.8445 Y13.2388
G01 X35.8430 Y13.2506
G01 X35.8425 Y13.2625
G01 X35.8425 Y13.3648
G01 X35.8435 Y13.3790
G01 X35.8463 Y13.3953
G01 X35.8502 Y13.4090
G01 X35.8535 Y13.4180
G01 X35.8575 Y13.4267
G01 X35.8657 Y13.4411
G01 X35.8740 Y13.4527
G01 X35.8850 Y13.4650
G01 X35.8955 Y13.4746
G01 X35.9069 Y13.4831
G01 X35.9191 Y13.4904
G01 X35.9320 Y13.4965
G01 X35.9476 Y13.5019
G01 X35.9592 Y13.5047
G01 X35.9687 Y13.5062
G01 X35.9852 Y13.5075
G01 X36.1800 Y13.5075
G01 X36.1800 Y13.5175
G01 X35.9875 Y13.5175
G01 X35.9733 Y13.5182
G01 X35.9569 Y13.5208
G01 X35.9454 Y13.5237
G01 X35.9364 Y13.5269
G01 X35.9299 Y13.5295
G01 X35.9191 Y13.5346
G01 X35.9051 Y13.5432
G01 X35.8987 Y13.5327
G01 X35.8901 Y13.5210
G01 X35.8858 Y13.5156
G01 X35.8760 Y13.5048
G01 X35.5468 Y13.1756
G01 X35.5344 Y13.1642
G01 X35.5290 Y13.1599
G01 X35.5173 Y13.1513
G01 X35.5029 Y13.1426
G01 X35.4835 Y13.1333
G01 X35.4655 Y13.1268
G01 X35.4447 Y13.1218
G01 X35.4303 Y13.1196
G01 X35.4234 Y13.1190
G01 X35.4089 Y13.1185
G01 X35.1986 Y13.1185
G01 X35.1795 Y13.1194
G01 X35.1628 Y13.1218
G01 X35.1465 Y13.1256
G01 X35.1398 Y13.1276
G01 X35.1240 Y13.1333
G01 X35.1108 Y13.1394
G01 X35.1046 Y13.1426
G01 X35.0902 Y13.1513
G01 X35.0767 Y13.1613
G01 X35.0713 Y13.1658
G01 X35.0607 Y13.1756
G01 X34.7103 Y13.5260
G01 X34.6368 Y13.5261
G01 X34.6200 Y13.5271
G01 X34.6011 Y13.5302
G01 X34.5870 Y13.5337
G01 X34.5804 Y13.5358
G01 X34.5668 Y13.5408
G01 X34.5536 Y13.5469
G01 X34.5474 Y13.5501
G01 X34.5350 Y13.5576
G01 X34.5177 Y13.5702
