(G-CODE GENERATED BY FLATCAM v8.994 - www.flatcam.org - Version Date: 2020/11/7)

(Name: rp2040-literal-bare-minimum-F_Cu.gbr_ncc_cnc)
(Type: G-code from Geometry)
(Units: MM)

(Created on Sunday, 27 July 2025 at 16:36)

(This preprocessor is the default preprocessor used by FlatCAM.)
(It is made to work with MACH3 compatible motion controllers.)

(TOOL DIAMETER: 0.19 mm)
(Feedrate_XY: 120.0 mm/min)
(Feedrate_Z: 60.0 mm/min)
(Feedrate rapids 1500.0 mm/min)

(Z_Cut: -0.05 mm)
(Z_Move: 2.0 mm)
(Z Start: None mm)
(Z End: 15.0 mm)
(X,Y End: None mm)
(Steps per circle: 64)
(Preprocessor Geometry: default)

(X range:    8.0750 ...   49.2930  mm)
(Y range:    1.3975 ...   21.6540  mm)

(Spindle Speed: 15000.0 RPM)
G21
G90
G94

G01 F120.00

M5
G00 Z15.0000
G00 X0.0000 Y0.0000
T1 M6    
(MSG, Change to Tool Dia = 0.1900)
M0
G00 Z15.0000

M03 S15000.0
G01 F120.00
G00 X8.5419 Y3.0076
G01 F60.00
G01 Z-0.0500
G01 F120.00
G01 X8.5180 Y2.9986
G01 X8.4982 Y2.9918
G01 X8.4782 Y2.9855
G01 X8.4580 Y2.9796
G01 X8.4378 Y2.9743
G01 X8.4173 Y2.9694
G01 X8.3968 Y2.9651
G01 X8.3762 Y2.9613
G01 X8.3555 Y2.9579
G01 X8.3347 Y2.9551
G01 X8.3138 Y2.9528
G01 X8.2929 Y2.9510
G01 X8.2720 Y2.9497
G01 X8.2510 Y2.9489
G01 X8.2308 Y2.9487
G01 X8.2762 Y2.8358
G01 X8.3013 Y2.8373
G01 X8.3250 Y2.8393
G01 X8.3486 Y2.8420
G01 X8.3722 Y2.8452
G01 X8.3957 Y2.8489
G01 X8.4190 Y2.8533
G01 X8.4423 Y2.8582
G01 X8.4655 Y2.8637
G01 X8.4885 Y2.8698
G01 X8.5113 Y2.8764
G01 X8.5340 Y2.8836
G01 X8.5565 Y2.8913
G01 X8.5901 Y2.9041
G00 Z2.0000
G00 X8.6403 Y2.8015
G01 F60.00
G01 Z-0.0500
G01 F120.00
G01 X8.6198 Y2.7932
G01 X8.5949 Y2.7840
G01 X8.5697 Y2.7753
G01 X8.5444 Y2.7673
G01 X8.5189 Y2.7599
G01 X8.4932 Y2.7531
G01 X8.4673 Y2.7470
G01 X8.4413 Y2.7415
G01 X8.4152 Y2.7366
G01 X8.3889 Y2.7324
G01 X8.3626 Y2.7288
G01 X8.3294 Y2.7253
G01 X8.3847 Y2.6168
G01 X8.4056 Y2.6196
G01 X8.4346 Y2.6243
G01 X8.4635 Y2.6297
G01 X8.4923 Y2.6358
G01 X8.5209 Y2.6425
G01 X8.5493 Y2.6500
G01 X8.5775 Y2.6582
G01 X8.6055 Y2.6671
G01 X8.6333 Y2.6766
G01 X8.6608 Y2.6869
G01 X8.6995 Y2.7027
G00 Z2.0000
G00 X8.7624 Y2.6056
G01 F60.00
G01 Z-0.0500
G01 F120.00
G01 X8.7317 Y2.5925
G01 X8.7018 Y2.5805
G01 X8.6717 Y2.5693
G01 X8.6412 Y2.5588
G01 X8.6106 Y2.5491
G01 X8.5797 Y2.5402
G01 X8.5486 Y2.5320
G01 X8.5172 Y2.5245
G01 X8.4858 Y2.5179
G01 X8.4509 Y2.5114
G01 X8.5161 Y2.4078
G01 X8.5422 Y2.4133
G01 X8.5763 Y2.4214
G01 X8.6101 Y2.4303
G01 X8.6239 Y2.4343
G01 X8.5035 Y3.1150
G01 X8.4796 Y3.1060
G01 X8.4624 Y3.1001
G01 X8.4276 Y3.0895
G01 X8.3924 Y3.0807
G01 X8.3567 Y3.0736
G01 X8.3387 Y3.0707
G01 X8.3026 Y3.0662
G01 X8.2664 Y3.0636
G01 X8.2300 Y3.0627
G01 X8.2118 Y3.0629
G01 X8.1905 Y3.0638
G01 X8.1550 Y3.1812
G01 X8.1839 Y3.1784
G01 X8.1992 Y3.1774
G01 X8.2300 Y3.1767
G01 X8.2608 Y3.1774
G01 X8.2761 Y3.1784
G01 X8.3068 Y3.1814
G01 X8.3220 Y3.1835
G01 X8.3523 Y3.1887
G01 X8.3824 Y3.1955
G01 X8.4120 Y3.2037
G01 X8.4267 Y3.2083
G01 X8.4412 Y3.2133
G01 X8.4678 Y3.2235
G01 X8.4397 Y3.3355
G01 X8.4263 Y3.3297
G01 X8.4028 Y3.3207
G01 X8.3789 Y3.3128
G01 X8.3668 Y3.3092
G01 X8.3547 Y3.3060
G01 X8.3301 Y3.3005
G01 X8.3053 Y3.2962
G01 X8.2803 Y3.2931
G01 X8.2552 Y3.2913
G01 X8.2426 Y3.2908
G01 X8.2300 Y3.2907
G01 X8.2048 Y3.2913
G01 X8.1797 Y3.2931
G01 X8.1672 Y3.2945
G01 X8.1423 Y3.2982
G01 X8.1276 Y3.3010
G01 X8.1022 Y3.4257
G01 X8.1236 Y3.4191
G01 X8.1426 Y3.4144
G01 X8.1618 Y3.4105
G01 X8.1812 Y3.4077
G01 X8.2007 Y3.4057
G01 X8.2202 Y3.4048
G01 X8.2398 Y3.4048
G01 X8.2594 Y3.4057
G01 X8.2788 Y3.4077
G01 X8.2982 Y3.4105
G01 X8.3174 Y3.4144
G01 X8.3364 Y3.4191
G01 X8.3552 Y3.4248
G01 X8.3736 Y3.4314
G01 X8.3917 Y3.4389
G01 X8.4166 Y3.4510
G00 Z2.0000
G00 X8.3984 Y3.5738
G01 F60.00
G01 Z-0.0500
G01 F120.00
G01 X8.3941 Y3.5707
G01 X8.3883 Y3.5667
G01 X8.3825 Y3.5629
G01 X8.3644 Y3.5523
G01 X8.3455 Y3.5431
G01 X8.3260 Y3.5353
G01 X8.3060 Y3.5290
G01 X8.2856 Y3.5241
G01 X8.2649 Y3.5208
G01 X8.2440 Y3.5190
G01 X8.2230 Y3.5188
G01 X8.2021 Y3.5200
G01 X8.1813 Y3.5229
G01 X8.1608 Y3.5272
G01 X8.1406 Y3.5331
G01 X8.1209 Y3.5404
G01 X8.1019 Y3.5491
G01 X8.0875 Y3.5569
G01 X8.0750 Y3.7315
G01 X8.0812 Y3.7194
G01 X8.0902 Y3.7052
G01 X8.1005 Y3.6920
G01 X8.1121 Y3.6798
G01 X8.1248 Y3.6689
G01 X8.1385 Y3.6592
G01 X8.1531 Y3.6509
G01 X8.1685 Y3.6441
G01 X8.1844 Y3.6389
G01 X8.2008 Y3.6352
G01 X8.2174 Y3.6331
G01 X8.2342 Y3.6327
G01 X8.2509 Y3.6340
G01 X8.2675 Y3.6368
G01 X8.2836 Y3.6413
G01 X8.2993 Y3.6473
G01 X8.3143 Y3.6549
G01 X8.3285 Y3.6639
G01 X8.3417 Y3.6742
G01 X8.3539 Y3.6858
G01 X8.3648 Y3.6985
G01 X8.3745 Y3.7122
G01 X8.3827 Y3.7268
G01 X8.3863 Y3.7344
G01 X8.3880 Y3.7382
G01 X8.3880 Y3.7383
G01 X8.2870 Y3.8037
G01 X8.2866 Y3.7967
G01 X8.2853 Y3.7898
G01 X8.2832 Y3.7832
G01 X8.2803 Y3.7768
G01 X8.2766 Y3.7708
G01 X8.2722 Y3.7654
G01 X8.2672 Y3.7605
G01 X8.2617 Y3.7563
G01 X8.2556 Y3.7528
G01 X8.2492 Y3.7500
G01 X8.2425 Y3.7481
G01 X8.2356 Y3.7469
G01 X8.2286 Y3.7467
G01 X8.2216 Y3.7473
G01 X8.2148 Y3.7487
G01 X8.2082 Y3.7510
G01 X8.2031 Y3.7534
G01 X8.1983 Y3.7563
G01 X8.1938 Y3.7596
G01 X8.1897 Y3.7634
G01 X8.1859 Y3.7675
G01 X8.1826 Y3.7720
G01 X8.1797 Y3.7768
G01 X8.1773 Y3.7819
G01 X8.1755 Y3.7871
G01 X8.1741 Y3.7925
G01 X8.1733 Y3.7981
G01 X8.1730 Y3.8037
G01 X8.1733 Y3.8093
G01 X8.1741 Y3.8148
G01 X8.1755 Y3.8202
G01 X8.1773 Y3.8255
G01 X8.1819 Y3.8342
G01 X8.1878 Y3.8419
G01 X8.1949 Y3.8486
G01 X8.2031 Y3.8539
G01 X8.2121 Y3.8578
G01 X8.2216 Y3.8600
G01 X8.2314 Y3.8606
G01 X8.2411 Y3.8596
G01 X8.2505 Y3.8568
G01 X8.2593 Y3.8526
G01 X8.2672 Y3.8468
G01 X8.2741 Y3.8398
G01 X8.2796 Y3.8318
G01 X8.2837 Y3.8229
G01 X8.2862 Y3.8134
G01 X8.2870 Y3.8037
G01 X8.3881 Y3.8687
G01 X8.3880 Y3.8691
G01 X8.3863 Y3.8730
G01 X8.3846 Y3.8768
G01 X8.3808 Y3.8843
G01 X8.3767 Y3.8916
G01 X8.3698 Y3.9021
G01 X8.3622 Y3.9121
G01 X8.3567 Y3.9185
G01 X8.3509 Y3.9246
G01 X8.3417 Y3.9331
G01 X8.3319 Y3.9410
G01 X8.3250 Y3.9458
G01 X8.3143 Y3.9525
G01 X8.3069 Y3.9564
G01 X8.2954 Y3.9616
G01 X8.2876 Y3.9647
G01 X8.2756 Y3.9685
G01 X8.2675 Y3.9705
G01 X8.2509 Y3.9734
G01 X8.2384 Y3.9745
G01 X8.2216 Y3.9745
G01 X8.2091 Y3.9734
G01 X8.1966 Y3.9714
G01 X8.1804 Y3.9673
G01 X8.1685 Y3.9632
G01 X8.1531 Y3.9564
G01 X8.1421 Y3.9503
G01 X8.1281 Y3.9410
G01 X8.1183 Y3.9331
G01 X8.1062 Y3.9216
G01 X8.0978 Y3.9121
G01 X8.0878 Y3.8987
G01 X8.0812 Y3.8880
G01 X8.0750 Y3.8758
G01 X8.0750 Y3.9376
G01 X8.1052 Y4.2060
G01 X8.1654 Y4.4693
G01 X8.2546 Y4.7243
G01 X8.3718 Y4.9677
G01 X8.5155 Y5.1964
G01 X8.5522 Y5.2424
G01 X8.7764 Y5.0182
G01 X8.7368 Y4.9645
G01 X8.6335 Y4.7921
G01 X8.6303 Y4.7859
G01 X8.5436 Y4.6021
G01 X8.4752 Y4.4106
G01 X8.4263 Y4.2158
G01 X8.4245 Y4.2066
G01 X8.3949 Y4.0055
G01 X8.3850 Y3.8025
G01 X8.3951 Y3.5972
G01 X8.4253 Y3.3938
G01 X8.4746 Y3.1966
G01 X8.4767 Y3.1899
G01 X8.5445 Y3.0008
G01 X8.6313 Y2.8170
G01 X8.7368 Y2.6405
G01 X8.7764 Y2.5868
G01 X8.5522 Y2.3626
G01 X8.5155 Y2.4086
G01 X8.3718 Y2.6373
G01 X8.2546 Y2.8807
G01 X8.1654 Y3.1357
G01 X8.1052 Y3.3990
G01 X8.0750 Y3.6674
G01 X8.0750 Y3.9376
G01 X8.0877 Y4.0506
G01 X8.0895 Y4.0516
G01 X8.0957 Y4.0550
G01 X8.1019 Y4.0582
G01 X8.1209 Y4.0670
G01 X8.1406 Y4.0743
G01 X8.1608 Y4.0801
G01 X8.1813 Y4.0845
G01 X8.2021 Y4.0873
G01 X8.2230 Y4.0886
G01 X8.2440 Y4.0883
G01 X8.2649 Y4.0865
G01 X8.2856 Y4.0832
G01 X8.3060 Y4.0783
G01 X8.3260 Y4.0720
G01 X8.3455 Y4.0642
G01 X8.3644 Y4.0550
G01 X8.3825 Y4.0444
G01 X8.3988 Y4.0333
G01 X8.4170 Y4.1561
G01 X8.3917 Y4.1684
G01 X8.3736 Y4.1759
G01 X8.3552 Y4.1825
G01 X8.3364 Y4.1882
G01 X8.3174 Y4.1930
G01 X8.2982 Y4.1968
G01 X8.2788 Y4.1997
G01 X8.2594 Y4.2016
G01 X8.2398 Y4.2025
G01 X8.2202 Y4.2025
G01 X8.2007 Y4.2016
G01 X8.1812 Y4.1997
G01 X8.1618 Y4.1968
G01 X8.1426 Y4.1930
G01 X8.1236 Y4.1882
G01 X8.1025 Y4.1817
G01 X8.1282 Y4.3064
G01 X8.1299 Y4.3068
G01 X8.1423 Y4.3091
G01 X8.1672 Y4.3128
G01 X8.1923 Y4.3153
G01 X8.2048 Y4.3160
G01 X8.2300 Y4.3167
G01 X8.2552 Y4.3160
G01 X8.2677 Y4.3153
G01 X8.2928 Y4.3128
G01 X8.3177 Y4.3091
G01 X8.3301 Y4.3068
G01 X8.3547 Y4.3013
G01 X8.3668 Y4.2981
G01 X8.3789 Y4.2946
G01 X8.4028 Y4.2867
G01 X8.4263 Y4.2776
G01 X8.4403 Y4.2716
G00 Z2.0000
G00 X8.4683 Y4.3836
G01 F60.00
G01 Z-0.0500
G01 F120.00
G01 X8.4412 Y4.3940
G01 X8.4267 Y4.3990
G01 X8.3972 Y4.4080
G01 X8.3674 Y4.4154
G01 X8.3523 Y4.4186
G01 X8.3220 Y4.4239
G01 X8.2915 Y4.4276
G01 X8.2608 Y4.4299
G01 X8.2454 Y4.4305
G01 X8.2146 Y4.4305
G01 X8.1992 Y4.4299
G01 X8.1839 Y4.4290
G01 X8.1555 Y4.4262
G01 X8.1913 Y4.5436
G01 X8.2118 Y4.5444
G01 X8.2300 Y4.5447
G01 X8.2664 Y4.5438
G01 X8.3026 Y4.5411
G01 X8.3207 Y4.5391
G01 X8.3567 Y4.5338
G01 X8.3924 Y4.5267
G01 X8.4276 Y4.5178
G01 X8.4624 Y4.5073
G01 X8.4796 Y4.5013
G01 X8.5042 Y4.4920
G00 Z2.0000
G00 X8.5426 Y4.5994
G01 F60.00
G01 Z-0.0500
G01 F120.00
G01 X8.5180 Y4.6087
G01 X8.4982 Y4.6155
G01 X8.4782 Y4.6218
G01 X8.4580 Y4.6277
G01 X8.4378 Y4.6330
G01 X8.4173 Y4.6379
G01 X8.3968 Y4.6422
G01 X8.3762 Y4.6461
G01 X8.3555 Y4.6494
G01 X8.3347 Y4.6522
G01 X8.3138 Y4.6545
G01 X8.2929 Y4.6563
G01 X8.2720 Y4.6576
G01 X8.2316 Y4.6586
G01 X8.2773 Y4.7715
G01 X8.3013 Y4.7700
G01 X8.3250 Y4.7680
G01 X8.3486 Y4.7654
G01 X8.3722 Y4.7622
G01 X8.3957 Y4.7584
G01 X8.4190 Y4.7540
G01 X8.4423 Y4.7491
G01 X8.4655 Y4.7436
G01 X8.4885 Y4.7376
G01 X8.5113 Y4.7309
G01 X8.5340 Y4.7238
G01 X8.5565 Y4.7160
G01 X8.5910 Y4.7028
G00 Z2.0000
G00 X8.6414 Y4.8054
G01 F60.00
G01 Z-0.0500
G01 F120.00
G01 X8.6198 Y4.8141
G01 X8.5949 Y4.8234
G01 X8.5697 Y4.8320
G01 X8.5444 Y4.8400
G01 X8.5189 Y4.8474
G01 X8.4932 Y4.8542
G01 X8.4673 Y4.8604
G01 X8.4413 Y4.8659
G01 X8.4152 Y4.8707
G01 X8.3889 Y4.8749
G01 X8.3626 Y4.8785
G01 X8.3305 Y4.8819
G01 X8.3860 Y4.9904
G01 X8.4056 Y4.9877
G01 X8.4346 Y4.9830
G01 X8.4635 Y4.9777
G01 X8.4923 Y4.9716
G01 X8.5209 Y4.9648
G01 X8.5493 Y4.9573
G01 X8.5775 Y4.9491
G01 X8.6055 Y4.9403
G01 X8.6333 Y4.9307
G01 X8.6608 Y4.9205
G01 X8.7006 Y4.9042
G00 Z2.0000
G00 X8.7637 Y5.0011
G01 F60.00
G01 Z-0.0500
G01 F120.00
G01 X8.7317 Y5.0149
G01 X8.7018 Y5.0268
G01 X8.6717 Y5.0380
G01 X8.6412 Y5.0485
G01 X8.6106 Y5.0582
G01 X8.5797 Y5.0672
G01 X8.5486 Y5.0754
G01 X8.5172 Y5.0828
G01 X8.4858 Y5.0895
G01 X8.4522 Y5.0957
G01 X8.5177 Y5.1992
G01 X8.5422 Y5.1940
G01 X8.5763 Y5.1860
G01 X8.6206 Y5.1740
G00 Z2.0000
G00 X9.2709 Y5.5111
G01 F60.00
G01 Z-0.0500
G01 F120.00
G01 X9.2613 Y5.5219
G01 X9.2453 Y5.5414
G01 X9.2303 Y5.5616
G01 X9.2232 Y5.5720
G01 X9.2097 Y5.5933
G01 X9.1973 Y5.6152
G01 X9.1860 Y5.6377
G01 X9.1807 Y5.6491
G01 X9.1711 Y5.6724
G01 X9.1667 Y5.6842
G01 X9.1588 Y5.7081
G01 X9.1553 Y5.7202
G01 X9.1492 Y5.7446
G01 X9.1466 Y5.7569
G01 X9.1423 Y5.7817
G01 X9.1399 Y5.8008
G01 X9.2510 Y5.8706
G01 X9.2509 Y5.8472
G01 X9.2518 Y5.8277
G01 X9.2537 Y5.8082
G01 X9.2566 Y5.7888
G01 X9.2604 Y5.7696
G01 X9.2652 Y5.7506
G01 X9.2709 Y5.7318
G01 X9.2775 Y5.7134
G01 X9.2850 Y5.6953
G01 X9.2933 Y5.6776
G01 X9.3026 Y5.6603
G01 X9.3126 Y5.6435
G01 X9.3235 Y5.6273
G01 X9.3352 Y5.6115
G01 X9.3476 Y5.5964
G01 X9.3672 Y5.5752
G00 Z2.0000
G00 X9.4693 Y5.6364
G01 F60.00
G01 Z-0.0500
G01 F120.00
G01 X9.4532 Y5.6506
G01 X9.4386 Y5.6656
G01 X9.4251 Y5.6817
G01 X9.4128 Y5.6987
G01 X9.4018 Y5.7165
G01 X9.3921 Y5.7352
G01 X9.3838 Y5.7544
G01 X9.3770 Y5.7743
G01 X9.3717 Y5.7946
G01 X9.3678 Y5.8152
G01 X9.3655 Y5.8360
G01 X9.3647 Y5.8570
G01 X9.3655 Y5.8780
G01 X9.3678 Y5.8988
G01 X9.3717 Y5.9194
G01 X9.3774 Y5.9408
G01 X9.5905 Y5.6966
G01 X9.5766 Y5.7024
G01 X9.5654 Y5.7082
G01 X9.5547 Y5.7148
G01 X9.5445 Y5.7222
G01 X9.5349 Y5.7303
G01 X9.5259 Y5.7391
G01 X9.5175 Y5.7485
G01 X9.5099 Y5.7585
G01 X9.5031 Y5.7691
G01 X9.4951 Y5.7839
G01 X9.4902 Y5.7955
G01 X9.4861 Y5.8074
G01 X9.4829 Y5.8195
G01 X9.4820 Y5.8236
G01 X9.4812 Y5.8278
G01 X9.4806 Y5.8319
G01 X9.4792 Y5.8444
G01 X9.4787 Y5.8570
G01 X9.4792 Y5.8696
G01 X9.4812 Y5.8862
G01 X9.4839 Y5.8986
G01 X9.4874 Y5.9106
G01 X9.4917 Y5.9224
G01 X9.4970 Y5.9339
G01 X9.5031 Y5.9449
G01 X9.5099 Y5.9555
G01 X9.5175 Y5.9655
G01 X9.5259 Y5.9749
G01 X9.5349 Y5.9837
G01 X9.5445 Y5.9918
G01 X9.5547 Y5.9992
G01 X9.5654 Y6.0058
G01 X9.5804 Y6.0133
G01 X9.5921 Y6.0180
G01 X9.6082 Y6.0229
G01 X9.6164 Y6.0247
G01 X9.6288 Y6.0267
G01 X9.6413 Y6.0278
G01 X9.6497 Y6.0280
G01 X9.6665 Y6.0272
G01 X9.6831 Y6.0247
G01 X9.6913 Y6.0229
G01 X9.7034 Y6.0194
G01 X9.7152 Y6.0150
G01 X9.7228 Y6.0116
G01 X9.7376 Y6.0037
G01 X9.7516 Y5.9944
G01 X9.7582 Y5.9892
G01 X9.7676 Y5.9808
G01 X9.7736 Y5.9749
G01 X9.7819 Y5.9655
G01 X9.7919 Y5.9520
G01 X9.8005 Y5.9376
G01 X9.8043 Y5.9301
G01 X9.8093 Y5.9185
G01 X9.8145 Y5.9026
G01 X9.8166 Y5.8945
G01 X9.8189 Y5.8821
G01 X9.8203 Y5.8696
G01 X9.8207 Y5.8570
G01 X9.8207 Y5.8570
G01 X9.8207 Y5.8570
G01 X9.8207 Y5.8528
G01 X9.8203 Y5.8444
G01 X9.8189 Y5.8319
G01 X9.8166 Y5.8195
G01 X9.8134 Y5.8074
G01 X9.8093 Y5.7955
G01 X9.8039 Y5.7831
G01 X9.7067 Y5.8570
G01 X9.7063 Y5.8500
G01 X9.7047 Y5.8418
G01 X9.7024 Y5.8352
G01 X9.6993 Y5.8289
G01 X9.6955 Y5.8230
G01 X9.6910 Y5.8177
G01 X9.6848 Y5.8121
G01 X9.6790 Y5.8081
G01 X9.6728 Y5.8049
G01 X9.6649 Y5.8021
G01 X9.6581 Y5.8006
G01 X9.6497 Y5.8000
G01 X9.6414 Y5.8006
G01 X9.6345 Y5.8021
G01 X9.6279 Y5.8043
G01 X9.6216 Y5.8074
G01 X9.6136 Y5.8129
G01 X9.6075 Y5.8187
G01 X9.6016 Y5.8265
G01 X9.5976 Y5.8339
G01 X9.5948 Y5.8418
G01 X9.5930 Y5.8514
G01 X9.5929 Y5.8612
G01 X9.5944 Y5.8709
G01 X9.5971 Y5.8788
G01 X9.6016 Y5.8875
G01 X9.6075 Y5.8953
G01 X9.6136 Y5.9011
G01 X9.6204 Y5.9059
G01 X9.6292 Y5.9102
G01 X9.6386 Y5.9129
G01 X9.6469 Y5.9139
G01 X9.6525 Y5.9139
G01 X9.6581 Y5.9134
G01 X9.6636 Y5.9123
G01 X9.6702 Y5.9102
G01 X9.6754 Y5.9079
G01 X9.6802 Y5.9052
G01 X9.6848 Y5.9019
G01 X9.6890 Y5.8983
G01 X9.6929 Y5.8942
G01 X9.6963 Y5.8898
G01 X9.6993 Y5.8851
G01 X9.7018 Y5.8801
G01 X9.7039 Y5.8749
G01 X9.7053 Y5.8695
G01 X9.7065 Y5.8626
G01 X9.7067 Y5.8570
G01 X9.9347 Y5.8570
G01 X9.9344 Y5.8430
G01 X9.9326 Y5.8226
G01 X9.9347 Y5.8570
G01 X9.9346 Y5.8640
G01 X9.9334 Y5.8849
G01 X9.9305 Y5.9057
G01 X9.9262 Y5.9263
G01 X9.9203 Y5.9464
G01 X9.9130 Y5.9661
G01 X9.9043 Y5.9851
G01 X9.8942 Y6.0035
G01 X9.8827 Y6.0211
G01 X9.8700 Y6.0378
G01 X9.8561 Y6.0535
G01 X9.8411 Y6.0682
G01 X9.8251 Y6.0817
G01 X9.8081 Y6.0940
G01 X9.7963 Y6.1015
G01 X9.7856 Y6.1075
G01 X9.9276 Y6.1433
G01 X9.9454 Y6.1250
G01 X9.9582 Y6.1101
G01 X9.9702 Y6.0947
G01 X9.9815 Y6.0787
G01 X9.9920 Y6.0621
G01 X10.0016 Y6.0451
G01 X10.0104 Y6.0276
G01 X10.0184 Y6.0097
G01 X10.0254 Y5.9914
G01 X10.0316 Y5.9728
G01 X10.0368 Y5.9540
G01 X10.0411 Y5.9348
G01 X10.0444 Y5.9155
G01 X10.0468 Y5.8961
G01 X10.0483 Y5.8766
G01 X10.0487 Y5.8517
G00 Z2.0000
G00 X10.1625 Y5.8709
G01 F60.00
G01 Z-0.0500
G01 F120.00
G01 X10.1613 Y5.8947
G01 X10.1589 Y5.9198
G01 X10.1572 Y5.9323
G01 X10.1529 Y5.9571
G01 X10.1503 Y5.9694
G01 X10.1441 Y5.9938
G01 X10.1406 Y6.0059
G01 X10.1327 Y6.0298
G01 X10.1284 Y6.0416
G01 X10.1187 Y6.0649
G01 X10.1080 Y6.0877
G01 X10.1022 Y6.0988
G01 X10.0897 Y6.1207
G01 X10.0831 Y6.1315
G01 X10.0692 Y6.1524
G01 X10.0545 Y6.1722
G01 X10.1815 Y6.1891
G01 X10.1953 Y6.1661
G01 X10.2027 Y6.1526
G01 X10.2098 Y6.1389
G01 X10.2229 Y6.1111
G01 X10.2290 Y6.0969
G01 X10.2401 Y6.0682
G01 X10.2497 Y6.0390
G01 X10.2579 Y6.0094
G01 X10.2615 Y5.9944
G01 X10.2675 Y5.9642
G01 X10.2699 Y5.9490
G01 X10.2737 Y5.9185
G01 X10.2760 Y5.8875
G00 Z2.0000
G00 X10.3898 Y5.8932
G01 F60.00
G01 Z-0.0500
G01 F120.00
G01 X10.3872 Y5.9296
G01 X10.3827 Y5.9657
G01 X10.3765 Y6.0016
G01 X10.3685 Y6.0371
G01 X10.3639 Y6.0546
G01 X10.3533 Y6.0894
G01 X10.3411 Y6.1237
G01 X10.3272 Y6.1573
G01 X10.3196 Y6.1738
G01 X10.3050 Y6.2030
G01 X10.4295 Y6.2075
G01 X10.4396 Y6.1842
G01 X10.4474 Y6.1647
G01 X10.4548 Y6.1450
G01 X10.4616 Y6.1252
G01 X10.4679 Y6.1052
G01 X10.4738 Y6.0850
G01 X10.4791 Y6.0648
G01 X10.4840 Y6.0443
G01 X10.4883 Y6.0238
G01 X10.4921 Y6.0032
G01 X10.4955 Y5.9825
G01 X10.4983 Y5.9617
G01 X10.5006 Y5.9408
G01 X10.5024 Y5.9199
G01 X10.5038 Y5.8964
G00 Z2.0000
G00 X10.6181 Y5.8908
G01 F60.00
G01 Z-0.0500
G01 F120.00
G01 X10.6161 Y5.9283
G01 X10.6141 Y5.9520
G01 X10.6114 Y5.9756
G01 X10.6082 Y5.9992
G01 X10.6045 Y6.0227
G01 X10.6001 Y6.0460
G01 X10.5952 Y6.0693
G01 X10.5897 Y6.0925
G01 X10.5836 Y6.1154
G01 X10.5770 Y6.1383
G01 X10.5698 Y6.1610
G01 X10.5621 Y6.1834
G01 X10.5531 Y6.2075
G01 X10.6768 Y6.2005
G01 X10.6861 Y6.1714
G01 X10.6935 Y6.1459
G01 X10.7003 Y6.1202
G01 X10.7064 Y6.0943
G01 X10.7119 Y6.0683
G01 X10.7168 Y6.0422
G01 X10.7210 Y6.0159
G01 X10.7246 Y5.9896
G01 X10.7275 Y5.9632
G01 X10.7298 Y5.9367
G01 X10.7314 Y5.9101
G01 X10.7324 Y5.8805
G00 Z2.0000
G00 X10.8467 Y5.8636
G01 F60.00
G01 Z-0.0500
G01 F120.00
G01 X10.8464 Y5.8864
G01 X10.8453 Y5.9157
G01 X10.8435 Y5.9451
G01 X10.8410 Y5.9743
G01 X10.8377 Y6.0035
G01 X10.8338 Y6.0326
G01 X10.8291 Y6.0616
G01 X10.8237 Y6.0905
G01 X10.8176 Y6.1193
G01 X10.8109 Y6.1479
G01 X10.8034 Y6.1763
G01 X10.8004 Y6.1866
G01 X10.9232 Y6.1682
G01 X10.9289 Y6.1442
G01 X10.9355 Y6.1128
G01 X10.9414 Y6.0811
G01 X10.9465 Y6.0494
G01 X10.9509 Y6.0175
G01 X10.9544 Y5.9855
G01 X10.9572 Y5.9534
G01 X10.9592 Y5.9213
G01 X10.9603 Y5.8892
G01 X10.9607 Y5.8570
G01 X10.9605 Y5.8394
G01 X11.0747 Y5.8570
G01 X11.0743 Y5.8920
G01 X11.0730 Y5.9269
G01 X11.0709 Y5.9618
G01 X11.0679 Y5.9967
G01 X11.0640 Y6.0314
G01 X11.0593 Y6.0661
G01 X11.0538 Y6.1006
G01 X11.0474 Y6.1350
G01 X11.0463 Y6.1401
G01 X11.1468 Y6.1171
G01 X11.4018 Y6.0279
G01 X11.6452 Y5.9107
G01 X11.8739 Y5.7670
G01 X11.9199 Y5.7303
G01 X11.6957 Y5.5061
G01 X11.6420 Y5.5457
G01 X11.4655 Y5.6512
G01 X11.2817 Y5.7380
G01 X11.0926 Y5.8058
G01 X11.0859 Y5.8079
G01 X10.8887 Y5.8572
G01 X10.6853 Y5.8874
G01 X10.4800 Y5.8975
G01 X10.2770 Y5.8876
G01 X10.0759 Y5.8580
G01 X10.0667 Y5.8562
G01 X9.8719 Y5.8073
G01 X9.6804 Y5.7389
G01 X9.4966 Y5.6522
G01 X9.4904 Y5.6490
G01 X9.3180 Y5.5457
G01 X9.2643 Y5.5061
G01 X9.0401 Y5.7303
G01 X9.0861 Y5.7670
G01 X9.3148 Y5.9107
G01 X9.5582 Y6.0279
G01 X9.8132 Y6.1171
G01 X10.0765 Y6.1773
G01 X10.3449 Y6.2075
G01 X10.6151 Y6.2075
G01 X10.8835 Y6.1773
G01 X11.1468 Y6.1171
G00 Z2.0000
G00 X11.1677 Y6.1098
G01 F60.00
G01 Z-0.0500
G01 F120.00
G01 X11.1721 Y6.0828
G01 X11.1772 Y6.0454
G01 X11.1813 Y6.0079
G01 X11.1846 Y5.9702
G01 X11.1869 Y5.9325
G01 X11.1883 Y5.8948
G01 X11.1887 Y5.8570
G01 X11.1883 Y5.8192
G01 X11.1863 Y5.7723
G00 Z2.0000
G00 X11.0739 Y5.8110
G01 F60.00
G01 Z-0.0500
G01 F120.00
G01 X11.0747 Y5.8570
G01 X11.3027 Y5.8570
G01 X11.3022 Y5.8976
G01 X11.3007 Y5.9381
G01 X11.2983 Y5.9786
G01 X11.2948 Y6.0190
G01 X11.2892 Y6.0673
G01 X11.4087 Y6.0246
G01 X11.4119 Y5.9870
G01 X11.4146 Y5.9437
G01 X11.4162 Y5.9004
G01 X11.4167 Y5.8570
G01 X11.4162 Y5.8136
G01 X11.4146 Y5.7703
G01 X11.4119 Y5.7270
G01 X11.4076 Y5.6786
G00 Z2.0000
G00 X11.2978 Y5.7305
G01 F60.00
G01 Z-0.0500
G01 F120.00
G01 X11.3007 Y5.7759
G01 X11.3022 Y5.8164
G01 X11.3027 Y5.8570
G01 X11.5307 Y5.8570
G01 X11.5302 Y5.9032
G01 X11.5285 Y5.9493
G01 X11.5273 Y5.9675
G01 X11.5307 Y5.8570
G01 X11.5302 Y5.8108
G01 X11.5285 Y5.7647
G01 X11.5256 Y5.7186
G01 X11.5217 Y5.6726
G01 X11.5158 Y5.6213
G00 Z2.0000
G00 X11.6221 Y5.5577
G01 F60.00
G01 Z-0.0500
G01 F120.00
G01 X11.6297 Y5.6128
G01 X11.6351 Y5.6615
G01 X11.6393 Y5.7102
G01 X11.6423 Y5.7591
G01 X11.6441 Y5.8080
G01 X11.6447 Y5.8570
G01 X11.6439 Y5.9113
G01 X11.7585 Y5.8395
G01 X11.7581 Y5.8052
G01 X11.7562 Y5.7535
G01 X11.7530 Y5.7019
G01 X11.7486 Y5.6503
G01 X11.7429 Y5.5988
G01 X11.7357 Y5.5461
G01 X11.8652 Y5.6756
G01 X11.8667 Y5.6935
G01 X11.8701 Y5.7479
G01 X11.8708 Y5.7689
G00 Z2.0000
G00 X12.3394 Y5.1740
G01 F60.00
G01 Z-0.0500
G01 F120.00
G01 X12.3837 Y5.1860
G01 X12.4178 Y5.1940
G01 X12.4423 Y5.1992
G01 X12.5078 Y5.0957
G01 X12.4742 Y5.0895
G01 X12.4428 Y5.0828
G01 X12.4114 Y5.0754
G01 X12.3803 Y5.0672
G01 X12.3494 Y5.0582
G01 X12.3188 Y5.0485
G01 X12.2883 Y5.0380
G01 X12.2582 Y5.0268
G01 X12.2283 Y5.0149
G01 X12.1963 Y5.0011
G00 Z2.0000
G00 X12.2594 Y4.9042
G01 F60.00
G01 Z-0.0500
G01 F120.00
G01 X12.2992 Y4.9205
G01 X12.3267 Y4.9307
G01 X12.3545 Y4.9403
G01 X12.3825 Y4.9491
G01 X12.4107 Y4.9573
G01 X12.4391 Y4.9648
G01 X12.4677 Y4.9716
G01 X12.4965 Y4.9777
G01 X12.5254 Y4.9830
G01 X12.5544 Y4.9877
G01 X12.5740 Y4.9904
G01 X12.6295 Y4.8819
G01 X12.5974 Y4.8785
G01 X12.5711 Y4.8749
G01 X12.5448 Y4.8707
G01 X12.5187 Y4.8659
G01 X12.4927 Y4.8604
G01 X12.4668 Y4.8542
G01 X12.4411 Y4.8474
G01 X12.4156 Y4.8400
G01 X12.3903 Y4.8320
G01 X12.3651 Y4.8234
G01 X12.3402 Y4.8141
G01 X12.3186 Y4.8054
G00 Z2.0000
G00 X12.3690 Y4.7028
G01 F60.00
G01 Z-0.0500
G01 F120.00
G01 X12.4035 Y4.7160
G01 X12.4260 Y4.7238
G01 X12.4487 Y4.7309
G01 X12.4715 Y4.7376
G01 X12.4945 Y4.7436
G01 X12.5177 Y4.7491
G01 X12.5410 Y4.7540
G01 X12.5643 Y4.7584
G01 X12.5878 Y4.7622
G01 X12.6114 Y4.7654
G01 X12.6350 Y4.7680
G01 X12.6587 Y4.7700
G01 X12.6827 Y4.7715
G01 X12.7284 Y4.6586
G01 X12.6880 Y4.6576
G01 X12.6671 Y4.6563
G01 X12.6462 Y4.6545
G01 X12.6253 Y4.6522
G01 X12.6045 Y4.6494
G01 X12.5838 Y4.6461
G01 X12.5632 Y4.6422
G01 X12.5427 Y4.6379
G01 X12.5222 Y4.6330
G01 X12.5020 Y4.6277
G01 X12.4818 Y4.6218
G01 X12.4618 Y4.6155
G01 X12.4420 Y4.6087
G01 X12.4174 Y4.5994
G01 X12.4558 Y4.4920
G01 X12.4804 Y4.5013
G01 X12.4976 Y4.5073
G01 X12.5324 Y4.5178
G01 X12.5676 Y4.5267
G01 X12.6033 Y4.5338
G01 X12.6393 Y4.5391
G01 X12.6755 Y4.5427
G01 X12.6936 Y4.5438
G01 X12.7300 Y4.5447
G01 X12.7482 Y4.5444
G01 X12.7687 Y4.5436
G01 X12.8045 Y4.4262
G01 X12.7761 Y4.4290
G01 X12.7608 Y4.4299
G01 X12.7300 Y4.4307
G01 X12.7146 Y4.4305
G01 X12.6839 Y4.4290
G01 X12.6685 Y4.4276
G01 X12.6380 Y4.4239
G01 X12.6077 Y4.4186
G01 X12.5776 Y4.4119
G01 X12.5628 Y4.4080
G01 X12.5333 Y4.3990
G01 X12.5188 Y4.3940
G01 X12.4917 Y4.3836
G00 Z2.0000
G00 X12.5197 Y4.2716
G01 F60.00
G01 Z-0.0500
G01 F120.00
G01 X12.5337 Y4.2776
G01 X12.5572 Y4.2867
G01 X12.5691 Y4.2908
G01 X12.5932 Y4.2981
G01 X12.6176 Y4.3042
G01 X12.6299 Y4.3068
G01 X12.6423 Y4.3091
G01 X12.6672 Y4.3128
G01 X12.6923 Y4.3153
G01 X12.7174 Y4.3165
G01 X12.7426 Y4.3165
G01 X12.7552 Y4.3160
G01 X12.7803 Y4.3142
G01 X12.7928 Y4.3128
G01 X12.8177 Y4.3091
G01 X12.8318 Y4.3064
G01 X12.8575 Y4.1817
G01 X12.8364 Y4.1882
G01 X12.8174 Y4.1930
G01 X12.7982 Y4.1968
G01 X12.7788 Y4.1997
G01 X12.7593 Y4.2016
G01 X12.7398 Y4.2025
G01 X12.7202 Y4.2025
G01 X12.7006 Y4.2016
G01 X12.6812 Y4.1997
G01 X12.6618 Y4.1968
G01 X12.6426 Y4.1930
G01 X12.6236 Y4.1882
G01 X12.6048 Y4.1825
G01 X12.5864 Y4.1759
G01 X12.5683 Y4.1684
G01 X12.5430 Y4.1561
G00 Z2.0000
G00 X12.5612 Y4.0333
G01 F60.00
G01 Z-0.0500
G01 F120.00
G01 X12.5775 Y4.0444
G01 X12.5956 Y4.0550
G01 X12.6145 Y4.0642
G01 X12.6340 Y4.0720
G01 X12.6540 Y4.0783
G01 X12.6744 Y4.0832
G01 X12.6951 Y4.0865
G01 X12.7160 Y4.0883
G01 X12.7370 Y4.0886
G01 X12.7579 Y4.0873
G01 X12.7787 Y4.0845
G01 X12.7992 Y4.0801
G01 X12.8194 Y4.0743
G01 X12.8391 Y4.0670
G01 X12.8581 Y4.0582
G01 X12.8723 Y4.0506
G01 X12.7870 Y3.8037
G01 X12.7862 Y3.8134
G01 X12.7837 Y3.8229
G01 X12.7803 Y3.8305
G01 X12.7749 Y3.8387
G01 X12.7683 Y3.8459
G01 X12.7617 Y3.8511
G01 X12.7531 Y3.8558
G01 X12.7438 Y3.8590
G01 X12.7342 Y3.8605
G01 X12.7244 Y3.8604
G01 X12.7148 Y3.8586
G01 X12.7069 Y3.8558
G01 X12.6995 Y3.8518
G01 X12.6917 Y3.8459
G01 X12.6851 Y3.8387
G01 X12.6804 Y3.8318
G01 X12.6773 Y3.8255
G01 X12.6754 Y3.8202
G01 X12.6741 Y3.8148
G01 X12.6733 Y3.8093
G01 X12.6730 Y3.8037
G01 X12.6733 Y3.7981
G01 X12.6741 Y3.7925
G01 X12.6754 Y3.7871
G01 X12.6773 Y3.7819
G01 X12.6797 Y3.7768
G01 X12.6834 Y3.7708
G01 X12.6868 Y3.7664
G01 X12.6907 Y3.7624
G01 X12.6949 Y3.7587
G01 X12.6995 Y3.7555
G01 X12.7056 Y3.7521
G01 X12.7121 Y3.7495
G01 X12.7189 Y3.7478
G01 X12.7258 Y3.7468
G01 X12.7342 Y3.7468
G01 X12.7411 Y3.7478
G01 X12.7492 Y3.7500
G01 X12.7569 Y3.7534
G01 X12.7628 Y3.7571
G01 X12.7683 Y3.7614
G01 X12.7732 Y3.7664
G01 X12.7774 Y3.7720
G01 X12.7809 Y3.7780
G01 X12.7832 Y3.7832
G01 X12.7853 Y3.7898
G01 X12.7866 Y3.7967
G01 X12.7870 Y3.8037
G01 X12.8850 Y3.8759
G01 X12.8808 Y3.8843
G01 X12.8745 Y3.8952
G01 X12.8673 Y3.9055
G01 X12.8595 Y3.9154
G01 X12.8509 Y3.9246
G01 X12.8417 Y3.9331
G01 X12.8385 Y3.9359
G01 X12.8352 Y3.9385
G01 X12.8319 Y3.9410
G01 X12.8215 Y3.9481
G01 X12.8106 Y3.9545
G01 X12.7993 Y3.9600
G01 X12.7876 Y3.9647
G01 X12.7756 Y3.9685
G01 X12.7634 Y3.9714
G01 X12.7509 Y3.9734
G01 X12.7384 Y3.9745
G01 X12.7258 Y3.9746
G01 X12.7132 Y3.9738
G01 X12.7008 Y3.9721
G01 X12.6884 Y3.9695
G01 X12.6764 Y3.9660
G01 X12.6646 Y3.9616
G01 X12.6531 Y3.9564
G01 X12.6421 Y3.9503
G01 X12.6315 Y3.9435
G01 X12.6215 Y3.9359
G01 X12.6121 Y3.9275
G01 X12.6033 Y3.9185
G01 X12.5952 Y3.9089
G01 X12.5878 Y3.8987
G01 X12.5812 Y3.8880
G01 X12.5754 Y3.8768
G01 X12.5719 Y3.8687
G00 Z2.0000
G00 X12.5720 Y3.7383
G01 F60.00
G01 Z-0.0500
G01 F120.00
G01 X12.5754 Y3.7306
G01 X12.5812 Y3.7194
G01 X12.5878 Y3.7087
G01 X12.5952 Y3.6985
G01 X12.6033 Y3.6888
G01 X12.6121 Y3.6798
G01 X12.6215 Y3.6715
G01 X12.6315 Y3.6639
G01 X12.6421 Y3.6570
G01 X12.6531 Y3.6509
G01 X12.6646 Y3.6457
G01 X12.6764 Y3.6413
G01 X12.6884 Y3.6378
G01 X12.7008 Y3.6352
G01 X12.7132 Y3.6335
G01 X12.7258 Y3.6327
G01 X12.7384 Y3.6329
G01 X12.7509 Y3.6340
G01 X12.7634 Y3.6360
G01 X12.7756 Y3.6389
G01 X12.7876 Y3.6427
G01 X12.7993 Y3.6473
G01 X12.8106 Y3.6529
G01 X12.8215 Y3.6592
G01 X12.8319 Y3.6663
G01 X12.8417 Y3.6742
G01 X12.8509 Y3.6828
G01 X12.8595 Y3.6920
G01 X12.8673 Y3.7018
G01 X12.8745 Y3.7122
G01 X12.8808 Y3.7231
G01 X12.8850 Y3.7315
G01 X12.8725 Y3.5569
G01 X12.8518 Y3.5460
G01 X12.8326 Y3.5378
G01 X12.8194 Y3.5331
G01 X12.7992 Y3.5272
G01 X12.7787 Y3.5229
G01 X12.7649 Y3.5208
G01 X12.7440 Y3.5190
G01 X12.7230 Y3.5188
G01 X12.7021 Y3.5200
G01 X12.6813 Y3.5229
G01 X12.6607 Y3.5272
G01 X12.6406 Y3.5331
G01 X12.6274 Y3.5378
G01 X12.6081 Y3.5460
G01 X12.5956 Y3.5523
G01 X12.5775 Y3.5629
G01 X12.5616 Y3.5738
G00 Z2.0000
G00 X12.5434 Y3.4510
G01 F60.00
G01 Z-0.0500
G01 F120.00
G01 X12.5683 Y3.4389
G01 X12.5864 Y3.4314
G01 X12.6048 Y3.4248
G01 X12.6236 Y3.4191
G01 X12.6426 Y3.4144
G01 X12.6618 Y3.4105
G01 X12.6812 Y3.4077
G01 X12.7006 Y3.4057
G01 X12.7202 Y3.4048
G01 X12.7398 Y3.4048
G01 X12.7593 Y3.4057
G01 X12.7788 Y3.4077
G01 X12.7982 Y3.4105
G01 X12.8174 Y3.4144
G01 X12.8364 Y3.4191
G01 X12.8578 Y3.4257
G01 X12.8324 Y3.3010
G01 X12.8177 Y3.2982
G01 X12.7928 Y3.2945
G01 X12.7677 Y3.2921
G01 X12.7552 Y3.2913
G01 X12.7426 Y3.2908
G01 X12.7174 Y3.2908
G01 X12.7048 Y3.2913
G01 X12.6797 Y3.2931
G01 X12.6547 Y3.2962
G01 X12.6299 Y3.3005
G01 X12.6053 Y3.3060
G01 X12.5932 Y3.3092
G01 X12.5691 Y3.3166
G01 X12.5572 Y3.3207
G01 X12.5337 Y3.3297
G01 X12.5203 Y3.3355
G00 Z2.0000
G00 X12.4922 Y3.2235
G01 F60.00
G01 Z-0.0500
G01 F120.00
G01 X12.5188 Y3.2133
G01 X12.5333 Y3.2083
G01 X12.5480 Y3.2037
G01 X12.5776 Y3.1955
G01 X12.6077 Y3.1887
G01 X12.6380 Y3.1835
G01 X12.6532 Y3.1814
G01 X12.6685 Y3.1797
G01 X12.6992 Y3.1774
G01 X12.7300 Y3.1767
G01 X12.7608 Y3.1774
G01 X12.7761 Y3.1784
G01 X12.8050 Y3.1812
G01 X12.7695 Y3.0638
G01 X12.7482 Y3.0629
G01 X12.7300 Y3.0627
G01 X12.6936 Y3.0636
G01 X12.6755 Y3.0647
G01 X12.6393 Y3.0682
G01 X12.6033 Y3.0736
G01 X12.5676 Y3.0807
G01 X12.5324 Y3.0895
G01 X12.4976 Y3.1001
G01 X12.4804 Y3.1060
G01 X12.4565 Y3.1150
G00 Z2.0000
G00 X12.4181 Y3.0076
G01 F60.00
G01 Z-0.0500
G01 F120.00
G01 X12.4420 Y2.9986
G01 X12.4618 Y2.9918
G01 X12.4818 Y2.9855
G01 X12.5020 Y2.9796
G01 X12.5222 Y2.9743
G01 X12.5427 Y2.9694
G01 X12.5632 Y2.9651
G01 X12.5838 Y2.9613
G01 X12.6045 Y2.9579
G01 X12.6253 Y2.9551
G01 X12.6462 Y2.9528
G01 X12.6671 Y2.9510
G01 X12.6880 Y2.9497
G01 X12.7090 Y2.9489
G01 X12.7292 Y2.9487
G01 X12.6838 Y2.8358
G01 X12.6587 Y2.8373
G01 X12.6350 Y2.8393
G01 X12.6114 Y2.8420
G01 X12.5878 Y2.8452
G01 X12.5643 Y2.8489
G01 X12.5410 Y2.8533
G01 X12.5177 Y2.8582
G01 X12.4945 Y2.8637
G01 X12.4715 Y2.8698
G01 X12.4487 Y2.8764
G01 X12.4260 Y2.8836
G01 X12.4035 Y2.8913
G01 X12.3699 Y2.9041
G00 Z2.0000
G00 X12.3197 Y2.8015
G01 F60.00
G01 Z-0.0500
G01 F120.00
G01 X12.3402 Y2.7932
G01 X12.3651 Y2.7840
G01 X12.3903 Y2.7753
G01 X12.4156 Y2.7673
G01 X12.4411 Y2.7599
G01 X12.4668 Y2.7531
G01 X12.4927 Y2.7470
G01 X12.5187 Y2.7415
G01 X12.5448 Y2.7366
G01 X12.5711 Y2.7324
G01 X12.5974 Y2.7288
G01 X12.6306 Y2.7253
G01 X12.5753 Y2.6168
G01 X12.5544 Y2.6196
G01 X12.5254 Y2.6243
G01 X12.4965 Y2.6297
G01 X12.4677 Y2.6358
G01 X12.4391 Y2.6425
G01 X12.4107 Y2.6500
G01 X12.3825 Y2.6582
G01 X12.3545 Y2.6671
G01 X12.3267 Y2.6766
G01 X12.2992 Y2.6869
G01 X12.2605 Y2.7027
G01 X12.3361 Y2.4343
G01 X12.3499 Y2.4303
G01 X12.3837 Y2.4214
G01 X12.4178 Y2.4133
G01 X12.4439 Y2.4078
G01 X12.5091 Y2.5114
G01 X12.4742 Y2.5179
G01 X12.4428 Y2.5245
G01 X12.4114 Y2.5320
G01 X12.3803 Y2.5402
G01 X12.3494 Y2.5491
G01 X12.3188 Y2.5588
G01 X12.2883 Y2.5693
G01 X12.2582 Y2.5805
G01 X12.2283 Y2.5925
G01 X12.1976 Y2.6056
G00 Z2.0000
G00 X12.1836 Y2.5868
G01 F60.00
G01 Z-0.0500
G01 F120.00
G01 X12.2232 Y2.6405
G01 X12.3265 Y2.8129
G01 X12.3297 Y2.8191
G01 X12.4164 Y3.0029
G01 X12.4848 Y3.1944
G01 X12.5337 Y3.3892
G01 X12.5355 Y3.3984
G01 X12.5651 Y3.5995
G01 X12.5750 Y3.8025
G01 X12.5649 Y4.0078
G01 X12.5347 Y4.2112
G01 X12.4854 Y4.4084
G01 X12.4833 Y4.4151
G01 X12.4155 Y4.6042
G01 X12.3287 Y4.7880
G01 X12.2232 Y4.9645
G01 X12.1836 Y5.0182
G01 X12.4078 Y5.2424
G01 X12.4445 Y5.1964
G01 X12.5882 Y4.9677
G01 X12.7054 Y4.7243
G01 X12.7946 Y4.4693
G01 X12.8548 Y4.2060
G01 X12.8850 Y3.9376
G01 X12.8850 Y3.6674
G01 X12.8548 Y3.3990
G01 X12.7946 Y3.1357
G01 X12.7054 Y2.8807
G01 X12.5882 Y2.6373
G01 X12.4445 Y2.4086
G01 X12.4078 Y2.3626
G01 X12.1836 Y2.5868
G00 Z2.0000
G00 X11.8652 Y1.9294
G01 F60.00
G01 Z-0.0500
G01 F120.00
G01 X11.8667 Y1.9115
G01 X11.8701 Y1.8571
G01 X11.8708 Y1.8361
G01 X11.7585 Y1.7655
G01 X11.7581 Y1.7998
G01 X11.7562 Y1.8515
G01 X11.7530 Y1.9031
G01 X11.7486 Y1.9547
G01 X11.7429 Y2.0062
G01 X11.7357 Y2.0589
G01 X11.6221 Y2.0473
G01 X11.6297 Y1.9922
G01 X11.6351 Y1.9435
G01 X11.6393 Y1.8948
G01 X11.6423 Y1.8459
G01 X11.6441 Y1.7970
G01 X11.6447 Y1.7480
G01 X11.6439 Y1.6937
G01 X11.5274 Y1.6375
G01 X11.5285 Y1.6557
G01 X11.5302 Y1.7018
G01 X11.5307 Y1.7480
G01 X11.5302 Y1.7942
G01 X11.5285 Y1.8403
G01 X11.5256 Y1.8864
G01 X11.5217 Y1.9324
G01 X11.5158 Y1.9837
G00 Z2.0000
G00 X11.4076 Y1.9264
G01 F60.00
G01 Z-0.0500
G01 F120.00
G01 X11.4119 Y1.8780
G01 X11.4146 Y1.8347
G01 X11.4162 Y1.7914
G01 X11.4167 Y1.7480
G01 X11.4162 Y1.7046
G01 X11.4146 Y1.6613
G01 X11.4119 Y1.6180
G01 X11.4087 Y1.5804
G01 X11.2892 Y1.5377
G01 X11.2948 Y1.5860
G01 X11.2983 Y1.6264
G01 X11.3007 Y1.6669
G01 X11.3022 Y1.7074
G01 X11.3027 Y1.7480
G01 X11.3022 Y1.7886
G01 X11.3007 Y1.8291
G01 X11.2978 Y1.8745
G00 Z2.0000
G00 X11.1863 Y1.8327
G01 F60.00
G01 Z-0.0500
G01 F120.00
G01 X11.1883 Y1.7858
G01 X11.1887 Y1.7480
G01 X11.1883 Y1.7102
G01 X11.1869 Y1.6725
G01 X11.1846 Y1.6348
G01 X11.1813 Y1.5971
G01 X11.1772 Y1.5596
G01 X11.1721 Y1.5222
G01 X11.1677 Y1.4952
G01 X11.0463 Y1.4649
G01 X11.0538 Y1.5044
G01 X11.0593 Y1.5389
G01 X11.0640 Y1.5736
G01 X11.0679 Y1.6083
G01 X11.0709 Y1.6432
G01 X11.0730 Y1.6781
G01 X11.0743 Y1.7130
G01 X11.0747 Y1.7480
G01 X11.0739 Y1.7940
G01 X11.0747 Y1.7480
G01 X10.9605 Y1.7656
G01 X10.9607 Y1.7480
G01 X10.9603 Y1.7158
G01 X10.9592 Y1.6837
G01 X10.9572 Y1.6516
G01 X10.9544 Y1.6195
G01 X10.9509 Y1.5875
G01 X10.9465 Y1.5556
G01 X10.9414 Y1.5239
G01 X10.9355 Y1.4922
G01 X10.9289 Y1.4608
G01 X10.9232 Y1.4368
G01 X10.8004 Y1.4184
G01 X10.8109 Y1.4571
G01 X10.8176 Y1.4857
G01 X10.8237 Y1.5145
G01 X10.8291 Y1.5434
G01 X10.8338 Y1.5724
G01 X10.8377 Y1.6015
G01 X10.8410 Y1.6307
G01 X10.8435 Y1.6599
G01 X10.8453 Y1.6893
G01 X10.8464 Y1.7186
G01 X10.8467 Y1.7414
G01 X10.7324 Y1.7245
G01 X10.7314 Y1.6949
G01 X10.7298 Y1.6683
G01 X10.7275 Y1.6418
G01 X10.7246 Y1.6154
G01 X10.7210 Y1.5891
G01 X10.7168 Y1.5628
G01 X10.7119 Y1.5367
G01 X10.7064 Y1.5107
G01 X10.7003 Y1.4848
G01 X10.6935 Y1.4591
G01 X10.6861 Y1.4336
G01 X10.6768 Y1.4045
G01 X10.5531 Y1.3975
G01 X10.5621 Y1.4216
G01 X10.5698 Y1.4440
G01 X10.5770 Y1.4667
G01 X10.5836 Y1.4896
G01 X10.5897 Y1.5125
G01 X10.5952 Y1.5357
G01 X10.6001 Y1.5590
G01 X10.6045 Y1.5823
G01 X10.6082 Y1.6058
G01 X10.6114 Y1.6294
G01 X10.6141 Y1.6530
G01 X10.6161 Y1.6767
G01 X10.6181 Y1.7142
G01 X10.5038 Y1.7086
G01 X10.5024 Y1.6851
G01 X10.5006 Y1.6642
G01 X10.4983 Y1.6433
G01 X10.4955 Y1.6225
G01 X10.4921 Y1.6018
G01 X10.4883 Y1.5812
G01 X10.4840 Y1.5607
G01 X10.4791 Y1.5402
G01 X10.4738 Y1.5200
G01 X10.4679 Y1.4998
G01 X10.4616 Y1.4798
G01 X10.4548 Y1.4600
G01 X10.4474 Y1.4403
G01 X10.4396 Y1.4208
G01 X10.4295 Y1.3975
G01 X10.3050 Y1.4020
G01 X10.3196 Y1.4312
G01 X10.3272 Y1.4477
G01 X10.3411 Y1.4813
G01 X10.3533 Y1.5156
G01 X10.3639 Y1.5504
G01 X10.3727 Y1.5856
G01 X10.3798 Y1.6213
G01 X10.3827 Y1.6393
G01 X10.3872 Y1.6754
G01 X10.3898 Y1.7118
G00 Z2.0000
G00 X10.2760 Y1.7175
G01 F60.00
G01 Z-0.0500
G01 F120.00
G01 X10.2737 Y1.6865
G01 X10.2699 Y1.6560
G01 X10.2675 Y1.6408
G01 X10.2615 Y1.6106
G01 X10.2579 Y1.5956
G01 X10.2497 Y1.5660
G01 X10.2401 Y1.5368
G01 X10.2290 Y1.5081
G01 X10.2229 Y1.4939
G01 X10.2165 Y1.4799
G01 X10.2027 Y1.4524
G01 X10.1953 Y1.4389
G01 X10.1815 Y1.4159
G01 X10.0545 Y1.4328
G01 X10.0692 Y1.4526
G01 X10.0831 Y1.4735
G01 X10.0897 Y1.4843
G01 X10.1022 Y1.5062
G01 X10.1080 Y1.5173
G01 X10.1187 Y1.5401
G01 X10.1284 Y1.5634
G01 X10.1327 Y1.5752
G01 X10.1368 Y1.5871
G01 X10.1441 Y1.6112
G01 X10.1503 Y1.6356
G01 X10.1529 Y1.6479
G01 X10.1552 Y1.6603
G01 X10.1589 Y1.6852
G01 X10.1613 Y1.7103
G01 X10.1625 Y1.7341
G00 Z2.0000
G00 X9.9326 Y1.7824
G01 F60.00
G01 Z-0.0500
G01 F120.00
G01 X9.9344 Y1.7620
G01 X9.9347 Y1.7480
G01 X10.0487 Y1.7533
G01 X10.0486 Y1.7382
G01 X10.0477 Y1.7186
G01 X10.0457 Y1.6992
G01 X10.0429 Y1.6798
G01 X10.0390 Y1.6606
G01 X10.0343 Y1.6416
G01 X10.0286 Y1.6228
G01 X10.0220 Y1.6044
G01 X10.0145 Y1.5863
G01 X10.0061 Y1.5686
G01 X9.9969 Y1.5513
G01 X9.9868 Y1.5345
G01 X9.9759 Y1.5182
G01 X9.9643 Y1.5025
G01 X9.9519 Y1.4874
G01 X9.9387 Y1.4729
G01 X9.9276 Y1.4617
G01 X9.7856 Y1.4975
G01 X9.8022 Y1.5072
G01 X9.8195 Y1.5191
G01 X9.8359 Y1.5322
G01 X9.8463 Y1.5416
G01 X9.8609 Y1.5566
G01 X9.8744 Y1.5727
G01 X9.8867 Y1.5897
G01 X9.8942 Y1.6015
G01 X9.9043 Y1.6199
G01 X9.9130 Y1.6389
G01 X9.9203 Y1.6586
G01 X9.9244 Y1.6720
G01 X9.9293 Y1.6924
G01 X9.9316 Y1.7062
G01 X9.9340 Y1.7270
G01 X9.9347 Y1.7480
G01 X9.7067 Y1.7480
G01 X9.7065 Y1.7536
G01 X9.7053 Y1.7605
G01 X9.7039 Y1.7659
G01 X9.7018 Y1.7711
G01 X9.6993 Y1.7761
G01 X9.6963 Y1.7808
G01 X9.6929 Y1.7852
G01 X9.6890 Y1.7893
G01 X9.6848 Y1.7929
G01 X9.6802 Y1.7962
G01 X9.6754 Y1.7989
G01 X9.6689 Y1.8017
G01 X9.6636 Y1.8033
G01 X9.6581 Y1.8044
G01 X9.6525 Y1.8049
G01 X9.6469 Y1.8049
G01 X9.6400 Y1.8042
G01 X9.6332 Y1.8025
G01 X9.6266 Y1.8001
G01 X9.6216 Y1.7976
G01 X9.6158 Y1.7938
G01 X9.6104 Y1.7893
G01 X9.6066 Y1.7852
G01 X9.6023 Y1.7797
G01 X9.5988 Y1.7736
G01 X9.5966 Y1.7685
G01 X9.5944 Y1.7618
G01 X9.5932 Y1.7550
G01 X9.5927 Y1.7480
G01 X9.5930 Y1.7424
G01 X9.5941 Y1.7355
G01 X9.5956 Y1.7301
G01 X9.5976 Y1.7249
G01 X9.6001 Y1.7199
G01 X9.6031 Y1.7152
G01 X9.6075 Y1.7097
G01 X9.6115 Y1.7058
G01 X9.6158 Y1.7022
G01 X9.6216 Y1.6984
G01 X9.6266 Y1.6959
G01 X9.6319 Y1.6939
G01 X9.6372 Y1.6924
G01 X9.6441 Y1.6913
G01 X9.6497 Y1.6910
G01 X9.6553 Y1.6913
G01 X9.6609 Y1.6921
G01 X9.6663 Y1.6935
G01 X9.6728 Y1.6959
G01 X9.6802 Y1.6998
G01 X9.6870 Y1.7048
G01 X9.6929 Y1.7108
G01 X9.6979 Y1.7175
G01 X9.7018 Y1.7249
G01 X9.7047 Y1.7328
G01 X9.7063 Y1.7410
G01 X9.7067 Y1.7480
G01 X9.8039 Y1.8219
G01 X9.8093 Y1.8095
G01 X9.8145 Y1.7936
G01 X9.8182 Y1.7772
G01 X9.8203 Y1.7606
G01 X9.8207 Y1.7522
G01 X9.8207 Y1.7480
G01 X9.8207 Y1.7480
G01 X9.8207 Y1.7480
G01 X9.8207 Y1.7438
G01 X9.8199 Y1.7312
G01 X9.8174 Y1.7146
G01 X9.8134 Y1.6984
G01 X9.8093 Y1.6865
G01 X9.8025 Y1.6711
G01 X9.7942 Y1.6565
G01 X9.7845 Y1.6428
G01 X9.7764 Y1.6332
G01 X9.7646 Y1.6213
G01 X9.7516 Y1.6106
G01 X9.7376 Y1.6013
G01 X9.7266 Y1.5953
G01 X9.7113 Y1.5885
G01 X9.6953 Y1.5832
G01 X9.6790 Y1.5795
G01 X9.6665 Y1.5778
G01 X9.6497 Y1.5770
G01 X9.6330 Y1.5778
G01 X9.6164 Y1.5803
G01 X9.6001 Y1.5844
G01 X9.5843 Y1.5900
G01 X9.5728 Y1.5953
G01 X9.5582 Y1.6035
G01 X9.5445 Y1.6132
G01 X9.5318 Y1.6242
G01 X9.5202 Y1.6363
G01 X9.5124 Y1.6461
G01 X9.5031 Y1.6601
G01 X9.4989 Y1.6674
G01 X9.4934 Y1.6787
G01 X9.4887 Y1.6904
G01 X9.4861 Y1.6984
G01 X9.4829 Y1.7105
G01 X9.4813 Y1.7188
G01 X9.4792 Y1.7354
G01 X9.4788 Y1.7438
G01 X9.4789 Y1.7564
G01 X9.4796 Y1.7648
G01 X9.4813 Y1.7772
G01 X9.4839 Y1.7895
G01 X9.4861 Y1.7976
G01 X9.4902 Y1.8095
G01 X9.4934 Y1.8173
G01 X9.4989 Y1.8286
G01 X9.5031 Y1.8359
G01 X9.5124 Y1.8499
G01 X9.5202 Y1.8597
G01 X9.5259 Y1.8659
G01 X9.5380 Y1.8775
G01 X9.5445 Y1.8828
G01 X9.5547 Y1.8902
G01 X9.5618 Y1.8947
G01 X9.5728 Y1.9007
G01 X9.5804 Y1.9043
G01 X9.5905 Y1.9084
G00 Z2.0000
G00 X9.4693 Y1.9686
G01 F60.00
G01 Z-0.0500
G01 F120.00
G01 X9.4532 Y1.9544
G01 X9.4386 Y1.9394
G01 X9.4251 Y1.9233
G01 X9.4128 Y1.9063
G01 X9.4018 Y1.8885
G01 X9.3921 Y1.8698
G01 X9.3838 Y1.8506
G01 X9.3770 Y1.8307
G01 X9.3717 Y1.8104
G01 X9.3678 Y1.7898
G01 X9.3655 Y1.7690
G01 X9.3647 Y1.7480
G01 X9.3655 Y1.7270
G01 X9.3678 Y1.7062
G01 X9.3717 Y1.6856
G01 X9.3774 Y1.6642
G01 X9.2510 Y1.7344
G01 X9.2509 Y1.7382
G01 X9.2509 Y1.7578
G01 X9.2518 Y1.7773
G01 X9.2537 Y1.7968
G01 X9.2566 Y1.8162
G01 X9.2604 Y1.8354
G01 X9.2652 Y1.8544
G01 X9.2709 Y1.8732
G01 X9.2775 Y1.8916
G01 X9.2850 Y1.9097
G01 X9.2933 Y1.9274
G01 X9.3026 Y1.9447
G01 X9.3126 Y1.9615
G01 X9.3235 Y1.9777
G01 X9.3352 Y1.9935
G01 X9.3476 Y2.0086
G01 X9.3672 Y2.0298
G00 Z2.0000
G00 X9.2643 Y2.0989
G01 F60.00
G01 Z-0.0500
G01 F120.00
G01 X9.0401 Y1.8747
G01 X9.0861 Y1.8380
G01 X9.3148 Y1.6943
G01 X9.5582 Y1.5771
G01 X9.8132 Y1.4879
G01 X10.0765 Y1.4277
G01 X10.3449 Y1.3975
G01 X10.6151 Y1.3975
G01 X10.8835 Y1.4277
G01 X11.1468 Y1.4879
G01 X11.4018 Y1.5771
G01 X11.6452 Y1.6943
G01 X11.8739 Y1.8380
G01 X11.9199 Y1.8747
G01 X11.6957 Y2.0989
G01 X11.6420 Y2.0593
G01 X11.4655 Y1.9538
G01 X11.2817 Y1.8670
G01 X11.0926 Y1.7992
G01 X11.0859 Y1.7971
G01 X10.8887 Y1.7478
G01 X10.6853 Y1.7176
G01 X10.4800 Y1.7075
G01 X10.2770 Y1.7174
G01 X10.0759 Y1.7470
G01 X10.0667 Y1.7488
G01 X9.8719 Y1.7977
G01 X9.6804 Y1.8661
G01 X9.4966 Y1.9528
G01 X9.4904 Y1.9560
G01 X9.3180 Y2.0593
G01 X9.2643 Y2.0989
G01 X9.2709 Y2.0939
G01 X9.2613 Y2.0831
G01 X9.2453 Y2.0636
G01 X9.2303 Y2.0434
G01 X9.2163 Y2.0225
G01 X9.2097 Y2.0117
G01 X9.1973 Y1.9898
G01 X9.1860 Y1.9673
G01 X9.1758 Y1.9443
G01 X9.1667 Y1.9208
G01 X9.1626 Y1.9089
G01 X9.1588 Y1.8969
G01 X9.1521 Y1.8726
G01 X9.1492 Y1.8604
G01 X9.1443 Y1.8357
G01 X9.1423 Y1.8233
G01 X9.1406 Y1.8108
G01 X9.1399 Y1.8042
G00 Z2.0000
G00 X13.1414 Y7.3639
G01 F60.00
G01 Z-0.0500
G01 F120.00
G01 X13.1254 Y7.3727
G01 X13.0662 Y7.4073
G01 X13.0078 Y7.4432
G01 X12.9504 Y7.4806
G01 X12.8938 Y7.5194
G01 X12.8364 Y7.5610
G01 X12.9180 Y7.6426
G01 X12.9595 Y7.6126
G01 X13.0137 Y7.5754
G01 X13.0688 Y7.5395
G01 X13.1248 Y7.5050
G01 X13.1816 Y7.4719
G01 X13.2392 Y7.4402
G01 X13.2976 Y7.4100
G01 X13.3566 Y7.3811
G01 X13.4164 Y7.3537
G01 X13.4310 Y7.3475
G01 X13.6462 Y7.3850
G01 X13.5789 Y7.4098
G01 X13.5205 Y7.4332
G01 X13.4626 Y7.4580
G01 X13.4054 Y7.4842
G01 X13.3488 Y7.5118
G01 X13.2929 Y7.5408
G01 X13.2378 Y7.5711
G01 X13.1834 Y7.6028
G01 X13.1298 Y7.6359
G01 X13.0770 Y7.6702
G01 X13.0251 Y7.7058
G01 X12.9996 Y7.7242
G00 Z2.0000
G00 X13.3153 Y7.6586
G01 F60.00
G01 Z-0.0500
G01 F120.00
G01 X13.3467 Y7.6413
G01 X13.4001 Y7.6136
G01 X13.4541 Y7.5872
G01 X13.5088 Y7.5622
G01 X13.5641 Y7.5385
G01 X13.6200 Y7.5161
G01 X13.6763 Y7.4952
G01 X13.7332 Y7.4756
G01 X13.7906 Y7.4574
G01 X13.8253 Y7.4474
G00 Z2.0000
G00 X13.9785 Y7.5254
G01 F60.00
G01 Z-0.0500
G01 F120.00
G01 X13.9342 Y7.5359
G01 X13.8788 Y7.5506
G01 X13.8237 Y7.5665
G01 X13.7690 Y7.5839
G01 X13.7148 Y7.6025
G01 X13.6610 Y7.6225
G01 X13.6077 Y7.6438
G01 X13.5550 Y7.6664
G01 X13.5292 Y7.6782
G00 Z2.0000
G00 X13.6953 Y7.7315
G01 F60.00
G01 Z-0.0500
G01 F120.00
G01 X13.7532 Y7.7099
G01 X13.8048 Y7.6921
G01 X13.8568 Y7.6756
G01 X13.9092 Y7.6604
G01 X13.9619 Y7.6465
G01 X14.0150 Y7.6339
G01 X14.0684 Y7.6226
G01 X14.1220 Y7.6126
G01 X14.1759 Y7.6040
G01 X14.2299 Y7.5966
G01 X14.2842 Y7.5906
G01 X14.3385 Y7.5859
G01 X14.3930 Y7.5826
G01 X14.4475 Y7.5806
G01 X14.5021 Y7.5799
G01 X14.5566 Y7.5806
G01 X14.6111 Y7.5826
G01 X14.6656 Y7.5859
G01 X14.7200 Y7.5906
G01 X14.7742 Y7.5966
G01 X14.8282 Y7.6040
G01 X14.8821 Y7.6126
G01 X14.9358 Y7.6226
G01 X14.9891 Y7.6339
G01 X15.0422 Y7.6465
G01 X15.0839 Y7.6575
G00 Z2.0000
G00 X15.4284 Y7.6575
G01 F60.00
G01 Z-0.0500
G01 F120.00
G01 X15.3964 Y7.6438
G01 X15.3431 Y7.6225
G01 X15.2894 Y7.6025
G01 X15.2351 Y7.5839
G01 X15.1805 Y7.5665
G01 X15.1254 Y7.5506
G01 X15.0699 Y7.5359
G01 X15.0141 Y7.5227
G01 X14.9580 Y7.5108
G01 X14.9016 Y7.5003
G01 X14.8450 Y7.4912
G01 X14.7881 Y7.4835
G01 X14.7311 Y7.4772
G01 X14.6740 Y7.4722
G01 X14.6167 Y7.4687
G01 X14.5594 Y7.4666
G01 X14.5021 Y7.4659
G01 X14.4447 Y7.4666
G01 X14.3874 Y7.4687
G01 X14.3301 Y7.4722
G01 X14.2730 Y7.4772
G01 X14.2327 Y7.4816
G01 X14.4520 Y7.3525
G01 X14.5021 Y7.3519
G01 X14.5622 Y7.3526
G01 X14.6223 Y7.3549
G01 X14.6824 Y7.3585
G01 X14.7423 Y7.3637
G01 X14.8021 Y7.3703
G01 X14.8617 Y7.3784
G01 X14.9211 Y7.3880
G01 X14.9802 Y7.3990
G01 X15.0391 Y7.4115
G01 X15.0976 Y7.4254
G01 X15.1558 Y7.4407
G01 X15.2136 Y7.4574
G01 X15.2709 Y7.4756
G01 X15.3278 Y7.4952
G01 X15.3842 Y7.5161
G01 X15.4400 Y7.5385
G01 X15.4953 Y7.5622
G01 X15.5500 Y7.5872
G01 X15.6041 Y7.6136
G01 X15.6575 Y7.6413
G01 X15.6869 Y7.6575
G01 X15.9076 Y7.6575
G01 X15.8743 Y7.6359
G01 X15.8207 Y7.6028
G01 X15.7663 Y7.5711
G01 X15.7112 Y7.5408
G01 X15.6553 Y7.5118
G01 X15.5987 Y7.4842
G01 X15.5415 Y7.4580
G01 X15.4836 Y7.4332
G01 X15.4252 Y7.4098
G01 X15.3662 Y7.3878
G01 X15.3067 Y7.3674
G01 X15.2420 Y7.3470
G01 X15.5720 Y7.3470
G01 X15.5877 Y7.3537
G01 X15.6475 Y7.3811
G01 X15.7066 Y7.4100
G01 X15.7649 Y7.4402
G01 X15.8225 Y7.4719
G01 X15.8793 Y7.5050
G01 X15.9353 Y7.5395
G01 X15.9904 Y7.5754
G01 X16.0447 Y7.6126
G01 X16.1063 Y7.6575
G00 Z2.0000
G00 X16.2350 Y7.7601
G01 F60.00
G01 Z-0.0500
G01 F120.00
G01 X16.2519 Y7.7743
G01 X16.3012 Y7.8179
G01 X16.3493 Y7.8626
G01 X16.3964 Y7.9086
G01 X16.4423 Y7.9556
G01 X16.4871 Y8.0038
G01 X16.5306 Y8.0531
G01 X16.5455 Y8.0707
G01 X16.5455 Y7.8992
G01 X16.5249 Y7.8770
G01 X16.4770 Y7.8280
G01 X16.4280 Y7.7801
G01 X16.3777 Y7.7334
G01 X16.3264 Y7.6880
G01 X16.2739 Y7.6439
G01 X16.2204 Y7.6011
G01 X16.1659 Y7.5595
G01 X16.1103 Y7.5194
G01 X16.0538 Y7.4806
G01 X15.9963 Y7.4432
G01 X15.9380 Y7.4073
G01 X15.8787 Y7.3727
G01 X15.8319 Y7.3470
G01 X16.0574 Y7.3470
G01 X16.1171 Y7.3858
G01 X16.1759 Y7.4262
G01 X16.2338 Y7.4680
G01 X16.2905 Y7.5112
G01 X16.3462 Y7.5558
G01 X16.4008 Y7.6017
G01 X16.4543 Y7.6490
G01 X16.5066 Y7.6975
G01 X16.5455 Y7.7355
G01 X16.4583 Y7.5011
G01 X16.4186 Y7.4676
G01 X16.3607 Y7.4213
G01 X16.3110 Y7.3835
G01 X16.2350 Y7.9120
G01 X16.2707 Y7.9452
G01 X16.3158 Y7.9892
G01 X16.3598 Y8.0342
G01 X16.4026 Y8.0804
G01 X16.4443 Y8.1275
G01 X16.4848 Y8.1757
G01 X16.5242 Y8.2248
G01 X16.5455 Y8.2529
G01 X16.5455 Y8.4497
G01 X16.5060 Y8.3916
G01 X16.4707 Y8.3428
G01 X16.4343 Y8.2950
G01 X16.3967 Y8.2480
G01 X16.3580 Y8.2020
G01 X16.3181 Y8.1569
G01 X16.2772 Y8.1128
G01 X16.2350 Y8.0696
G00 Z2.0000
G00 X16.2350 Y8.2350
G01 F60.00
G01 Z-0.0500
G01 F120.00
G01 X16.2717 Y8.2764
G01 X16.3086 Y8.3203
G01 X16.3444 Y8.3651
G01 X16.3792 Y8.4108
G01 X16.4128 Y8.4572
G01 X16.4452 Y8.5045
G01 X16.4765 Y8.5526
G01 X16.5066 Y8.6014
G01 X16.5355 Y8.6510
G01 X16.5455 Y8.6692
G01 X16.5455 Y8.9281
G01 X16.5344 Y8.9021
G01 X16.5116 Y8.8524
G01 X16.4877 Y8.8034
G01 X16.4626 Y8.7550
G01 X16.4363 Y8.7072
G01 X16.4088 Y8.6601
G01 X16.3802 Y8.6136
G01 X16.3504 Y8.5679
G01 X16.3196 Y8.5229
G01 X16.2876 Y8.4787
G01 X16.2546 Y8.4352
G01 X16.2350 Y8.4108
G00 Z2.0000
G00 X16.2350 Y8.6011
G01 F60.00
G01 Z-0.0500
G01 F120.00
G01 X16.2556 Y8.6312
G01 X16.2839 Y8.6746
G01 X16.3110 Y8.7187
G01 X16.3371 Y8.7634
G01 X16.3620 Y8.8087
G01 X16.3859 Y8.8547
G01 X16.4086 Y8.9012
G01 X16.4301 Y8.9482
G01 X16.4505 Y8.9958
G01 X16.4697 Y9.0439
G01 X16.4878 Y9.0924
G01 X16.5046 Y9.1413
G01 X16.5203 Y9.1907
G01 X16.5347 Y9.2404
G01 X16.5455 Y9.2815
G01 X16.4834 Y9.5705
G01 X16.4755 Y9.5102
G01 X16.4677 Y9.4618
G01 X16.4587 Y9.4137
G01 X16.4486 Y9.3658
G01 X16.4373 Y9.3182
G01 X16.4248 Y9.2708
G01 X16.4112 Y9.2238
G01 X16.3964 Y9.1771
G01 X16.3804 Y9.1308
G01 X16.3634 Y9.0849
G01 X16.3452 Y9.0394
G01 X16.3259 Y8.9944
G01 X16.3055 Y8.9499
G01 X16.2840 Y8.9059
G01 X16.2615 Y8.8625
G01 X16.2350 Y8.8146
G01 X16.2350 Y9.0717
G01 X16.2570 Y9.1259
G01 X16.2731 Y9.1692
G01 X16.2881 Y9.2129
G01 X16.3021 Y9.2569
G01 X16.3149 Y9.3012
G01 X16.3267 Y9.3459
G01 X16.3374 Y9.3908
G01 X16.3469 Y9.4359
G01 X16.3554 Y9.4813
G01 X16.3627 Y9.5269
G01 X16.3689 Y9.5726
G01 X16.3740 Y9.6185
G01 X16.3780 Y9.6645
G01 X16.3789 Y9.6802
G01 X16.2677 Y9.7376
G01 X16.2669 Y9.7162
G01 X16.2643 Y9.6729
G01 X16.2606 Y9.6297
G01 X16.2558 Y9.5866
G01 X16.2499 Y9.5436
G01 X16.2431 Y9.5008
G01 X16.2351 Y9.4582
G01 X16.2261 Y9.4158
G01 X16.2224 Y9.3998
G00 Z2.0000
G00 X16.1163 Y9.4475
G01 F60.00
G01 Z-0.0500
G01 F120.00
G01 X16.1233 Y9.4804
G01 X16.1307 Y9.5203
G01 X16.1372 Y9.5604
G01 X16.1426 Y9.6006
G01 X16.1471 Y9.6409
G01 X16.1506 Y9.6813
G01 X16.1531 Y9.7218
G01 X16.1546 Y9.7623
G01 X16.1549 Y9.7882
G01 X16.0411 Y9.8029
G01 X16.0406 Y9.7651
G01 X16.0392 Y9.7274
G01 X16.0369 Y9.6897
G01 X16.0337 Y9.6521
G01 X16.0295 Y9.6145
G01 X16.0244 Y9.5771
G01 X16.0184 Y9.5398
G01 X16.0115 Y9.5027
G01 X16.0037 Y9.4657
G01 X15.9993 Y9.4475
G00 Z2.0000
G00 X15.8819 Y9.4475
G01 F60.00
G01 Z-0.0500
G01 F120.00
G01 X15.8924 Y9.4907
G01 X15.8997 Y9.5249
G01 X15.9061 Y9.5593
G01 X15.9116 Y9.5938
G01 X15.9163 Y9.6285
G01 X15.9202 Y9.6632
G01 X15.9232 Y9.6981
G01 X15.9253 Y9.7330
G01 X15.9266 Y9.7679
G01 X15.9271 Y9.8029
G01 X15.9266 Y9.8379
G01 X15.9253 Y9.8728
G01 X15.9232 Y9.9077
G01 X15.9202 Y9.9426
G01 X15.9163 Y9.9773
G01 X15.9116 Y10.0120
G01 X15.9061 Y10.0465
G01 X15.8997 Y10.0809
G01 X15.8924 Y10.1151
G01 X15.8844 Y10.1491
G01 X15.8754 Y10.1830
G01 X15.8657 Y10.2166
G01 X15.8551 Y10.2499
G01 X15.8438 Y10.2830
G01 X15.8349 Y10.3068
G00 Z2.0000
G00 X15.7344 Y10.2500
G01 F60.00
G01 Z-0.0500
G01 F120.00
G01 X15.7469 Y10.2141
G01 X15.7566 Y10.1835
G01 X15.7656 Y10.1526
G01 X15.7738 Y10.1214
G01 X15.7812 Y10.0901
G01 X15.7879 Y10.0587
G01 X15.7938 Y10.0270
G01 X15.7989 Y9.9953
G01 X15.8032 Y9.9634
G01 X15.8068 Y9.9314
G01 X15.8095 Y9.8993
G01 X15.8115 Y9.8672
G01 X15.8127 Y9.8351
G01 X15.8131 Y9.8029
G01 X15.8127 Y9.7707
G01 X15.8115 Y9.7386
G01 X15.8095 Y9.7065
G01 X15.8068 Y9.6744
G01 X15.8032 Y9.6424
G01 X15.7989 Y9.6105
G01 X15.7938 Y9.5788
G01 X15.7879 Y9.5471
G01 X15.7812 Y9.5157
G01 X15.7738 Y9.4844
G01 X15.7639 Y9.4475
G00 Z2.0000
G00 X15.6450 Y9.4475
G01 F60.00
G01 Z-0.0500
G01 F120.00
G01 X15.6557 Y9.4836
G01 X15.6632 Y9.5121
G01 X15.6700 Y9.5406
G01 X15.6761 Y9.5694
G01 X15.6814 Y9.5983
G01 X15.6861 Y9.6273
G01 X15.6901 Y9.6564
G01 X15.6933 Y9.6856
G01 X15.6958 Y9.7148
G01 X15.6976 Y9.7442
G01 X15.6987 Y9.7735
G01 X15.6991 Y9.8029
G01 X15.6987 Y9.8323
G01 X15.6976 Y9.8616
G01 X15.6958 Y9.8910
G01 X15.6933 Y9.9202
G01 X15.6901 Y9.9494
G01 X15.6861 Y9.9785
G01 X15.6814 Y10.0075
G01 X15.6761 Y10.0364
G01 X15.6700 Y10.0652
G01 X15.6632 Y10.0937
G01 X15.6557 Y10.1222
G01 X15.6475 Y10.1504
G01 X15.6386 Y10.1784
G01 X15.6290 Y10.2064
G00 Z2.0000
G00 X15.5188 Y10.1756
G01 F60.00
G01 Z-0.0500
G01 F120.00
G01 X15.5304 Y10.1426
G01 X15.5384 Y10.1173
G01 X15.5458 Y10.0918
G01 X15.5526 Y10.0661
G01 X15.5588 Y10.0402
G01 X15.5643 Y10.0142
G01 X15.5691 Y9.9881
G01 X15.5733 Y9.9618
G01 X15.5769 Y9.9355
G01 X15.5798 Y9.9091
G01 X15.5821 Y9.8826
G01 X15.5838 Y9.8560
G01 X15.5847 Y9.8295
G01 X15.5851 Y9.8029
G01 X15.5847 Y9.7763
G01 X15.5838 Y9.7498
G01 X15.5821 Y9.7232
G01 X15.5798 Y9.6968
G01 X15.5769 Y9.6703
G01 X15.5733 Y9.6440
G01 X15.5691 Y9.6178
G01 X15.5643 Y9.5916
G01 X15.5588 Y9.5656
G01 X15.5526 Y9.5398
G01 X15.5458 Y9.5141
G01 X15.5384 Y9.4885
G01 X15.5304 Y9.4632
G01 X15.5250 Y9.4475
G00 Z2.0000
G00 X15.4035 Y9.4475
G01 F60.00
G01 Z-0.0500
G01 F120.00
G01 X15.4144 Y9.4765
G01 X15.4222 Y9.4989
G01 X15.4293 Y9.5216
G01 X15.4360 Y9.5445
G01 X15.4420 Y9.5675
G01 X15.4475 Y9.5906
G01 X15.4524 Y9.6139
G01 X15.4568 Y9.6372
G01 X15.4606 Y9.6607
G01 X15.4638 Y9.6843
G01 X15.4664 Y9.7079
G01 X15.4684 Y9.7316
G01 X15.4699 Y9.7554
G01 X15.4708 Y9.7791
G01 X15.4711 Y9.8029
G01 X15.4708 Y9.8267
G01 X15.4699 Y9.8504
G01 X15.4684 Y9.8742
G01 X15.4664 Y9.8979
G01 X15.4638 Y9.9215
G01 X15.4606 Y9.9451
G01 X15.4568 Y9.9686
G01 X15.4524 Y9.9919
G01 X15.4475 Y10.0152
G01 X15.4420 Y10.0384
G01 X15.4360 Y10.0613
G01 X15.4293 Y10.0842
G01 X15.4222 Y10.1069
G01 X15.4144 Y10.1293
G01 X15.4026 Y10.1605
G00 Z2.0000
G00 X15.2787 Y10.1604
G01 F60.00
G01 Z-0.0500
G01 F120.00
G01 X15.2920 Y10.1301
G01 X15.2998 Y10.1106
G01 X15.3071 Y10.0909
G01 X15.3139 Y10.0711
G01 X15.3202 Y10.0511
G01 X15.3261 Y10.0309
G01 X15.3314 Y10.0107
G01 X15.3363 Y9.9902
G01 X15.3406 Y9.9697
G01 X15.3445 Y9.9491
G01 X15.3478 Y9.9284
G01 X15.3506 Y9.9076
G01 X15.3529 Y9.8867
G01 X15.3547 Y9.8658
G01 X15.3560 Y9.8449
G01 X15.3568 Y9.8239
G01 X15.3571 Y9.8029
G01 X15.3568 Y9.7819
G01 X15.3560 Y9.7609
G01 X15.3547 Y9.7400
G01 X15.3529 Y9.7191
G01 X15.3506 Y9.6982
G01 X15.3478 Y9.6774
G01 X15.3445 Y9.6567
G01 X15.3406 Y9.6361
G01 X15.3363 Y9.6156
G01 X15.3314 Y9.5952
G01 X15.3261 Y9.5749
G01 X15.3202 Y9.5547
G01 X15.3139 Y9.5347
G01 X15.3071 Y9.5149
G01 X15.2998 Y9.4952
G01 X15.2920 Y9.4757
G01 X15.2796 Y9.4475
G00 Z2.0000
G00 X15.1522 Y9.4475
G01 F60.00
G01 Z-0.0500
G01 F120.00
G01 X15.1639 Y9.4697
G01 X15.1719 Y9.4861
G01 X15.1867 Y9.5193
G01 X15.1934 Y9.5362
G01 X15.2057 Y9.5705
G01 X15.2162 Y9.6053
G01 X15.2209 Y9.6229
G01 X15.2251 Y9.6405
G01 X15.2322 Y9.6762
G01 X15.2350 Y9.6942
G01 X15.2395 Y9.7303
G01 X15.2422 Y9.7665
G01 X15.2431 Y9.8029
G01 X15.2428 Y9.8211
G01 X15.2411 Y9.8574
G01 X15.2395 Y9.8755
G01 X15.2350 Y9.9116
G01 X15.2288 Y9.9475
G01 X15.2251 Y9.9653
G01 X15.2162 Y10.0005
G01 X15.2057 Y10.0353
G01 X15.1934 Y10.0696
G01 X15.1867 Y10.0865
G01 X15.1719 Y10.1197
G01 X15.1639 Y10.1361
G01 X15.1556 Y10.1522
G01 X15.1392 Y10.1811
G00 Z2.0000
G00 X14.9377 Y10.2538
G01 F60.00
G01 Z-0.0500
G01 F120.00
G01 X14.9562 Y10.2352
G01 X14.9768 Y10.2124
G01 X14.9964 Y10.1887
G01 X15.0147 Y10.1639
G01 X15.0234 Y10.1512
G01 X15.0399 Y10.1252
G01 X15.0550 Y10.0985
G01 X15.0689 Y10.0710
G01 X15.0813 Y10.0428
G01 X15.0924 Y10.0141
G01 X15.1021 Y9.9849
G01 X15.1064 Y9.9701
G01 X15.1103 Y9.9553
G01 X15.1170 Y9.9252
G01 X15.1223 Y9.8949
G01 X15.1260 Y9.8644
G01 X15.1283 Y9.8337
G01 X15.1291 Y9.8029
G01 X15.1283 Y9.7721
G01 X15.1274 Y9.7568
G01 X15.1260 Y9.7414
G01 X15.1223 Y9.7109
G01 X15.1170 Y9.6806
G01 X15.1103 Y9.6506
G01 X15.1021 Y9.6209
G01 X15.0924 Y9.5917
G01 X15.0813 Y9.5630
G01 X15.0753 Y9.5488
G01 X15.0621 Y9.5210
G01 X15.0476 Y9.4939
G01 X15.0318 Y9.4675
G01 X15.0186 Y9.4475
G00 Z2.0000
G00 X14.8720 Y9.4475
G01 F60.00
G01 Z-0.0500
G01 F120.00
G01 X14.8822 Y9.4584
G01 X14.8986 Y9.4775
G01 X14.9065 Y9.4873
G01 X14.9215 Y9.5075
G01 X14.9286 Y9.5179
G01 X14.9421 Y9.5392
G01 X14.9545 Y9.5611
G01 X14.9658 Y9.5836
G01 X14.9711 Y9.5950
G01 X14.9807 Y9.6183
G01 X14.9892 Y9.6420
G01 X14.9965 Y9.6661
G01 X15.0026 Y9.6905
G01 X15.0075 Y9.7152
G01 X15.0112 Y9.7401
G01 X15.0126 Y9.7526
G01 X15.0144 Y9.7777
G01 X15.0151 Y9.8029
G01 X15.0149 Y9.8155
G01 X15.0137 Y9.8406
G01 X15.0126 Y9.8532
G01 X15.0095 Y9.8782
G01 X15.0052 Y9.9030
G01 X15.0026 Y9.9153
G01 X14.9997 Y9.9276
G01 X14.9930 Y9.9518
G01 X14.9851 Y9.9757
G01 X14.9760 Y9.9992
G01 X14.9658 Y10.0222
G01 X14.9545 Y10.0447
G01 X14.9421 Y10.0666
G01 X14.9355 Y10.0774
G01 X14.9286 Y10.0879
G01 X14.9141 Y10.1085
G01 X14.8986 Y10.1283
G01 X14.8822 Y10.1474
G01 X14.8648 Y10.1656
G01 X14.8466 Y10.1830
G01 X14.8371 Y10.1914
G01 X14.8177 Y10.2073
G01 X14.7975 Y10.2223
G01 X14.7871 Y10.2294
G01 X14.7658 Y10.2429
G01 X14.7439 Y10.2553
G01 X14.7327 Y10.2611
G01 X14.7100 Y10.2719
G01 X14.6867 Y10.2815
G01 X14.6630 Y10.2900
G01 X14.6389 Y10.2973
G01 X14.6267 Y10.3005
G01 X14.6145 Y10.3034
G01 X14.5898 Y10.3084
G01 X14.5773 Y10.3104
G01 X14.5523 Y10.3134
G01 X14.5272 Y10.3153
G01 X14.5021 Y10.3159
G01 X14.4895 Y10.3157
G01 X14.4643 Y10.3145
G01 X14.4393 Y10.3120
G01 X14.4144 Y10.3084
G01 X14.3897 Y10.3034
G01 X14.3652 Y10.2973
G01 X14.3411 Y10.2900
G01 X14.3292 Y10.2859
G01 X14.3057 Y10.2769
G01 X14.2827 Y10.2666
G01 X14.2714 Y10.2611
G01 X14.2492 Y10.2493
G01 X14.2276 Y10.2363
G01 X14.2067 Y10.2223
G01 X14.1965 Y10.2149
G01 X14.1766 Y10.1995
G01 X14.1576 Y10.1830
G01 X14.1393 Y10.1656
G01 X14.1305 Y10.1566
G01 X14.1136 Y10.1380
G01 X14.0976 Y10.1185
G01 X14.0826 Y10.0983
G01 X14.0755 Y10.0879
G01 X14.0620 Y10.0666
G01 X14.0496 Y10.0447
G01 X14.0438 Y10.0336
G01 X14.0331 Y10.0108
G01 X14.0234 Y9.9875
G01 X14.0191 Y9.9757
G01 X14.0112 Y9.9518
G01 X14.0044 Y9.9276
G01 X13.9989 Y9.9030
G01 X13.9946 Y9.8782
G01 X13.9929 Y9.8657
G01 X13.9915 Y9.8532
G01 X13.9897 Y9.8281
G01 X13.9891 Y9.8029
G01 X13.9892 Y9.7903
G01 X13.9905 Y9.7652
G01 X13.9929 Y9.7401
G01 X13.9966 Y9.7152
G01 X13.9989 Y9.7028
G01 X14.0044 Y9.6783
G01 X14.0112 Y9.6540
G01 X14.0150 Y9.6420
G01 X14.0234 Y9.6183
G01 X14.0281 Y9.6066
G01 X14.0383 Y9.5836
G01 X14.0496 Y9.5611
G01 X14.0557 Y9.5500
G01 X14.0687 Y9.5284
G01 X14.0826 Y9.5075
G01 X14.0976 Y9.4873
G01 X14.1136 Y9.4678
G01 X14.1305 Y9.4492
G01 X14.1393 Y9.4402
G01 X14.1483 Y9.4314
G01 X14.1670 Y9.4145
G01 X14.1865 Y9.3985
G01 X14.2067 Y9.3835
G01 X14.2276 Y9.3695
G01 X14.2492 Y9.3565
G01 X14.2602 Y9.3505
G01 X14.2827 Y9.3392
G01 X14.2942 Y9.3339
G01 X14.3174 Y9.3243
G01 X14.3411 Y9.3158
G01 X14.3652 Y9.3085
G01 X14.3897 Y9.3024
G01 X14.4020 Y9.2998
G01 X14.4268 Y9.2955
G01 X14.4450 Y9.2931
G00 Z2.0000
G00 X14.4615 Y9.4060
G01 F60.00
G01 Z-0.0500
G01 F120.00
G01 X14.4339 Y9.4098
G01 X14.4146 Y9.4136
G01 X14.3956 Y9.4184
G01 X14.3769 Y9.4240
G01 X14.3585 Y9.4306
G01 X14.3404 Y9.4381
G01 X14.3140 Y9.4510
G01 X14.2969 Y9.4607
G01 X14.2804 Y9.4711
G01 X14.2566 Y9.4884
G01 X14.2414 Y9.5008
G01 X14.2269 Y9.5139
G01 X14.2131 Y9.5278
G01 X14.1999 Y9.5423
G01 X14.1816 Y9.5652
G01 X14.1703 Y9.5812
G01 X14.1598 Y9.5978
G01 X14.1502 Y9.6148
G01 X14.1373 Y9.6412
G01 X14.1298 Y9.6593
G01 X14.1232 Y9.6777
G01 X14.1150 Y9.7060
G01 X14.1107 Y9.7251
G01 X14.1074 Y9.7444
G01 X14.1050 Y9.7638
G01 X14.1035 Y9.7833
G01 X14.1032 Y9.8127
G01 X14.1041 Y9.8323
G01 X14.1061 Y9.8517
G01 X14.1107 Y9.8807
G01 X14.1150 Y9.8999
G01 X14.1202 Y9.9187
G01 X14.1298 Y9.9465
G01 X14.1373 Y9.9646
G01 X14.1502 Y9.9910
G01 X14.1598 Y10.0080
G01 X14.1703 Y10.0246
G01 X14.1816 Y10.0406
G01 X14.1936 Y10.0560
G01 X14.2131 Y10.0780
G01 X14.2341 Y10.0985
G01 X14.2489 Y10.1113
G01 X14.2723 Y10.1291
G01 X14.2886 Y10.1400
G01 X14.3140 Y10.1548
G01 X14.3315 Y10.1636
G01 X14.3494 Y10.1715
G01 X14.3676 Y10.1786
G01 X14.3956 Y10.1874
G01 X14.4146 Y10.1922
G01 X14.4435 Y10.1976
G01 X14.4630 Y10.2000
G01 X14.4825 Y10.2014
G01 X14.5119 Y10.2018
G01 X14.5412 Y10.2000
G01 X14.5606 Y10.1976
G01 X14.5799 Y10.1942
G01 X14.6085 Y10.1874
G01 X14.6365 Y10.1786
G01 X14.6548 Y10.1715
G01 X14.6727 Y10.1636
G01 X14.6902 Y10.1548
G01 X14.7072 Y10.1451
G01 X14.7318 Y10.1291
G01 X14.7552 Y10.1113
G01 X14.7627 Y10.1050
G01 X14.7700 Y10.0985
G01 X14.7842 Y10.0850
G01 X14.8042 Y10.0635
G01 X14.8166 Y10.0484
G01 X14.8283 Y10.0327
G01 X14.8392 Y10.0164
G01 X14.8540 Y9.9910
G01 X14.8628 Y9.9735
G01 X14.8743 Y9.9465
G01 X14.8809 Y9.9281
G01 X14.8891 Y9.8999
G01 X14.8934 Y9.8807
G01 X14.8967 Y9.8614
G01 X14.8991 Y9.8420
G01 X14.9009 Y9.8127
G01 X14.9006 Y9.7833
G01 X14.8991 Y9.7638
G01 X14.8967 Y9.7444
G01 X14.8934 Y9.7251
G01 X14.8866 Y9.6965
G01 X14.8809 Y9.6777
G01 X14.8707 Y9.6502
G01 X14.8628 Y9.6323
G01 X14.8492 Y9.6062
G01 X14.8392 Y9.5894
G01 X14.8225 Y9.5652
G01 X14.8105 Y9.5498
G01 X14.7977 Y9.5350
G01 X14.7772 Y9.5139
G01 X14.7627 Y9.5008
G01 X14.7397 Y9.4824
G01 X14.7155 Y9.4658
G01 X14.6987 Y9.4557
G01 X14.6834 Y9.4475
G01 X14.6731 Y9.8029
G01 X14.6730 Y9.7987
G01 X14.6729 Y9.7945
G01 X14.6722 Y9.7861
G01 X14.6698 Y9.7695
G01 X14.6657 Y9.7533
G01 X14.6616 Y9.7414
G01 X14.6548 Y9.7260
G01 X14.6487 Y9.7150
G01 X14.6394 Y9.7010
G01 X14.6315 Y9.6912
G01 X14.6230 Y9.6820
G01 X14.6105 Y9.6707
G01 X14.5971 Y9.6607
G01 X14.5864 Y9.6541
G01 X14.5714 Y9.6466
G01 X14.5597 Y9.6419
G01 X14.5436 Y9.6370
G01 X14.5272 Y9.6338
G01 X14.5146 Y9.6324
G01 X14.4979 Y9.6320
G01 X14.4853 Y9.6327
G01 X14.4687 Y9.6352
G01 X14.4524 Y9.6393
G01 X14.4366 Y9.6449
G01 X14.4252 Y9.6502
G01 X14.4106 Y9.6584
G01 X14.4002 Y9.6656
G01 X14.3872 Y9.6762
G01 X14.3782 Y9.6850
G01 X14.3673 Y9.6977
G01 X14.3576 Y9.7114
G01 X14.3513 Y9.7223
G01 X14.3441 Y9.7375
G01 X14.3384 Y9.7533
G01 X14.3352 Y9.7654
G01 X14.3329 Y9.7778
G01 X14.3315 Y9.7903
G01 X14.3311 Y9.8071
G01 X14.3319 Y9.8197
G01 X14.3336 Y9.8321
G01 X14.3362 Y9.8445
G01 X14.3397 Y9.8565
G01 X14.3441 Y9.8683
G01 X14.3493 Y9.8798
G01 X14.3554 Y9.8908
G01 X14.3623 Y9.9014
G01 X14.3699 Y9.9114
G01 X14.3782 Y9.9208
G01 X14.3872 Y9.9296
G01 X14.3969 Y9.9377
G01 X14.4071 Y9.9451
G01 X14.4215 Y9.9537
G01 X14.4328 Y9.9592
G01 X14.4445 Y9.9639
G01 X14.4565 Y9.9677
G01 X14.4687 Y9.9706
G01 X14.4811 Y9.9726
G01 X14.4937 Y9.9737
G01 X14.5063 Y9.9739
G01 X14.5188 Y9.9731
G01 X14.5313 Y9.9714
G01 X14.5477 Y9.9677
G01 X14.5597 Y9.9639
G01 X14.5714 Y9.9592
G01 X14.5827 Y9.9537
G01 X14.5935 Y9.9474
G01 X14.6005 Y9.9427
G01 X14.6105 Y9.9351
G01 X14.6169 Y9.9296
G01 X14.6259 Y9.9208
G01 X14.6342 Y9.9114
G01 X14.6394 Y9.9048
G01 X14.6442 Y9.8979
G01 X14.6508 Y9.8872
G01 X14.6566 Y9.8760
G01 X14.6600 Y9.8683
G01 X14.6644 Y9.8565
G01 X14.6669 Y9.8485
G01 X14.6689 Y9.8404
G01 X14.6712 Y9.8280
G01 X14.6726 Y9.8155
G01 X14.6730 Y9.8071
G01 X14.6731 Y9.8029
G01 X14.6731 Y9.8029
G01 X14.5591 Y9.8029
G01 X14.5586 Y9.7959
G01 X14.5570 Y9.7877
G01 X14.5542 Y9.7798
G01 X14.5502 Y9.7724
G01 X14.5452 Y9.7657
G01 X14.5403 Y9.7607
G01 X14.5349 Y9.7563
G01 X14.5277 Y9.7520
G01 X14.5199 Y9.7488
G01 X14.5118 Y9.7467
G01 X14.5049 Y9.7460
G01 X14.4965 Y9.7462
G01 X14.4882 Y9.7476
G01 X14.4816 Y9.7497
G01 X14.4752 Y9.7526
G01 X14.4681 Y9.7571
G01 X14.4618 Y9.7626
G01 X14.4563 Y9.7689
G01 X14.4518 Y9.7760
G01 X14.4484 Y9.7837
G01 X14.4462 Y9.7918
G01 X14.4451 Y9.8001
G01 X14.4453 Y9.8085
G01 X14.4468 Y9.8168
G01 X14.4494 Y9.8247
G01 X14.4532 Y9.8322
G01 X14.4580 Y9.8391
G01 X14.4638 Y9.8451
G01 X14.4704 Y9.8503
G01 X14.4777 Y9.8544
G01 X14.4855 Y9.8574
G01 X14.4937 Y9.8593
G01 X14.4993 Y9.8598
G01 X14.5049 Y9.8598
G01 X14.5118 Y9.8591
G01 X14.5173 Y9.8578
G01 X14.5239 Y9.8556
G01 X14.5289 Y9.8532
G01 X14.5337 Y9.8503
G01 X14.5393 Y9.8461
G01 X14.5433 Y9.8422
G01 X14.5470 Y9.8380
G01 X14.5502 Y9.8334
G01 X14.5536 Y9.8273
G01 X14.5562 Y9.8208
G01 X14.5577 Y9.8154
G01 X14.5588 Y9.8085
G01 X14.5591 Y9.8029
G01 X14.7871 Y9.8029
G01 X14.7867 Y9.7889
G01 X14.7857 Y9.7750
G01 X14.7829 Y9.7542
G01 X14.7785 Y9.7337
G01 X14.7727 Y9.7135
G01 X14.7654 Y9.6938
G01 X14.7566 Y9.6748
G01 X14.7465 Y9.6564
G01 X14.7351 Y9.6388
G01 X14.7224 Y9.6221
G01 X14.7085 Y9.6064
G01 X14.6935 Y9.5917
G01 X14.6882 Y9.5871
G01 X14.6829 Y9.5826
G01 X14.6774 Y9.5782
G01 X14.6604 Y9.5659
G01 X14.6486 Y9.5584
G01 X14.6364 Y9.5516
G01 X14.6176 Y9.5424
G01 X14.5981 Y9.5346
G01 X14.5781 Y9.5282
G01 X14.5645 Y9.5248
G01 X14.5508 Y9.5221
G01 X14.5300 Y9.5193
G01 X14.5091 Y9.5180
G01 X14.4951 Y9.5180
G01 X14.4811 Y9.5187
G01 X14.4602 Y9.5210
G01 X14.4465 Y9.5234
G01 X14.4261 Y9.5282
G01 X14.4127 Y9.5323
G01 X14.3930 Y9.5396
G01 X14.3739 Y9.5483
G01 X14.3616 Y9.5549
G01 X14.3496 Y9.5621
G01 X14.3323 Y9.5740
G01 X14.3213 Y9.5826
G01 X14.3055 Y9.5965
G01 X14.2909 Y9.6115
G01 X14.2818 Y9.6221
G01 X14.2691 Y9.6388
G01 X14.2613 Y9.6504
G01 X14.2507 Y9.6686
G01 X14.2444 Y9.6810
G01 X14.2388 Y9.6938
G01 X14.2337 Y9.7069
G01 X14.2293 Y9.7202
G01 X14.2240 Y9.7405
G01 X14.2201 Y9.7611
G01 X14.2184 Y9.7750
G01 X14.2174 Y9.7889
G01 X14.2172 Y9.8099
G01 X14.2178 Y9.8239
G01 X14.2192 Y9.8378
G01 X14.2213 Y9.8516
G01 X14.2240 Y9.8653
G01 X14.2274 Y9.8789
G01 X14.2314 Y9.8923
G01 X14.2362 Y9.9055
G01 X14.2415 Y9.9184
G01 X14.2475 Y9.9310
G01 X14.2541 Y9.9434
G01 X14.2613 Y9.9554
G01 X14.2691 Y9.9670
G01 X14.2774 Y9.9782
G01 X14.2863 Y9.9891
G01 X14.2957 Y9.9994
G01 X14.3055 Y10.0093
G01 X14.3159 Y10.0187
G01 X14.3267 Y10.0276
G01 X14.3380 Y10.0359
G01 X14.3496 Y10.0437
G01 X14.3616 Y10.0509
G01 X14.3739 Y10.0575
G01 X14.3866 Y10.0635
G01 X14.3995 Y10.0688
G01 X14.4193 Y10.0756
G01 X14.4328 Y10.0794
G01 X14.4465 Y10.0824
G01 X14.4602 Y10.0848
G01 X14.4741 Y10.0865
G01 X14.4881 Y10.0876
G01 X14.5021 Y10.0879
G01 X14.5160 Y10.0876
G01 X14.5300 Y10.0865
G01 X14.5439 Y10.0848
G01 X14.5577 Y10.0824
G01 X14.5713 Y10.0794
G01 X14.5848 Y10.0756
G01 X14.5981 Y10.0712
G01 X14.6111 Y10.0662
G01 X14.6239 Y10.0605
G01 X14.6364 Y10.0543
G01 X14.6486 Y10.0474
G01 X14.6604 Y10.0399
G01 X14.6718 Y10.0318
G01 X14.6829 Y10.0232
G01 X14.6935 Y10.0141
G01 X14.7036 Y10.0044
G01 X14.7132 Y9.9943
G01 X14.7224 Y9.9837
G01 X14.7310 Y9.9727
G01 X14.7390 Y9.9612
G01 X14.7465 Y9.9494
G01 X14.7534 Y9.9373
G01 X14.7597 Y9.9248
G01 X14.7654 Y9.9120
G01 X14.7704 Y9.8989
G01 X14.7748 Y9.8856
G01 X14.7785 Y9.8722
G01 X14.7816 Y9.8585
G01 X14.7840 Y9.8447
G01 X14.7849 Y9.8378
G01 X14.7857 Y9.8308
G01 X14.7867 Y9.8169
G01 X14.7871 Y9.8029
G01 X14.7540 Y10.3771
G01 X14.7277 Y10.3879
G01 X14.7133 Y10.3933
G01 X14.6841 Y10.4029
G01 X14.6544 Y10.4111
G01 X14.6244 Y10.4179
G01 X14.5941 Y10.4231
G01 X14.5788 Y10.4252
G01 X14.5482 Y10.4282
G01 X14.5175 Y10.4297
G01 X14.4867 Y10.4297
G01 X14.4559 Y10.4282
G01 X14.4253 Y10.4252
G01 X14.4101 Y10.4231
G01 X14.3797 Y10.4179
G01 X14.3497 Y10.4111
G01 X14.3201 Y10.4029
G01 X14.2908 Y10.3933
G01 X14.2764 Y10.3879
G01 X14.2480 Y10.3761
G01 X14.2202 Y10.3630
G01 X14.1930 Y10.3484
G01 X14.1797 Y10.3407
G01 X14.1537 Y10.3242
G01 X14.1286 Y10.3065
G01 X14.1043 Y10.2876
G01 X14.0810 Y10.2675
G01 X14.0587 Y10.2463
G01 X14.0480 Y10.2352
G01 X14.0273 Y10.2124
G01 X14.0078 Y10.1887
G01 X13.9894 Y10.1639
G01 X13.9723 Y10.1383
G01 X13.9643 Y10.1252
G01 X13.9491 Y10.0985
G01 X13.9353 Y10.0710
G01 X13.9228 Y10.0428
G01 X13.9117 Y10.0141
G01 X13.9067 Y9.9996
G01 X13.8978 Y9.9701
G01 X13.8903 Y9.9403
G01 X13.8843 Y9.9101
G01 X13.8798 Y9.8797
G01 X13.8768 Y9.8490
G01 X13.8753 Y9.8183
G01 X13.8753 Y9.7875
G01 X13.8768 Y9.7568
G01 X13.8798 Y9.7262
G01 X13.8843 Y9.6957
G01 X13.8903 Y9.6655
G01 X13.8978 Y9.6357
G01 X13.9067 Y9.6062
G01 X13.9171 Y9.5772
G01 X13.9289 Y9.5488
G01 X13.9420 Y9.5210
G01 X13.9565 Y9.4939
G01 X13.9723 Y9.4675
G01 X13.9807 Y9.4546
G01 X13.9985 Y9.4294
G01 X14.0174 Y9.4051
G01 X14.0375 Y9.3818
G01 X14.0587 Y9.3595
G01 X14.0810 Y9.3383
G01 X14.1043 Y9.3182
G01 X14.1163 Y9.3086
G01 X14.1286 Y9.2993
G01 X14.1537 Y9.2816
G01 X14.1797 Y9.2651
G01 X14.1930 Y9.2574
G01 X14.2202 Y9.2429
G01 X14.2480 Y9.2297
G01 X14.2764 Y9.2179
G01 X14.3054 Y9.2075
G01 X14.3201 Y9.2029
G01 X14.3497 Y9.1947
G01 X14.3797 Y9.1880
G01 X14.4101 Y9.1827
G01 X14.4253 Y9.1806
G01 X14.4450 Y9.1785
G01 X14.4450 Y9.0641
G01 X14.4114 Y9.0675
G01 X14.3933 Y9.0699
G01 X14.3575 Y9.0761
G01 X14.3220 Y9.0841
G01 X14.2870 Y9.0938
G01 X14.2524 Y9.1052
G01 X14.2185 Y9.1183
G01 X14.1852 Y9.1330
G01 X14.1528 Y9.1494
G01 X14.1211 Y9.1673
G01 X14.0904 Y9.1868
G01 X14.0607 Y9.2077
G01 X14.0320 Y9.2301
G01 X14.0044 Y9.2539
G01 X13.9781 Y9.2789
G01 X13.9530 Y9.3053
G01 X13.9293 Y9.3328
G01 X13.9069 Y9.3615
G01 X13.8859 Y9.3912
G01 X13.8665 Y9.4220
G01 X13.8486 Y9.4536
G01 X13.8322 Y9.4861
G01 X13.8175 Y9.5193
G01 X13.8044 Y9.5533
G01 X13.7930 Y9.5878
G01 X13.7833 Y9.6229
G01 X13.7753 Y9.6583
G01 X13.7691 Y9.6942
G01 X13.7646 Y9.7303
G01 X13.7620 Y9.7665
G01 X13.7611 Y9.8029
G01 X13.7620 Y9.8393
G01 X13.7631 Y9.8574
G01 X13.7666 Y9.8936
G01 X13.7720 Y9.9296
G01 X13.7791 Y9.9653
G01 X13.7879 Y10.0005
G01 X13.7985 Y10.0353
G01 X13.8107 Y10.0696
G01 X13.8246 Y10.1032
G01 X13.8402 Y10.1361
G01 X13.8573 Y10.1681
G01 X13.8760 Y10.1993
G01 X13.8962 Y10.2296
G01 X13.9179 Y10.2588
G01 X13.9410 Y10.2869
G01 X13.9654 Y10.3139
G01 X13.9911 Y10.3396
G01 X14.0181 Y10.3640
G01 X14.0462 Y10.3871
G01 X14.0754 Y10.4087
G01 X14.1056 Y10.4289
G01 X14.1368 Y10.4476
G01 X14.1689 Y10.4648
G01 X14.2018 Y10.4803
G01 X14.2354 Y10.4943
G01 X14.2696 Y10.5065
G01 X14.3044 Y10.5171
G01 X14.3397 Y10.5259
G01 X14.3754 Y10.5330
G01 X14.4114 Y10.5383
G01 X14.4476 Y10.5419
G01 X14.4839 Y10.5437
G01 X14.5202 Y10.5437
G01 X14.5566 Y10.5419
G01 X14.5747 Y10.5403
G01 X14.6100 Y10.5360
G00 Z2.0000
G00 X14.5380 Y10.6571
G01 F60.00
G01 Z-0.0500
G01 F120.00
G01 X14.5021 Y10.6579
G01 X14.4811 Y10.6576
G01 X14.4601 Y10.6569
G01 X14.4392 Y10.6556
G01 X14.4183 Y10.6538
G01 X14.3974 Y10.6515
G01 X14.3766 Y10.6486
G01 X14.3559 Y10.6453
G01 X14.3353 Y10.6415
G01 X14.3147 Y10.6371
G01 X14.2943 Y10.6323
G01 X14.2740 Y10.6269
G01 X14.2539 Y10.6211
G01 X14.2339 Y10.6147
G01 X14.2140 Y10.6079
G01 X14.1944 Y10.6006
G01 X14.1749 Y10.5928
G01 X14.1556 Y10.5846
G01 X14.1365 Y10.5758
G01 X14.1176 Y10.5666
G01 X14.0990 Y10.5569
G01 X14.0761 Y10.5442
G00 Z2.0000
G00 X14.1678 Y10.7124
G01 F60.00
G01 Z-0.0500
G01 F120.00
G01 X14.1981 Y10.7230
G01 X14.2208 Y10.7302
G01 X14.2436 Y10.7368
G01 X14.2666 Y10.7429
G01 X14.2898 Y10.7484
G01 X14.3130 Y10.7533
G01 X14.3364 Y10.7576
G01 X14.3599 Y10.7614
G01 X14.3834 Y10.7646
G01 X14.4071 Y10.7672
G01 X14.4308 Y10.7693
G01 X14.4545 Y10.7707
G01 X14.4909 Y10.7718
G00 Z2.0000
G00 X14.4610 Y10.8850
G01 F60.00
G01 Z-0.0500
G01 F120.00
G01 X14.4224 Y10.8830
G01 X14.3959 Y10.8807
G01 X14.3695 Y10.8778
G01 X14.3432 Y10.8742
G01 X14.3169 Y10.8700
G01 X14.2908 Y10.8651
G01 X14.2648 Y10.8596
G01 X14.2389 Y10.8534
G01 X14.2099 Y10.8457
G00 Z2.0000
G00 X14.2310 Y10.9687
G01 F60.00
G01 Z-0.0500
G01 F120.00
G01 X14.2685 Y10.9769
G01 X14.2974 Y10.9823
G01 X14.3264 Y10.9869
G01 X14.3555 Y10.9909
G01 X14.3847 Y10.9941
G01 X14.4140 Y10.9967
G01 X14.4475 Y10.9986
G00 Z2.0000
G00 X14.4478 Y11.1127
G01 F60.00
G01 Z-0.0500
G01 F120.00
G01 X14.4056 Y11.1104
G01 X14.3736 Y11.1076
G01 X14.3416 Y11.1040
G01 X14.3097 Y11.0997
G01 X14.2779 Y11.0946
G01 X14.2335 Y11.0860
G00 Z2.0000
G00 X14.2349 Y11.0478
G01 F60.00
G01 Z-0.0500
G01 F120.00
G01 X14.2349 Y11.0572
G01 X14.2307 Y11.1402
G01 X14.2178 Y11.2271
G01 X14.1965 Y11.3123
G01 X14.1669 Y11.3950
G01 X14.1293 Y11.4744
G01 X14.0842 Y11.5497
G01 X14.0318 Y11.6203
G01 X13.9729 Y11.6854
G01 X13.9078 Y11.7443
G01 X13.8372 Y11.7967
G01 X13.7619 Y11.8418
G01 X13.6825 Y11.8794
G01 X13.5998 Y11.9090
G01 X13.5146 Y11.9303
G01 X13.4277 Y11.9432
G01 X13.3400 Y11.9475
G01 X13.2523 Y11.9432
G01 X13.1654 Y11.9303
G01 X13.0802 Y11.9090
G01 X12.9975 Y11.8794
G01 X12.9181 Y11.8418
G01 X12.8428 Y11.7967
G01 X12.7722 Y11.7443
G01 X12.7071 Y11.6854
G01 X12.6482 Y11.6203
G01 X12.5958 Y11.5497
G01 X12.5507 Y11.4744
G01 X12.5131 Y11.3950
G01 X12.4835 Y11.3123
G01 X12.4622 Y11.2271
G01 X12.4493 Y11.1402
G01 X12.4450 Y11.0525
G01 X12.4493 Y10.9648
G01 X12.4622 Y10.8779
G01 X12.4835 Y10.7927
G01 X12.5131 Y10.7100
G01 X12.5507 Y10.6306
G01 X12.5958 Y10.5553
G01 X12.6482 Y10.4847
G01 X12.7071 Y10.4196
G01 X12.7722 Y10.3607
G01 X12.8428 Y10.3083
G01 X12.9181 Y10.2632
G01 X12.9975 Y10.2256
G01 X13.0802 Y10.1960
G01 X13.1654 Y10.1747
G01 X13.2523 Y10.1618
G01 X13.3400 Y10.1575
G01 X13.4277 Y10.1618
G01 X13.5146 Y10.1747
G01 X13.5998 Y10.1960
G01 X13.6825 Y10.2256
G01 X13.7619 Y10.2632
G01 X13.8372 Y10.3083
G01 X13.9078 Y10.3607
G01 X13.9729 Y10.4196
G01 X14.0318 Y10.4847
G01 X14.0842 Y10.5553
G01 X14.1293 Y10.6306
G01 X14.1669 Y10.7100
G01 X14.1965 Y10.7927
G01 X14.2178 Y10.8779
G01 X14.2307 Y10.9648
G01 X14.2349 Y11.0478
G00 Z2.0000
G00 X14.2219 Y11.2001
G01 F60.00
G01 Z-0.0500
G01 F120.00
G01 X14.2584 Y11.2069
G01 X14.2930 Y11.2125
G01 X14.3276 Y11.2172
G01 X14.3624 Y11.2210
G01 X14.3972 Y11.2240
G01 X14.4321 Y11.2262
G01 X14.4622 Y11.2273
G00 Z2.0000
G00 X14.4940 Y11.3418
G01 F60.00
G01 Z-0.0500
G01 F120.00
G01 X14.4643 Y11.3414
G01 X14.4265 Y11.3400
G01 X14.3888 Y11.3377
G01 X14.3512 Y11.3345
G01 X14.3137 Y11.3303
G01 X14.2762 Y11.3252
G01 X14.2390 Y11.3192
G01 X14.1968 Y11.3113
G00 Z2.0000
G00 X14.1556 Y11.4191
G01 F60.00
G01 Z-0.0500
G01 F120.00
G01 X14.1796 Y11.4241
G01 X14.2195 Y11.4316
G01 X14.2595 Y11.4380
G01 X14.2997 Y11.4435
G01 X14.3400 Y11.4479
G01 X14.3805 Y11.4514
G01 X14.4210 Y11.4539
G01 X14.4615 Y11.4554
G01 X14.5021 Y11.4559
G01 X14.5416 Y11.4554
G00 Z2.0000
G00 X14.6082 Y11.5666
G01 F60.00
G01 Z-0.0500
G01 F120.00
G01 X14.5888 Y11.5678
G01 X14.5454 Y11.5694
G01 X14.5021 Y11.5699
G01 X14.4587 Y11.5694
G01 X14.4154 Y11.5678
G01 X14.3721 Y11.5651
G01 X14.3289 Y11.5614
G01 X14.2858 Y11.5566
G01 X14.2428 Y11.5508
G01 X14.2000 Y11.5439
G01 X14.1573 Y11.5360
G01 X14.1149 Y11.5270
G01 X14.1001 Y11.5234
G00 Z2.0000
G00 X14.0292 Y11.6234
G01 F60.00
G01 Z-0.0500
G01 F120.00
G01 X14.0450 Y11.6275
G01 X14.0899 Y11.6382
G01 X14.1351 Y11.6478
G01 X14.1805 Y11.6562
G01 X14.2261 Y11.6635
G01 X14.2718 Y11.6698
G01 X14.3177 Y11.6748
G01 X14.3637 Y11.6788
G01 X14.4098 Y11.6816
G01 X14.4559 Y11.6833
G01 X14.5021 Y11.6839
G01 X14.5482 Y11.6833
G01 X14.5944 Y11.6816
G01 X14.6404 Y11.6788
G01 X14.6964 Y11.6737
G00 Z2.0000
G00 X14.8115 Y11.7736
G01 F60.00
G01 Z-0.0500
G01 F120.00
G01 X14.7948 Y11.7763
G01 X14.7463 Y11.7829
G01 X14.6976 Y11.7883
G01 X14.6488 Y11.7925
G01 X14.6000 Y11.7955
G01 X14.5510 Y11.7973
G01 X14.5021 Y11.7979
G01 X14.4531 Y11.7973
G01 X14.4042 Y11.7955
G01 X14.3553 Y11.7925
G01 X14.3065 Y11.7883
G01 X14.2579 Y11.7829
G01 X14.2093 Y11.7763
G01 X14.1610 Y11.7685
G01 X14.1129 Y11.7596
G01 X14.0650 Y11.7494
G01 X14.0173 Y11.7381
G01 X13.9700 Y11.7256
G01 X13.9386 Y11.7165
G00 Z2.0000
G00 X13.8293 Y11.8016
G01 F60.00
G01 Z-0.0500
G01 F120.00
G01 X13.8899 Y11.8211
G01 X13.9396 Y11.8355
G01 X13.9896 Y11.8487
G01 X14.0400 Y11.8607
G01 X14.0906 Y11.8714
G01 X14.1415 Y11.8809
G01 X14.1926 Y11.8891
G01 X14.2128 Y11.8918
G00 Z2.0000
G00 X14.1015 Y11.9893
G01 F60.00
G01 Z-0.0500
G01 F120.00
G01 X14.0684 Y11.9832
G01 X14.0150 Y11.9719
G01 X13.9619 Y11.9593
G01 X13.9092 Y11.9454
G01 X13.8568 Y11.9302
G01 X13.8048 Y11.9137
G01 X13.7532 Y11.8960
G01 X13.6944 Y11.8739
G00 Z2.0000
G00 X13.5280 Y11.9271
G01 F60.00
G01 Z-0.0500
G01 F120.00
G01 X13.5550 Y11.9394
G01 X13.6077 Y11.9620
G01 X13.6610 Y11.9833
G01 X13.7148 Y12.0033
G01 X13.7690 Y12.0219
G01 X13.8237 Y12.0393
G01 X13.8788 Y12.0552
G01 X13.9342 Y12.0699
G01 X13.9767 Y12.0800
G01 X13.8250 Y12.1583
G01 X13.7906 Y12.1484
G01 X13.7332 Y12.1302
G01 X13.6763 Y12.1106
G01 X13.6200 Y12.0897
G01 X13.5641 Y12.0673
G01 X13.5088 Y12.0436
G01 X13.4541 Y12.0186
G01 X13.4001 Y11.9922
G01 X13.3467 Y11.9645
G01 X13.3137 Y11.9463
G00 Z2.0000
G00 X12.9952 Y11.8784
G01 F60.00
G01 Z-0.0500
G01 F120.00
G01 X13.0251 Y11.9000
G01 X13.0770 Y11.9356
G01 X13.1298 Y11.9700
G01 X13.1834 Y12.0030
G01 X13.2378 Y12.0347
G01 X13.2929 Y12.0650
G01 X13.3488 Y12.0940
G01 X13.4054 Y12.1216
G01 X13.4626 Y12.1479
G01 X13.5205 Y12.1727
G01 X13.5789 Y12.1960
G01 X13.6379 Y12.2180
G01 X13.6458 Y12.2207
G01 X13.4303 Y12.2580
G01 X13.4164 Y12.2521
G01 X13.3566 Y12.2247
G01 X13.2976 Y12.1959
G01 X13.2392 Y12.1656
G01 X13.1816 Y12.1339
G01 X13.1248 Y12.1008
G01 X13.0688 Y12.0663
G01 X13.0137 Y12.0304
G01 X12.9595 Y11.9932
G01 X12.9062 Y11.9547
G01 X12.8539 Y11.9149
G01 X12.8025 Y11.8738
G01 X12.7522 Y11.8315
G01 X12.7030 Y11.7879
G01 X12.6548 Y11.7432
G01 X12.6077 Y11.6972
G01 X12.5618 Y11.6502
G01 X12.5171 Y11.6020
G01 X12.4735 Y11.5528
G01 X12.4312 Y11.5024
G01 X12.3901 Y11.4511
G01 X12.3503 Y11.3988
G01 X12.3118 Y11.3455
G01 X12.2746 Y11.2913
G01 X12.2387 Y11.2362
G01 X12.2042 Y11.1802
G01 X12.1711 Y11.1234
G01 X12.1394 Y11.0658
G01 X12.1345 Y11.0563
G01 X12.1345 Y11.1474
G01 X12.1642 Y11.3348
G01 X12.2228 Y11.5153
G01 X12.3090 Y11.6843
G01 X12.4205 Y11.8378
G01 X12.5547 Y11.9720
G01 X12.7082 Y12.0835
G01 X12.8772 Y12.1697
G01 X13.0577 Y12.2283
G01 X13.2451 Y12.2580
G01 X13.4349 Y12.2580
G01 X13.6223 Y12.2283
G01 X13.8028 Y12.1697
G01 X13.9718 Y12.0835
G01 X14.1253 Y11.9720
G01 X14.1851 Y11.9122
G01 X14.1936 Y11.9047
G01 X14.2010 Y11.8994
G01 X14.2453 Y11.8709
G01 X14.2535 Y11.8662
G01 X14.2600 Y11.8632
G01 X14.2689 Y11.8600
G01 X14.2758 Y11.8582
G01 X14.2828 Y11.8569
G01 X14.2899 Y11.8561
G01 X14.3667 Y11.8509
G01 X14.3761 Y11.8514
G01 X14.3854 Y11.8528
G01 X14.3945 Y11.8552
G01 X14.4034 Y11.8584
G01 X14.4119 Y11.8625
G01 X14.4771 Y11.8982
G01 X14.4864 Y11.9047
G01 X14.4932 Y11.9106
G01 X14.5547 Y11.9720
G01 X14.7082 Y12.0835
G01 X14.8772 Y12.1697
G01 X15.0577 Y12.2283
G01 X15.2451 Y12.2580
G01 X15.4349 Y12.2580
G01 X15.6223 Y12.2283
G01 X15.8028 Y12.1697
G01 X15.9215 Y12.1092
G01 X15.9718 Y12.0835
G01 X16.1253 Y11.9720
G01 X16.2595 Y11.8378
G01 X16.3710 Y11.6843
G01 X16.4572 Y11.5153
G01 X16.5158 Y11.3348
G01 X16.5455 Y11.1474
G01 X16.5455 Y10.9576
G01 X16.5158 Y10.7702
G01 X16.4572 Y10.5897
G01 X16.3710 Y10.4207
G01 X16.2595 Y10.2672
G01 X16.1134 Y10.1209
G01 X16.1089 Y10.1155
G01 X16.1048 Y10.1099
G01 X16.1011 Y10.1039
G01 X16.0975 Y10.0968
G01 X16.0740 Y10.0634
G01 X16.0696 Y10.0554
G01 X16.0660 Y10.0469
G01 X16.0632 Y10.0382
G01 X16.0613 Y10.0293
G01 X16.0542 Y9.9528
G01 X16.0539 Y9.9411
G01 X16.0551 Y9.9293
G01 X16.0570 Y9.9201
G01 X16.0599 Y9.9111
G01 X16.0647 Y9.9003
G01 X16.1006 Y9.8323
G01 X16.1060 Y9.8245
G01 X16.1105 Y9.8191
G01 X16.1154 Y9.8140
G01 X16.1225 Y9.8078
G01 X16.1282 Y9.8036
G01 X16.1342 Y9.7999
G01 X16.1949 Y9.7653
G01 X16.2030 Y9.7612
G01 X16.2114 Y9.7579
G01 X16.2198 Y9.7555
G01 X16.3363 Y9.7121
G01 X16.4297 Y9.6422
G01 X16.4996 Y9.5488
G01 X16.5409 Y9.4380
G01 X16.5455 Y9.3953
G01 X16.5455 Y7.7097
G01 X16.5409 Y7.6670
G01 X16.4996 Y7.5562
G01 X16.4297 Y7.4628
G01 X16.3363 Y7.3929
G01 X16.2255 Y7.3516
G01 X16.1828 Y7.3470
G01 X14.4972 Y7.3470
G01 X14.4545 Y7.3516
G01 X14.3437 Y7.3929
G01 X14.2502 Y7.4629
G01 X14.2439 Y7.4701
G01 X14.2184 Y7.4961
G01 X14.2114 Y7.5021
G01 X14.2018 Y7.5086
G01 X14.1957 Y7.5119
G01 X14.1893 Y7.5147
G01 X14.1202 Y7.5426
G01 X14.1111 Y7.5453
G01 X14.1019 Y7.5471
G01 X14.0925 Y7.5479
G01 X14.0854 Y7.5479
G01 X14.0737 Y7.5467
G01 X14.0027 Y7.5334
G01 X13.9961 Y7.5319
G01 X13.9874 Y7.5292
G01 X13.9771 Y7.5247
G01 X13.8026 Y7.4358
G01 X13.6222 Y7.3772
G01 X13.4348 Y7.3475
G01 X13.2452 Y7.3475
G01 X13.0578 Y7.3772
G01 X12.8774 Y7.4358
G01 X12.7673 Y7.4919
G01 X13.0000 Y7.7246
G01 X13.0802 Y7.6960
G01 X13.1608 Y7.6757
G01 X13.1700 Y7.6739
G01 X13.2523 Y7.6618
G01 X13.3353 Y7.6576
G01 X13.3447 Y7.6576
G01 X13.4277 Y7.6618
G01 X13.5100 Y7.6739
G01 X13.5192 Y7.6757
G01 X13.5998 Y7.6960
G01 X13.6782 Y7.7239
G01 X13.6868 Y7.7275
G01 X13.7619 Y7.7632
G01 X13.8333 Y7.8058
G01 X13.8410 Y7.8110
G01 X13.9096 Y7.8622
G01 X13.9729 Y7.9196
G01 X14.0288 Y7.9812
G01 X14.0347 Y7.9884
G01 X14.0842 Y8.0553
G01 X14.1270 Y8.1265
G01 X14.1314 Y8.1348
G01 X14.1669 Y8.2100
G01 X14.1950 Y8.2883
G01 X14.1977 Y8.2972
G01 X14.2178 Y8.3779
G01 X14.2301 Y8.4601
G01 X14.2310 Y8.4694
G01 X14.2350 Y8.5525
G01 X14.2310 Y8.6356
G01 X14.2301 Y8.6449
G01 X14.2182 Y8.7248
G01 X14.1965 Y8.8123
G01 X14.1669 Y8.8950
G01 X14.1293 Y8.9744
G01 X14.0842 Y9.0497
G01 X14.0318 Y9.1203
G01 X13.9729 Y9.1854
G01 X13.9078 Y9.2443
G01 X13.8410 Y9.2940
G01 X13.8333 Y9.2992
G01 X13.7660 Y9.3395
G01 X13.7577 Y9.3439
G01 X13.6825 Y9.3794
G01 X13.6042 Y9.4075
G01 X13.5953 Y9.4102
G01 X13.5146 Y9.4303
G01 X13.4277 Y9.4432
G01 X13.3400 Y9.4475
G01 X13.2569 Y9.4435
G01 X13.2476 Y9.4426
G01 X13.1654 Y9.4303
G01 X13.0847 Y9.4102
G01 X13.0758 Y9.4075
G01 X13.0000 Y9.3804
G01 X12.7666 Y9.6138
G01 X12.7746 Y9.6199
G01 X12.8214 Y9.6605
G01 X12.8293 Y9.6687
G01 X12.8362 Y9.6777
G01 X12.8420 Y9.6875
G01 X12.8466 Y9.6980
G01 X12.8713 Y9.7708
G01 X12.8734 Y9.7800
G01 X12.8747 Y9.7893
G01 X12.8750 Y9.7987
G01 X12.8740 Y9.8105
G01 X12.8722 Y9.8197
G01 X12.8554 Y9.8876
G01 X12.8534 Y9.8944
G01 X12.8510 Y9.9010
G01 X12.8469 Y9.9095
G01 X12.8434 Y9.9156
G01 X12.8379 Y9.9233
G01 X12.8334 Y9.9288
G01 X12.7776 Y9.9818
G01 X12.7707 Y9.9877
G01 X12.7653 Y9.9916
G01 X12.7575 Y9.9963
G01 X12.7082 Y10.0215
G01 X12.5547 Y10.1330
G01 X12.4205 Y10.2672
G01 X12.3090 Y10.4207
G01 X12.2228 Y10.5897
G01 X12.1642 Y10.7702
G01 X12.1345 Y10.9576
G01 X12.1345 Y11.1474
G00 Z2.0000
G00 X12.1633 Y11.3293
G01 F60.00
G01 Z-0.0500
G01 F120.00
G01 X12.1798 Y11.3546
G01 X12.2186 Y11.4111
G01 X12.2587 Y11.4667
G01 X12.3002 Y11.5212
G01 X12.3430 Y11.5748
G01 X12.3872 Y11.6272
G01 X12.4326 Y11.6786
G01 X12.4792 Y11.7288
G01 X12.5271 Y11.7779
G01 X12.5762 Y11.8257
G01 X12.6264 Y11.8724
G01 X12.6778 Y11.9178
G01 X12.7302 Y11.9619
G01 X12.7837 Y12.0048
G01 X12.8383 Y12.0463
G01 X12.8938 Y12.0864
G01 X12.9504 Y12.1252
G01 X13.0078 Y12.1626
G01 X13.0662 Y12.1985
G01 X13.1254 Y12.2331
G01 X13.1407 Y12.2415
G01 X12.6313 Y12.0277
G01 X12.6033 Y12.0041
G01 X12.5498 Y11.9568
G01 X12.4976 Y11.9083
G01 X12.4465 Y11.8585
G01 X12.4034 Y11.8142
G01 X12.5429 Y11.4581
G01 X12.5193 Y11.4301
G01 X12.4800 Y11.3810
G01 X12.4418 Y11.3309
G01 X12.4050 Y11.2799
G01 X12.3693 Y11.2279
G01 X12.3350 Y11.1752
G01 X12.3020 Y11.1216
G01 X12.2703 Y11.0672
G01 X12.2399 Y11.0120
G01 X12.2109 Y10.9562
G01 X12.1833 Y10.8996
G01 X12.1539 Y10.8349
G01 X12.2028 Y10.6514
G01 X12.2153 Y10.6850
G01 X12.2376 Y10.7409
G01 X12.2613 Y10.7961
G01 X12.2864 Y10.8508
G01 X12.3128 Y10.9049
G01 X12.3405 Y10.9583
G01 X12.3695 Y11.0110
G01 X12.3998 Y11.0630
G01 X12.4313 Y11.1142
G01 X12.4495 Y11.1421
G00 Z2.0000
G00 X12.4545 Y10.9290
G01 F60.00
G01 Z-0.0500
G01 F120.00
G01 X12.4410 Y10.9046
G01 X12.4146 Y10.8536
G01 X12.3894 Y10.8021
G01 X12.3656 Y10.7500
G01 X12.3430 Y10.6972
G01 X12.3217 Y10.6440
G01 X12.3017 Y10.5902
G01 X12.2830 Y10.5360
G01 X12.2704 Y10.4963
G01 X12.3509 Y10.3629
G01 X12.3596 Y10.3958
G01 X12.3748 Y10.4482
G01 X12.3913 Y10.5002
G01 X12.4090 Y10.5518
G01 X12.4280 Y10.6029
G01 X12.4483 Y10.6536
G01 X12.4698 Y10.7038
G01 X12.4954 Y10.7593
G00 Z2.0000
G00 X12.5575 Y10.6190
G01 F60.00
G01 Z-0.0500
G01 F120.00
G01 X12.5344 Y10.5619
G01 X12.5163 Y10.5134
G01 X12.4995 Y10.4645
G01 X12.4839 Y10.4151
G01 X12.4695 Y10.3654
G01 X12.4563 Y10.3153
G01 X12.4443 Y10.2650
G01 X12.4405 Y10.2471
G01 X12.5376 Y10.1501
G01 X12.5454 Y10.1921
G01 X12.5555 Y10.2400
G01 X12.5669 Y10.2876
G01 X12.5793 Y10.3350
G01 X12.5930 Y10.3820
G01 X12.6078 Y10.4287
G01 X12.6237 Y10.4750
G01 X12.6342 Y10.5033
G00 Z2.0000
G00 X12.7209 Y10.4071
G01 F60.00
G01 Z-0.0500
G01 F120.00
G01 X12.7160 Y10.3929
G01 X12.7021 Y10.3489
G01 X12.6892 Y10.3046
G01 X12.6774 Y10.2599
G01 X12.6668 Y10.2150
G01 X12.6572 Y10.1699
G01 X12.6488 Y10.1245
G01 X12.6403 Y10.0708
G01 X12.7464 Y10.0020
G01 X12.7484 Y10.0192
G01 X12.7542 Y10.0622
G01 X12.7611 Y10.1050
G01 X12.7690 Y10.1476
G01 X12.7780 Y10.1901
G01 X12.7880 Y10.2322
G01 X12.7991 Y10.2742
G01 X12.8112 Y10.3158
G01 X12.8152 Y10.3286
G00 Z2.0000
G00 X12.9151 Y10.2649
G01 F60.00
G01 Z-0.0500
G01 F120.00
G01 X12.9089 Y10.2438
G01 X12.8986 Y10.2045
G01 X12.8892 Y10.1651
G01 X12.8808 Y10.1254
G01 X12.8734 Y10.0855
G01 X12.8670 Y10.0454
G01 X12.8615 Y10.0052
G01 X12.8570 Y9.9649
G01 X12.8535 Y9.9245
G01 X12.8519 Y9.8985
G00 Z2.0000
G00 X12.8516 Y9.7126
G01 F60.00
G01 Z-0.0500
G01 F120.00
G01 X12.8535 Y9.6813
G01 X12.8570 Y9.6409
G01 X12.8615 Y9.6006
G01 X12.8670 Y9.5604
G01 X12.8734 Y9.5203
G01 X12.8764 Y9.5040
G01 X13.0202 Y9.3876
G01 X13.0092 Y9.4290
G01 X13.0005 Y9.4657
G01 X12.9926 Y9.5027
G01 X12.9857 Y9.5398
G01 X12.9797 Y9.5771
G01 X12.9746 Y9.6145
G01 X12.9705 Y9.6521
G01 X12.9672 Y9.6897
G01 X12.9649 Y9.7274
G01 X12.9635 Y9.7651
G01 X12.9631 Y9.8029
G01 X12.9635 Y9.8407
G01 X12.9649 Y9.8784
G01 X12.9672 Y9.9161
G01 X12.9705 Y9.9538
G01 X12.9746 Y9.9913
G01 X12.9797 Y10.0287
G01 X12.9857 Y10.0660
G01 X12.9926 Y10.1031
G01 X13.0005 Y10.1401
G01 X13.0092 Y10.1768
G01 X13.0200 Y10.2175
G00 Z2.0000
G00 X13.1289 Y10.1837
G01 F60.00
G01 Z-0.0500
G01 F120.00
G01 X13.1198 Y10.1491
G01 X13.1117 Y10.1151
G01 X13.1044 Y10.0809
G01 X13.0980 Y10.0465
G01 X13.0925 Y10.0120
G01 X13.0878 Y9.9773
G01 X13.0839 Y9.9426
G01 X13.0809 Y9.9077
G01 X13.0788 Y9.8728
G01 X13.0775 Y9.8379
G01 X13.0771 Y9.8029
G01 X13.0775 Y9.7679
G01 X13.0788 Y9.7330
G01 X13.0809 Y9.6981
G01 X13.0839 Y9.6632
G01 X13.0878 Y9.6285
G01 X13.0925 Y9.5938
G01 X13.0980 Y9.5593
G01 X13.1044 Y9.5249
G01 X13.1117 Y9.4907
G01 X13.1198 Y9.4567
G01 X13.1291 Y9.4213
G00 Z2.0000
G00 X13.2419 Y9.4418
G01 F60.00
G01 Z-0.0500
G01 F120.00
G01 X13.2304 Y9.4844
G01 X13.2229 Y9.5157
G01 X13.2163 Y9.5471
G01 X13.2104 Y9.5788
G01 X13.2053 Y9.6105
G01 X13.2009 Y9.6424
G01 X13.1974 Y9.6744
G01 X13.1946 Y9.7065
G01 X13.1926 Y9.7386
G01 X13.1915 Y9.7707
G01 X13.1911 Y9.8029
G01 X13.1915 Y9.8351
G01 X13.1926 Y9.8672
G01 X13.1946 Y9.8993
G01 X13.1974 Y9.9314
G01 X13.2009 Y9.9634
G01 X13.2053 Y9.9953
G01 X13.2104 Y10.0270
G01 X13.2163 Y10.0587
G01 X13.2229 Y10.0901
G01 X13.2304 Y10.1214
G01 X13.2417 Y10.1633
G00 Z2.0000
G00 X13.3591 Y10.1583
G01 F60.00
G01 Z-0.0500
G01 F120.00
G01 X13.3484 Y10.1222
G01 X13.3409 Y10.0937
G01 X13.3341 Y10.0652
G01 X13.3281 Y10.0364
G01 X13.3227 Y10.0075
G01 X13.3180 Y9.9785
G01 X13.3141 Y9.9494
G01 X13.3108 Y9.9202
G01 X13.3083 Y9.8910
G01 X13.3065 Y9.8616
G01 X13.3054 Y9.8323
G01 X13.3051 Y9.8029
G01 X13.3054 Y9.7735
G01 X13.3065 Y9.7442
G01 X13.3083 Y9.7148
G01 X13.3108 Y9.6856
G01 X13.3141 Y9.6564
G01 X13.3180 Y9.6273
G01 X13.3227 Y9.5983
G01 X13.3281 Y9.5694
G01 X13.3341 Y9.5406
G01 X13.3409 Y9.5121
G01 X13.3484 Y9.4836
G01 X13.3594 Y9.4467
G00 Z2.0000
G00 X13.4835 Y9.4350
G01 F60.00
G01 Z-0.0500
G01 F120.00
G01 X13.4737 Y9.4632
G01 X13.4657 Y9.4885
G01 X13.4583 Y9.5141
G01 X13.4515 Y9.5398
G01 X13.4454 Y9.5656
G01 X13.4399 Y9.5916
G01 X13.4350 Y9.6178
G01 X13.4308 Y9.6440
G01 X13.4272 Y9.6703
G01 X13.4243 Y9.6968
G01 X13.4220 Y9.7232
G01 X13.4204 Y9.7498
G01 X13.4194 Y9.7763
G01 X13.4191 Y9.8029
G01 X13.4194 Y9.8295
G01 X13.4204 Y9.8560
G01 X13.4220 Y9.8826
G01 X13.4243 Y9.9091
G01 X13.4272 Y9.9355
G01 X13.4308 Y9.9618
G01 X13.4350 Y9.9881
G01 X13.4399 Y10.0142
G01 X13.4454 Y10.0402
G01 X13.4515 Y10.0661
G01 X13.4583 Y10.0918
G01 X13.4657 Y10.1173
G01 X13.4737 Y10.1426
G01 X13.4832 Y10.1699
G00 Z2.0000
G00 X13.6196 Y10.2030
G01 F60.00
G01 Z-0.0500
G01 F120.00
G01 X13.6068 Y10.1737
G01 X13.5980 Y10.1516
G01 X13.5897 Y10.1293
G01 X13.5820 Y10.1069
G01 X13.5748 Y10.0842
G01 X13.5682 Y10.0613
G01 X13.5621 Y10.0384
G01 X13.5566 Y10.0152
G01 X13.5517 Y9.9919
G01 X13.5473 Y9.9686
G01 X13.5436 Y9.9451
G01 X13.5404 Y9.9215
G01 X13.5377 Y9.8979
G01 X13.5357 Y9.8742
G01 X13.5342 Y9.8504
G01 X13.5334 Y9.8267
G01 X13.5331 Y9.8029
G01 X13.5334 Y9.7791
G01 X13.5342 Y9.7554
G01 X13.5357 Y9.7316
G01 X13.5377 Y9.7079
G01 X13.5404 Y9.6843
G01 X13.5436 Y9.6607
G01 X13.5473 Y9.6372
G01 X13.5517 Y9.6139
G01 X13.5566 Y9.5906
G01 X13.5621 Y9.5675
G01 X13.5682 Y9.5445
G01 X13.5748 Y9.5216
G01 X13.5820 Y9.4989
G01 X13.5897 Y9.4765
G01 X13.5980 Y9.4542
G01 X13.6068 Y9.4321
G01 X13.6200 Y9.4018
G00 Z2.0000
G00 X13.7952 Y9.3220
G01 F60.00
G01 Z-0.0500
G01 F120.00
G01 X13.7797 Y9.3455
G01 X13.7687 Y9.3633
G01 X13.7581 Y9.3815
G01 X13.7480 Y9.3999
G01 X13.7384 Y9.4185
G01 X13.7292 Y9.4373
G01 X13.7204 Y9.4564
G01 X13.7121 Y9.4757
G01 X13.7044 Y9.4952
G01 X13.6970 Y9.5149
G01 X13.6902 Y9.5347
G01 X13.6839 Y9.5547
G01 X13.6780 Y9.5749
G01 X13.6727 Y9.5952
G01 X13.6678 Y9.6156
G01 X13.6635 Y9.6361
G01 X13.6597 Y9.6567
G01 X13.6563 Y9.6774
G01 X13.6535 Y9.6982
G01 X13.6512 Y9.7191
G01 X13.6494 Y9.7400
G01 X13.6481 Y9.7609
G01 X13.6473 Y9.7819
G01 X13.6471 Y9.8029
G01 X13.6473 Y9.8239
G01 X13.6481 Y9.8449
G01 X13.6494 Y9.8658
G01 X13.6512 Y9.8867
G01 X13.6535 Y9.9076
G01 X13.6563 Y9.9284
G01 X13.6597 Y9.9491
G01 X13.6635 Y9.9697
G01 X13.6678 Y9.9902
G01 X13.6727 Y10.0107
G01 X13.6780 Y10.0309
G01 X13.6839 Y10.0511
G01 X13.6902 Y10.0711
G01 X13.6970 Y10.0909
G01 X13.7044 Y10.1106
G01 X13.7121 Y10.1301
G01 X13.7204 Y10.1494
G01 X13.7292 Y10.1685
G01 X13.7384 Y10.1873
G01 X13.7480 Y10.2059
G01 X13.7581 Y10.2243
G01 X13.7687 Y10.2425
G01 X13.7797 Y10.2603
G01 X13.7943 Y10.2824
G01 X14.0750 Y9.0622
G01 X14.0990 Y9.0489
G01 X14.1176 Y9.0392
G01 X14.1365 Y9.0300
G01 X14.1556 Y9.0213
G01 X14.1749 Y9.0130
G01 X14.1944 Y9.0052
G01 X14.2140 Y8.9979
G01 X14.2339 Y8.9911
G01 X14.2539 Y8.9847
G01 X14.2740 Y8.9789
G01 X14.2943 Y8.9735
G01 X14.3147 Y8.9687
G01 X14.3353 Y8.9643
G01 X14.3559 Y8.9605
G01 X14.3766 Y8.9572
G01 X14.3974 Y8.9543
G01 X14.4183 Y8.9520
G01 X14.4450 Y8.9499
G01 X14.4450 Y8.8357
G01 X14.4071 Y8.8386
G01 X14.3834 Y8.8412
G01 X14.3599 Y8.8444
G01 X14.3364 Y8.8482
G01 X14.3130 Y8.8525
G01 X14.2898 Y8.8574
G01 X14.2666 Y8.8629
G01 X14.2436 Y8.8690
G01 X14.2208 Y8.8756
G01 X14.1981 Y8.8828
G01 X14.1674 Y8.8936
G00 Z2.0000
G00 X14.2096 Y8.7602
G01 F60.00
G01 Z-0.0500
G01 F120.00
G01 X14.2389 Y8.7524
G01 X14.2648 Y8.7462
G01 X14.2908 Y8.7407
G01 X14.3169 Y8.7358
G01 X14.3432 Y8.7316
G01 X14.3695 Y8.7280
G01 X14.3959 Y8.7251
G01 X14.4224 Y8.7228
G01 X14.4450 Y8.7214
G01 X14.4450 Y8.6073
G01 X14.4140 Y8.6091
G01 X14.3847 Y8.6117
G01 X14.3555 Y8.6149
G01 X14.3264 Y8.6189
G01 X14.2974 Y8.6235
G01 X14.2685 Y8.6289
G01 X14.2309 Y8.6371
G00 Z2.0000
G00 X14.2335 Y8.5198
G01 F60.00
G01 Z-0.0500
G01 F120.00
G01 X14.2779 Y8.5112
G01 X14.3097 Y8.5061
G01 X14.3416 Y8.5018
G01 X14.3736 Y8.4982
G01 X14.4056 Y8.4955
G01 X14.4450 Y8.4932
G00 Z2.0000
G00 X14.4450 Y8.3791
G01 F60.00
G01 Z-0.0500
G01 F120.00
G01 X14.3972 Y8.3818
G01 X14.3624 Y8.3848
G01 X14.3276 Y8.3886
G01 X14.2930 Y8.3933
G01 X14.2584 Y8.3989
G01 X14.2220 Y8.4057
G00 Z2.0000
G00 X14.1970 Y8.2945
G01 F60.00
G01 Z-0.0500
G01 F120.00
G01 X14.2390 Y8.2866
G01 X14.2762 Y8.2806
G01 X14.3137 Y8.2755
G01 X14.3512 Y8.2713
G01 X14.3888 Y8.2681
G01 X14.4265 Y8.2658
G01 X14.4450 Y8.2651
G01 X14.4450 Y8.1510
G01 X14.4210 Y8.1519
G01 X14.3805 Y8.1544
G01 X14.3400 Y8.1579
G01 X14.2997 Y8.1623
G01 X14.2595 Y8.1678
G01 X14.2195 Y8.1742
G01 X14.1796 Y8.1817
G01 X14.1560 Y8.1867
G00 Z2.0000
G00 X14.1005 Y8.0823
G01 F60.00
G01 Z-0.0500
G01 F120.00
G01 X14.1149 Y8.0788
G01 X14.1573 Y8.0699
G01 X14.2000 Y8.0619
G01 X14.2428 Y8.0550
G01 X14.2858 Y8.0492
G01 X14.3289 Y8.0444
G01 X14.3721 Y8.0407
G01 X14.4154 Y8.0380
G01 X14.4450 Y8.0369
G00 Z2.0000
G00 X14.4450 Y7.9229
G01 F60.00
G01 Z-0.0500
G01 F120.00
G01 X14.4098 Y7.9242
G01 X14.3637 Y7.9270
G01 X14.3177 Y7.9310
G01 X14.2718 Y7.9360
G01 X14.2261 Y7.9423
G01 X14.1805 Y7.9496
G01 X14.1351 Y7.9580
G01 X14.0899 Y7.9676
G01 X14.0450 Y7.9783
G01 X14.0298 Y7.9823
G00 Z2.0000
G00 X13.9393 Y7.8891
G01 F60.00
G01 Z-0.0500
G01 F120.00
G01 X13.9700 Y7.8802
G01 X14.0173 Y7.8677
G01 X14.0650 Y7.8564
G01 X14.1129 Y7.8462
G01 X14.1610 Y7.8373
G01 X14.2093 Y7.8295
G01 X14.2579 Y7.8229
G01 X14.3065 Y7.8175
G01 X14.3553 Y7.8133
G01 X14.4042 Y7.8103
G01 X14.4450 Y7.8088
G00 Z2.0000
G00 X14.4450 Y7.7525
G01 F60.00
G01 Z-0.0500
G01 F120.00
G01 X14.4455 Y7.7432
G01 X14.4468 Y7.7340
G01 X14.4484 Y7.7272
G01 X14.4514 Y7.7183
G01 X14.4551 Y7.7098
G01 X14.4597 Y7.7017
G01 X14.4651 Y7.6941
G01 X14.4712 Y7.6870
G01 X14.4762 Y7.6821
G01 X14.4834 Y7.6762
G01 X14.4912 Y7.6710
G01 X14.4994 Y7.6666
G01 X14.5080 Y7.6631
G01 X14.5169 Y7.6603
G01 X14.5261 Y7.6585
G01 X14.5353 Y7.6576
G01 X16.1423 Y7.6575
G01 X16.1493 Y7.6580
G01 X16.1585 Y7.6593
G01 X16.1676 Y7.6616
G01 X16.1764 Y7.6647
G01 X16.1848 Y7.6687
G01 X16.1908 Y7.6722
G01 X16.1984 Y7.6776
G01 X16.2055 Y7.6837
G01 X16.2119 Y7.6904
G01 X16.2177 Y7.6978
G01 X16.2227 Y7.7057
G01 X16.2268 Y7.7140
G01 X16.2302 Y7.7227
G01 X16.2327 Y7.7317
G01 X16.2345 Y7.7432
G01 X16.2350 Y7.7525
G01 X16.2350 Y9.3548
G01 X16.2343 Y9.3641
G01 X16.2332 Y9.3710
G01 X16.2309 Y9.3801
G01 X16.2278 Y9.3889
G01 X16.2238 Y9.3973
G01 X16.2203 Y9.4033
G01 X16.2149 Y9.4109
G01 X16.2088 Y9.4180
G01 X16.2021 Y9.4244
G01 X16.1928 Y9.4315
G01 X16.1848 Y9.4363
G01 X16.1764 Y9.4403
G01 X16.1676 Y9.4434
G01 X16.1585 Y9.4457
G01 X16.1493 Y9.4470
G01 X16.1400 Y9.4475
G01 X14.5377 Y9.4475
G01 X14.5284 Y9.4468
G01 X14.5192 Y9.4452
G01 X14.5124 Y9.4434
G01 X14.5036 Y9.4403
G01 X14.4952 Y9.4363
G01 X14.4872 Y9.4315
G01 X14.4816 Y9.4274
G01 X14.4745 Y9.4213
G01 X14.4681 Y9.4146
G01 X14.4623 Y9.4072
G01 X14.4573 Y9.3993
G01 X14.4532 Y9.3910
G01 X14.4498 Y9.3823
G01 X14.4473 Y9.3733
G01 X14.4457 Y9.3641
G01 X14.4450 Y9.3548
G01 X14.4450 Y7.7525
G00 Z2.0000
G00 X14.4649 Y7.6944
G01 F60.00
G01 Z-0.0500
G01 F120.00
G01 X14.4503 Y7.6945
G01 X14.3986 Y7.6964
G01 X14.3469 Y7.6996
G01 X14.2953 Y7.7041
G01 X14.2439 Y7.7098
G01 X14.1926 Y7.7167
G01 X14.1415 Y7.7250
G01 X14.0906 Y7.7344
G01 X14.0400 Y7.7451
G01 X13.9896 Y7.7571
G01 X13.9396 Y7.7703
G01 X13.8899 Y7.7847
G01 X13.8301 Y7.8039
G00 Z2.0000
G00 X12.5093 Y8.2204
G01 F60.00
G01 Z-0.0500
G01 F120.00
G01 X12.4867 Y8.2065
G01 X12.4694 Y8.1973
G01 X12.4517 Y8.1889
G01 X12.4336 Y8.1814
G01 X12.4152 Y8.1748
G01 X12.3964 Y8.1691
G01 X12.3774 Y8.1644
G01 X12.3582 Y8.1605
G01 X12.3388 Y8.1577
G01 X12.3194 Y8.1557
G01 X12.2998 Y8.1548
G01 X12.2802 Y8.1548
G01 X12.2607 Y8.1557
G01 X12.2412 Y8.1577
G01 X12.2218 Y8.1605
G01 X12.1988 Y8.1653
G01 X12.2475 Y8.0425
G01 X12.2648 Y8.0413
G01 X12.2900 Y8.0407
G01 X12.3152 Y8.0413
G01 X12.3430 Y8.0434
G00 Z2.0000
G00 X12.4728 Y8.3350
G01 F60.00
G01 Z-0.0500
G01 F120.00
G01 X12.4598 Y8.3248
G01 X12.4425 Y8.3129
G01 X12.4244 Y8.3023
G01 X12.4055 Y8.2931
G01 X12.3860 Y8.2853
G01 X12.3660 Y8.2790
G01 X12.3456 Y8.2741
G01 X12.3249 Y8.2708
G01 X12.3040 Y8.2690
G01 X12.2830 Y8.2688
G01 X12.2621 Y8.2700
G01 X12.2413 Y8.2729
G01 X12.2208 Y8.2772
G01 X12.2006 Y8.2831
G01 X12.1809 Y8.2904
G01 X12.1600 Y8.3001
G01 X12.1350 Y8.4815
G01 X12.1412 Y8.4694
G01 X12.1502 Y8.4552
G01 X12.1605 Y8.4420
G01 X12.1721 Y8.4298
G01 X12.1848 Y8.4189
G01 X12.1985 Y8.4092
G01 X12.2131 Y8.4009
G01 X12.2285 Y8.3941
G01 X12.2444 Y8.3889
G01 X12.2608 Y8.3852
G01 X12.2774 Y8.3831
G01 X12.2942 Y8.3827
G01 X12.3109 Y8.3840
G01 X12.3275 Y8.3868
G01 X12.3436 Y8.3913
G01 X12.3593 Y8.3973
G01 X12.3743 Y8.4049
G01 X12.3885 Y8.4139
G01 X12.4017 Y8.4242
G01 X12.4139 Y8.4358
G01 X12.4248 Y8.4485
G01 X12.4345 Y8.4622
G01 X12.4427 Y8.4768
G01 X12.4480 Y8.4883
G01 X12.3470 Y8.5537
G01 X12.3466 Y8.5467
G01 X12.3453 Y8.5398
G01 X12.3432 Y8.5332
G01 X12.3403 Y8.5268
G01 X12.3366 Y8.5208
G01 X12.3322 Y8.5154
G01 X12.3272 Y8.5105
G01 X12.3217 Y8.5063
G01 X12.3156 Y8.5028
G01 X12.3092 Y8.5000
G01 X12.3025 Y8.4981
G01 X12.2956 Y8.4969
G01 X12.2886 Y8.4967
G01 X12.2816 Y8.4973
G01 X12.2748 Y8.4987
G01 X12.2682 Y8.5010
G01 X12.2631 Y8.5034
G01 X12.2583 Y8.5063
G01 X12.2538 Y8.5096
G01 X12.2497 Y8.5134
G01 X12.2459 Y8.5175
G01 X12.2426 Y8.5220
G01 X12.2397 Y8.5268
G01 X12.2373 Y8.5319
G01 X12.2355 Y8.5371
G01 X12.2341 Y8.5425
G01 X12.2333 Y8.5481
G01 X12.2330 Y8.5537
G01 X12.2333 Y8.5593
G01 X12.2341 Y8.5648
G01 X12.2355 Y8.5702
G01 X12.2373 Y8.5755
G01 X12.2419 Y8.5842
G01 X12.2478 Y8.5919
G01 X12.2549 Y8.5986
G01 X12.2631 Y8.6039
G01 X12.2721 Y8.6078
G01 X12.2816 Y8.6100
G01 X12.2914 Y8.6106
G01 X12.3011 Y8.6096
G01 X12.3105 Y8.6068
G01 X12.3193 Y8.6026
G01 X12.3272 Y8.5968
G01 X12.3341 Y8.5898
G01 X12.3396 Y8.5818
G01 X12.3437 Y8.5729
G01 X12.3462 Y8.5634
G01 X12.3470 Y8.5537
G01 X12.4481 Y8.6187
G01 X12.4446 Y8.6268
G01 X12.4388 Y8.6380
G01 X12.4322 Y8.6487
G01 X12.4248 Y8.6589
G01 X12.4167 Y8.6685
G01 X12.4079 Y8.6775
G01 X12.3985 Y8.6859
G01 X12.3885 Y8.6935
G01 X12.3779 Y8.7003
G01 X12.3669 Y8.7064
G01 X12.3554 Y8.7116
G01 X12.3436 Y8.7160
G01 X12.3316 Y8.7195
G01 X12.3192 Y8.7221
G01 X12.3068 Y8.7238
G01 X12.2942 Y8.7246
G01 X12.2816 Y8.7245
G01 X12.2691 Y8.7234
G01 X12.2566 Y8.7214
G01 X12.2444 Y8.7185
G01 X12.2324 Y8.7147
G01 X12.2207 Y8.7100
G01 X12.2094 Y8.7045
G01 X12.1985 Y8.6981
G01 X12.1881 Y8.6910
G01 X12.1783 Y8.6831
G01 X12.1691 Y8.6746
G01 X12.1605 Y8.6654
G01 X12.1527 Y8.6555
G01 X12.1455 Y8.6452
G01 X12.1392 Y8.6343
G01 X12.1350 Y8.6258
G01 X12.1604 Y8.8075
G01 X12.1745 Y8.8142
G01 X12.1874 Y8.8196
G01 X12.2073 Y8.8264
G01 X12.2276 Y8.8317
G01 X12.2482 Y8.8356
G01 X12.2690 Y8.8379
G01 X12.2900 Y8.8387
G01 X12.3110 Y8.8379
G01 X12.3318 Y8.8356
G01 X12.3525 Y8.8317
G01 X12.3727 Y8.8264
G01 X12.3860 Y8.8220
G01 X12.4055 Y8.8142
G01 X12.4244 Y8.8050
G01 X12.4425 Y8.7944
G01 X12.4598 Y8.7826
G01 X12.4733 Y8.7719
G00 Z2.0000
G00 X12.5100 Y8.8865
G01 F60.00
G01 Z-0.0500
G01 F120.00
G01 X12.4867 Y8.9008
G01 X12.4694 Y8.9101
G01 X12.4517 Y8.9184
G01 X12.4336 Y8.9259
G01 X12.4152 Y8.9325
G01 X12.3964 Y8.9382
G01 X12.3774 Y8.9430
G01 X12.3582 Y8.9468
G01 X12.3388 Y8.9497
G01 X12.3194 Y8.9516
G01 X12.2998 Y8.9525
G01 X12.2802 Y8.9525
G01 X12.2607 Y8.9516
G01 X12.2412 Y8.9497
G01 X12.2218 Y8.9468
G01 X12.1996 Y8.9423
G01 X12.2487 Y9.0650
G01 X12.2523 Y9.0653
G01 X12.2648 Y9.0660
G01 X12.2900 Y9.0667
G01 X12.3152 Y9.0660
G01 X12.3404 Y9.0642
G01 X12.2794 Y9.1252
G01 X12.5121 Y8.8925
G01 X12.4835 Y8.8123
G01 X12.4622 Y8.7271
G01 X12.4493 Y8.6402
G01 X12.4450 Y8.5525
G01 X12.4493 Y8.4648
G01 X12.4622 Y8.3779
G01 X12.4835 Y8.2927
G01 X12.5121 Y8.2125
G01 X12.2794 Y7.9798
G01 X12.2233 Y8.0899
G01 X12.1647 Y8.2703
G01 X12.1350 Y8.4577
G01 X12.1350 Y8.6473
G01 X12.1647 Y8.8347
G01 X12.2233 Y9.0151
G01 X12.2794 Y9.1252
G00 Z2.0000
G00 X14.4945 Y11.9118
G01 F60.00
G01 Z-0.0500
G01 F120.00
G01 X14.5538 Y11.9113
G01 X14.6055 Y11.9094
G01 X14.6572 Y11.9062
G01 X14.7088 Y11.9017
G01 X14.7602 Y11.8960
G01 X14.8115 Y11.8891
G01 X14.8626 Y11.8809
G01 X14.9135 Y11.8714
G01 X14.9597 Y11.8616
G00 Z2.0000
G00 X14.9871 Y12.2054
G01 F60.00
G01 Z-0.0500
G01 F120.00
G01 X15.0391 Y12.1943
G01 X15.0976 Y12.1804
G01 X15.1558 Y12.1651
G01 X15.2136 Y12.1484
G01 X15.2709 Y12.1302
G01 X15.3278 Y12.1106
G01 X15.3842 Y12.0897
G01 X15.4400 Y12.0673
G01 X15.4953 Y12.0436
G01 X15.5500 Y12.0186
G01 X15.6041 Y11.9922
G01 X15.6575 Y11.9645
G01 X15.7102 Y11.9355
G01 X15.7621 Y11.9052
G01 X15.8133 Y11.8736
G01 X15.8638 Y11.8408
G01 X15.9134 Y11.8068
G01 X15.9621 Y11.7716
G01 X16.0100 Y11.7351
G01 X16.0570 Y11.6976
G01 X16.1030 Y11.6588
G01 X16.1481 Y11.6190
G01 X16.1921 Y11.5780
G01 X16.2352 Y11.5360
G01 X16.2772 Y11.4930
G01 X16.3181 Y11.4489
G01 X16.3580 Y11.4038
G01 X16.3967 Y11.3578
G01 X16.4343 Y11.3108
G01 X16.4707 Y11.2630
G01 X16.5060 Y11.2142
G01 X16.5437 Y11.1590
G01 X16.4848 Y11.4301
G01 X16.4443 Y11.4783
G01 X16.4026 Y11.5255
G01 X16.3598 Y11.5716
G01 X16.3158 Y11.6166
G01 X16.2707 Y11.6606
G01 X16.2246 Y11.7034
G01 X16.1775 Y11.7451
G01 X16.1293 Y11.7857
G01 X16.0801 Y11.8250
G01 X16.0300 Y11.8631
G01 X15.9790 Y11.9000
G01 X15.9271 Y11.9356
G01 X15.8743 Y11.9700
G01 X15.8207 Y12.0030
G01 X15.7663 Y12.0347
G01 X15.7112 Y12.0650
G01 X15.6553 Y12.0940
G01 X15.5987 Y12.1216
G01 X15.5415 Y12.1479
G01 X15.4836 Y12.1727
G01 X15.4252 Y12.1960
G01 X15.3662 Y12.2180
G01 X15.3067 Y12.2384
G01 X15.2449 Y12.2580
G00 Z2.0000
G00 X15.1549 Y11.9278
G01 F60.00
G01 Z-0.0500
G01 F120.00
G01 X15.0950 Y11.9454
G01 X15.0422 Y11.9593
G01 X14.9891 Y11.9719
G01 X14.9358 Y11.9832
G01 X14.8821 Y11.9932
G01 X14.8282 Y12.0018
G01 X14.7742 Y12.0092
G01 X14.7200 Y12.0152
G01 X14.6656 Y12.0199
G01 X14.6241 Y12.0224
G01 X14.7850 Y12.1227
G01 X14.8450 Y12.1146
G01 X14.9016 Y12.1055
G01 X14.9580 Y12.0950
G01 X15.0141 Y12.0831
G01 X15.0699 Y12.0699
G01 X15.1254 Y12.0552
G01 X15.1805 Y12.0393
G01 X15.2351 Y12.0219
G01 X15.2894 Y12.0033
G01 X15.3431 Y11.9833
G01 X15.3964 Y11.9620
G01 X15.4465 Y11.9405
G01 X15.6754 Y12.2110
G01 X15.7066 Y12.1959
G01 X15.7649 Y12.1656
G01 X15.8225 Y12.1339
G01 X15.8793 Y12.1008
G01 X15.9353 Y12.0663
G01 X15.9904 Y12.0304
G01 X16.0447 Y11.9932
G01 X16.0979 Y11.9547
G01 X16.1503 Y11.9149
G01 X16.2016 Y11.8738
G01 X16.2519 Y11.8315
G01 X16.2861 Y11.8013
G01 X16.1215 Y11.4877
G01 X16.1546 Y11.4554
G01 X16.1946 Y11.4144
G01 X16.2337 Y11.3723
G01 X16.2717 Y11.3294
G01 X16.3086 Y11.2855
G01 X16.3444 Y11.2407
G01 X16.3792 Y11.1951
G01 X16.4128 Y11.1486
G01 X16.4452 Y11.1013
G01 X16.4765 Y11.0532
G01 X16.5066 Y11.0044
G01 X16.5355 Y10.9548
G01 X16.5429 Y10.9413
G01 X16.2349 Y11.0478
G01 X16.2307 Y10.9648
G01 X16.2186 Y10.8825
G01 X16.2168 Y10.8733
G01 X16.1977 Y10.7972
G01 X16.1950 Y10.7883
G01 X16.1669 Y10.7100
G01 X16.1293 Y10.6306
G01 X16.0842 Y10.5553
G01 X16.0347 Y10.4884
G01 X16.0288 Y10.4812
G01 X15.9761 Y10.4230
G01 X15.9695 Y10.4164
G01 X15.9078 Y10.3607
G01 X15.8372 Y10.3083
G01 X15.7660 Y10.2655
G01 X15.7577 Y10.2611
G01 X15.6825 Y10.2256
G01 X15.6020 Y10.1967
G01 X15.5146 Y10.1747
G01 X15.4324 Y10.1624
G01 X15.4231 Y10.1615
G01 X15.3400 Y10.1575
G01 X15.2569 Y10.1615
G01 X15.2476 Y10.1624
G01 X15.1654 Y10.1747
G01 X15.0847 Y10.1948
G01 X15.0758 Y10.1975
G01 X14.9975 Y10.2256
G01 X14.9223 Y10.2611
G01 X14.9140 Y10.2655
G01 X14.8428 Y10.3083
G01 X14.7722 Y10.3607
G01 X14.7071 Y10.4196
G01 X14.6512 Y10.4812
G01 X14.6453 Y10.4884
G01 X14.5958 Y10.5553
G01 X14.5530 Y10.6265
G01 X14.5486 Y10.6348
G01 X14.5131 Y10.7100
G01 X14.4850 Y10.7883
G01 X14.4823 Y10.7972
G01 X14.4622 Y10.8779
G01 X14.4499 Y10.9601
G01 X14.4490 Y10.9694
G01 X14.4450 Y11.0525
G01 X14.4490 Y11.1356
G01 X14.4499 Y11.1449
G01 X14.4622 Y11.2271
G01 X14.4823 Y11.3078
G01 X14.4850 Y11.3167
G01 X14.5131 Y11.3950
G01 X14.5486 Y11.4702
G01 X14.5530 Y11.4785
G01 X14.5958 Y11.5497
G01 X14.6453 Y11.6166
G01 X14.6512 Y11.6238
G01 X14.7071 Y11.6854
G01 X14.7687 Y11.7413
G01 X14.7759 Y11.7472
G01 X14.8428 Y11.7967
G01 X14.9140 Y11.8395
G01 X14.9223 Y11.8439
G01 X14.9932 Y11.8775
G01 X15.0018 Y11.8811
G01 X15.0802 Y11.9090
G01 X15.1608 Y11.9293
G01 X15.1700 Y11.9311
G01 X15.2523 Y11.9432
G01 X15.3353 Y11.9474
G01 X15.3447 Y11.9474
G01 X15.4277 Y11.9432
G01 X15.5146 Y11.9303
G01 X15.5953 Y11.9102
G01 X15.6042 Y11.9075
G01 X15.6825 Y11.8794
G01 X15.7577 Y11.8439
G01 X15.7660 Y11.8395
G01 X15.8372 Y11.7967
G01 X15.9041 Y11.7472
G01 X15.9113 Y11.7413
G01 X15.9729 Y11.6854
G01 X16.0288 Y11.6238
G01 X16.0347 Y11.6166
G01 X16.0842 Y11.5497
G01 X16.1293 Y11.4744
G01 X16.1650 Y11.3993
G01 X16.1686 Y11.3907
G01 X16.1965 Y11.3123
G01 X16.2168 Y11.2317
G01 X16.2186 Y11.2225
G01 X16.2307 Y11.1402
G01 X16.2349 Y11.0572
G01 X16.2349 Y11.0478
G00 Z2.0000
G00 X16.2199 Y11.2139
G01 F60.00
G01 Z-0.0500
G01 F120.00
G01 X16.2546 Y11.1706
G01 X16.2876 Y11.1271
G01 X16.3196 Y11.0829
G01 X16.3504 Y11.0379
G01 X16.3802 Y10.9922
G01 X16.4088 Y10.9458
G01 X16.4363 Y10.8986
G01 X16.4626 Y10.8508
G01 X16.4877 Y10.8024
G01 X16.5109 Y10.7549
G01 X16.4578 Y10.5917
G01 X16.4505 Y10.6100
G01 X16.4301 Y10.6576
G01 X16.4086 Y10.7046
G01 X16.3859 Y10.7511
G01 X16.3620 Y10.7971
G01 X16.3371 Y10.8424
G01 X16.3110 Y10.8871
G01 X16.2839 Y10.9312
G01 X16.2556 Y10.9746
G01 X16.2329 Y11.0077
G00 Z2.0000
G00 X16.2078 Y10.8374
G01 F60.00
G01 Z-0.0500
G01 F120.00
G01 X16.2379 Y10.7862
G01 X16.2615 Y10.7433
G01 X16.2840 Y10.6999
G01 X16.3055 Y10.6559
G01 X16.3259 Y10.6114
G01 X16.3452 Y10.5664
G01 X16.3634 Y10.5209
G01 X16.3804 Y10.4750
G01 X16.3878 Y10.4536
G01 X16.3069 Y10.3324
G01 X16.3021 Y10.3489
G01 X16.2881 Y10.3929
G01 X16.2731 Y10.4366
G01 X16.2570 Y10.4799
G01 X16.2399 Y10.5227
G01 X16.2217 Y10.5652
G01 X16.2025 Y10.6071
G01 X16.1822 Y10.6486
G01 X16.1590 Y10.6931
G00 Z2.0000
G00 X16.0935 Y10.5706
G01 F60.00
G01 Z-0.0500
G01 F120.00
G01 X16.0994 Y10.5584
G01 X16.1175 Y10.5190
G01 X16.1346 Y10.4791
G01 X16.1507 Y10.4388
G01 X16.1658 Y10.3982
G01 X16.1799 Y10.3572
G01 X16.1930 Y10.3158
G01 X16.2051 Y10.2742
G01 X16.2177 Y10.2254
G01 X16.1223 Y10.1300
G01 X16.1149 Y10.1651
G01 X16.1055 Y10.2045
G01 X16.0952 Y10.2438
G01 X16.0839 Y10.2827
G01 X16.0716 Y10.3214
G01 X16.0584 Y10.3598
G01 X16.0443 Y10.3978
G01 X16.0292 Y10.4355
G01 X16.0158 Y10.4668
G00 Z2.0000
G00 X15.9288 Y10.3796
G01 F60.00
G01 Z-0.0500
G01 F120.00
G01 X15.9379 Y10.3568
G01 X15.9511 Y10.3214
G01 X15.9634 Y10.2857
G01 X15.9748 Y10.2497
G01 X15.9853 Y10.2134
G01 X15.9949 Y10.1768
G01 X16.0037 Y10.1401
G01 X16.0115 Y10.1031
G01 X16.0184 Y10.0660
G01 X16.0244 Y10.0287
G01 X16.0295 Y9.9913
G01 X16.0337 Y9.9538
G01 X16.0369 Y9.9161
G01 X16.0392 Y9.8784
G01 X16.0406 Y9.8407
G01 X16.0411 Y9.8029
G00 Z2.0000
G00 X17.3012 Y14.0303
G01 F60.00
G01 Z-0.0500
G01 F120.00
G01 X17.3393 Y14.6509
G01 X17.4006 Y15.3631
G01 X17.4794 Y16.0736
G01 X17.5125 Y16.3169
G00 Z2.0000
G00 X17.5232 Y16.3960
G01 F60.00
G01 Z-0.0500
G01 F120.00
G01 X17.5756 Y16.7820
G01 X17.6012 Y16.9411
G01 X17.7388 Y17.0787
G01 X17.6884 Y16.7653
G01 X17.6607 Y16.5616
G00 Z2.0000
G00 X17.7938 Y16.6947
G01 F60.00
G01 Z-0.0500
G01 F120.00
G01 X17.8012 Y16.7485
G01 X17.8701 Y17.1770
G01 X17.9927 Y17.2214
G01 X17.9298 Y16.8307
G00 Z2.0000
G00 X18.0593 Y16.9176
G01 F60.00
G01 Z-0.0500
G01 F120.00
G01 X18.1100 Y17.2330
G01 X18.2255 Y17.2330
G01 X18.1755 Y16.9225
G01 X18.2910 Y16.9225
G01 X18.3409 Y17.2330
G01 X18.4564 Y17.2330
G01 X18.4064 Y16.9225
G01 X18.5219 Y16.9225
G01 X18.5723 Y17.2355
G00 Z2.0000
G00 X18.6877 Y17.2355
G01 F60.00
G01 Z-0.0500
G01 F120.00
G01 X18.6378 Y16.9250
G01 X18.7532 Y16.9250
G01 X18.8032 Y17.2355
G01 X18.9186 Y17.2355
G01 X18.8687 Y16.9250
G01 X18.9841 Y16.9250
G01 X19.0341 Y17.2355
G00 Z2.0000
G00 X19.1496 Y17.2355
G01 F60.00
G01 Z-0.0500
G01 F120.00
G01 X19.0996 Y16.9250
G01 X19.2150 Y16.9250
